(G-CODE GENERATED BY FLATCAM v8.994 - www.flatcam.org - Version Date: 2020/11/7)

(Name: acceso_stem_PCB - CADCAM Bottom Copper.GBR_iso_combined_cnc)
(Type: G-code from Geometry)
(Units: MM)

(Created on Monday, 08 July 2024 at 18:01)

(This preprocessor is the default preprocessor used by FlatCAM.)
(It is made to work with MACH3 compatible motion controllers.)

(TOOL DIAMETER: 0.17 mm)
(Feedrate_XY: 120.0 mm/min)
(Feedrate_Z: 60.0 mm/min)
(Feedrate rapids 1500.0 mm/min)

(Z_Cut: -0.2706 mm)
(Z_Move: 2.0 mm)
(Z Start: None mm)
(Z End: 15.0 mm)
(X,Y End: None mm)
(Steps per circle: 64)
(Preprocessor Geometry: default)

(X range:    1.8990 ...   62.0012  mm)
(Y range:    2.2562 ...   68.6010  mm)

(Spindle Speed: 0.0 RPM)
G21
G90
G94

G01 F120.00

M5
G00 Z15.0000
G00 X0.0000 Y0.0000
T1
M6    
(MSG, Change to Tool Dia = 0.1700)
M0
G00 Z15.0000

M03
G01 F120.00
G00 X3.7214 Y4.2526
G01 F60.00
G01 Z-0.2706
G01 F120.00
G01 X3.7214 Y3.6430
G01 X3.7222 Y3.6295
G01 X3.7237 Y3.6202
G01 X3.7253 Y3.6131
G01 X3.7271 Y3.6071
G01 X3.7303 Y3.5983
G01 X3.7362 Y3.5861
G01 X3.7411 Y3.5781
G01 X3.7454 Y3.5722
G01 X3.7542 Y3.5619
G01 X3.7641 Y3.5527
G01 X3.7733 Y3.5459
G01 X3.7850 Y3.5390
G01 X3.7919 Y3.5273
G01 X3.7974 Y3.5198
G01 X3.8015 Y3.5150
G01 X3.8064 Y3.5096
G01 X3.8133 Y3.5033
G01 X3.8241 Y3.4951
G01 X3.8340 Y3.4892
G01 X3.8443 Y3.4843
G01 X3.8551 Y3.4805
G01 X3.8683 Y3.4773
G01 X3.8796 Y3.4758
G01 X3.8911 Y3.4755
G01 X3.9025 Y3.4762
G01 X3.9144 Y3.4782
G01 X3.9284 Y3.4760
G01 X3.9377 Y3.4755
G01 X3.9450 Y3.4756
G01 X3.9539 Y3.4642
G01 X3.9588 Y3.4588
G01 X3.9657 Y3.4525
G01 X3.9765 Y3.4443
G01 X3.9882 Y3.4375
G01 X4.0006 Y3.4320
G01 X4.0075 Y3.4297
G01 X4.0166 Y3.4273
G01 X4.0320 Y3.4250
G01 X4.0466 Y3.4248
G01 X4.0541 Y3.4149
G01 X4.0604 Y3.4080
G01 X4.0658 Y3.4031
G01 X4.0764 Y3.3947
G01 X4.0880 Y3.3876
G01 X4.0964 Y3.3835
G01 X4.1022 Y3.3812
G01 X4.1091 Y3.3789
G01 X4.1182 Y3.3765
G01 X4.1336 Y3.3742
G01 X4.1482 Y3.3740
G01 X4.1557 Y3.3641
G01 X4.1620 Y3.3572
G01 X4.1674 Y3.3523
G01 X4.1780 Y3.3439
G01 X4.1896 Y3.3368
G01 X4.1980 Y3.3327
G01 X4.2038 Y3.3304
G01 X4.2107 Y3.3281
G01 X4.2198 Y3.3257
G01 X4.2352 Y3.3234
G01 X4.2498 Y3.3232
G01 X4.2573 Y3.3133
G01 X4.2636 Y3.3064
G01 X4.2690 Y3.3015
G01 X4.2796 Y3.2931
G01 X4.2912 Y3.2860
G01 X4.2996 Y3.2819
G01 X4.3054 Y3.2796
G01 X4.3123 Y3.2773
G01 X4.3214 Y3.2749
G01 X4.3368 Y3.2726
G01 X4.3514 Y3.2724
G01 X4.3589 Y3.2625
G01 X4.3683 Y3.2528
G01 X4.3737 Y3.2479
G01 X4.3795 Y3.2435
G01 X4.3909 Y3.2362
G01 X4.4051 Y3.2295
G01 X4.4139 Y3.2265
G01 X4.4230 Y3.2241
G01 X4.4384 Y3.2218
G01 X4.4530 Y3.2216
G01 X4.4591 Y3.2133
G01 X4.4640 Y3.2079
G01 X4.4683 Y3.2034
G01 X4.4753 Y3.1971
G01 X4.4828 Y3.1915
G01 X4.4881 Y3.1881
G01 X4.4962 Y3.1835
G01 X4.5047 Y3.1795
G01 X4.5155 Y3.1757
G01 X4.5287 Y3.1725
G01 X4.5400 Y3.1710
G01 X4.5546 Y3.1708
G01 X4.5635 Y3.1594
G01 X4.5684 Y3.1540
G01 X4.5753 Y3.1477
G01 X4.5879 Y3.1384
G01 X4.5960 Y3.1336
G01 X4.6025 Y3.1304
G01 X4.6151 Y3.1255
G01 X4.6282 Y3.1221
G01 X4.6416 Y3.1202
G01 X4.6562 Y3.1200
G01 X4.6651 Y3.1086
G01 X4.6700 Y3.1032
G01 X4.6769 Y3.0969
G01 X4.6877 Y3.0887
G01 X4.6957 Y3.0838
G01 X4.7013 Y3.0809
G01 X4.7079 Y3.0779
G01 X4.7167 Y3.0747
G01 X4.7298 Y3.0713
G01 X4.7432 Y3.0694
G01 X4.7578 Y3.0692
G01 X4.7667 Y3.0578
G01 X4.7716 Y3.0524
G01 X4.7785 Y3.0461
G01 X4.7893 Y3.0379
G01 X4.7973 Y3.0330
G01 X4.8029 Y3.0301
G01 X4.8095 Y3.0271
G01 X4.8183 Y3.0239
G01 X4.8314 Y3.0205
G01 X4.8448 Y3.0186
G01 X4.8594 Y3.0184
G01 X4.8683 Y3.0070
G01 X4.8732 Y3.0016
G01 X4.8801 Y2.9953
G01 X4.8909 Y2.9871
G01 X4.8989 Y2.9822
G01 X4.9045 Y2.9793
G01 X4.9131 Y2.9755
G01 X4.9239 Y2.9719
G01 X4.9330 Y2.9697
G01 X4.9444 Y2.9680
G01 X4.9537 Y2.9675
G01 X4.9631 Y2.9677
G01 X4.9714 Y2.9685
G01 X4.9812 Y2.9702
G01 X4.9952 Y2.9680
G01 X5.0045 Y2.9675
G01 X5.0118 Y2.9676
G01 X5.0193 Y2.9577
G01 X5.0256 Y2.9508
G01 X5.0310 Y2.9459
G01 X5.0416 Y2.9375
G01 X5.0532 Y2.9304
G01 X5.0616 Y2.9263
G01 X5.0674 Y2.9240
G01 X5.0743 Y2.9217
G01 X5.0834 Y2.9193
G01 X5.0988 Y2.9170
G01 X5.1134 Y2.9168
G01 X5.1209 Y2.9069
G01 X5.1272 Y2.9000
G01 X5.1326 Y2.8951
G01 X5.1432 Y2.8867
G01 X5.1548 Y2.8796
G01 X5.1632 Y2.8755
G01 X5.1690 Y2.8732
G01 X5.1759 Y2.8709
G01 X5.1850 Y2.8685
G01 X5.2004 Y2.8662
G01 X5.2150 Y2.8660
G01 X5.2225 Y2.8561
G01 X5.2288 Y2.8492
G01 X5.2342 Y2.8443
G01 X5.2448 Y2.8359
G01 X5.2564 Y2.8288
G01 X5.2648 Y2.8247
G01 X5.2706 Y2.8224
G01 X5.2775 Y2.8201
G01 X5.2866 Y2.8177
G01 X5.3020 Y2.8154
G01 X5.3166 Y2.8152
G01 X5.3241 Y2.8053
G01 X5.3335 Y2.7956
G01 X5.3389 Y2.7907
G01 X5.3447 Y2.7863
G01 X5.3561 Y2.7790
G01 X5.3703 Y2.7723
G01 X5.3791 Y2.7693
G01 X5.3882 Y2.7669
G01 X5.4036 Y2.7646
G01 X5.4182 Y2.7644
G01 X5.4243 Y2.7561
G01 X5.4292 Y2.7507
G01 X5.4335 Y2.7462
G01 X5.4405 Y2.7399
G01 X5.4480 Y2.7343
G01 X5.4533 Y2.7309
G01 X5.4614 Y2.7263
G01 X5.4699 Y2.7223
G01 X5.4807 Y2.7185
G01 X5.4939 Y2.7153
G01 X5.5052 Y2.7138
G01 X5.5198 Y2.7136
G01 X5.5287 Y2.7022
G01 X5.5336 Y2.6968
G01 X5.5405 Y2.6905
G01 X5.5531 Y2.6812
G01 X5.5612 Y2.6764
G01 X5.5677 Y2.6732
G01 X5.5803 Y2.6683
G01 X5.5934 Y2.6649
G01 X5.6068 Y2.6630
G01 X5.6214 Y2.6628
G01 X5.6303 Y2.6514
G01 X5.6352 Y2.6460
G01 X5.6421 Y2.6397
G01 X5.6529 Y2.6315
G01 X5.6609 Y2.6266
G01 X5.6665 Y2.6237
G01 X5.6731 Y2.6207
G01 X5.6819 Y2.6175
G01 X5.6950 Y2.6141
G01 X5.7084 Y2.6122
G01 X5.7230 Y2.6120
G01 X5.7319 Y2.6006
G01 X5.7368 Y2.5952
G01 X5.7437 Y2.5889
G01 X5.7545 Y2.5807
G01 X5.7625 Y2.5758
G01 X5.7681 Y2.5729
G01 X5.7747 Y2.5699
G01 X5.7835 Y2.5667
G01 X5.7966 Y2.5633
G01 X5.8100 Y2.5614
G01 X5.8246 Y2.5612
G01 X5.8335 Y2.5498
G01 X5.8384 Y2.5444
G01 X5.8453 Y2.5381
G01 X5.8561 Y2.5299
G01 X5.8678 Y2.5231
G01 X5.8763 Y2.5191
G01 X5.8871 Y2.5153
G01 X5.8982 Y2.5125
G01 X5.9075 Y2.5110
G01 X5.9189 Y2.5103
G01 X5.9283 Y2.5105
G01 X5.9366 Y2.5113
G01 X5.9464 Y2.5130
G01 X5.9604 Y2.5108
G01 X5.9697 Y2.5103
G01 X5.9770 Y2.5104
G01 X5.9845 Y2.5005
G01 X5.9908 Y2.4936
G01 X5.9962 Y2.4887
G01 X6.0068 Y2.4803
G01 X6.0184 Y2.4732
G01 X6.0268 Y2.4691
G01 X6.0326 Y2.4668
G01 X6.0395 Y2.4645
G01 X6.0486 Y2.4621
G01 X6.0640 Y2.4598
G01 X6.0786 Y2.4596
G01 X6.0861 Y2.4497
G01 X6.0924 Y2.4428
G01 X6.0978 Y2.4379
G01 X6.1084 Y2.4295
G01 X6.1200 Y2.4224
G01 X6.1284 Y2.4183
G01 X6.1342 Y2.4160
G01 X6.1411 Y2.4137
G01 X6.1502 Y2.4113
G01 X6.1656 Y2.4090
G01 X6.1802 Y2.4088
G01 X6.1877 Y2.3989
G01 X6.1971 Y2.3892
G01 X6.2025 Y2.3843
G01 X6.2083 Y2.3799
G01 X6.2197 Y2.3726
G01 X6.2339 Y2.3659
G01 X6.2427 Y2.3629
G01 X6.2518 Y2.3605
G01 X6.2672 Y2.3582
G01 X6.2818 Y2.3580
G01 X6.2893 Y2.3481
G01 X6.2971 Y2.3398
G01 X6.3058 Y2.3322
G01 X6.3169 Y2.3245
G01 X6.3232 Y2.3208
G01 X6.3316 Y2.3167
G01 X6.3403 Y2.3134
G01 X6.3483 Y2.3109
G01 X6.3575 Y2.3089
G01 X6.3668 Y2.3076
G01 X6.3761 Y2.3071
G01 X6.3834 Y2.3072
G01 X6.3895 Y2.2989
G01 X6.3944 Y2.2935
G01 X6.3987 Y2.2890
G01 X6.4057 Y2.2827
G01 X6.4132 Y2.2771
G01 X6.4185 Y2.2737
G01 X6.4248 Y2.2700
G01 X6.4332 Y2.2659
G01 X6.4439 Y2.2619
G01 X6.4529 Y2.2594
G01 X6.4611 Y2.2578
G01 X6.4725 Y2.2565
G01 X6.4819 Y2.2563
G01 X6.4933 Y2.2570
G01 X6.5026 Y2.2585
G01 X6.5137 Y2.2613
G01 X6.5245 Y2.2651
G01 X6.5330 Y2.2691
G01 X6.5411 Y2.2737
G01 X6.5481 Y2.2783
G01 X6.5555 Y2.2841
G01 X6.5638 Y2.2919
G01 X6.5701 Y2.2989
G01 X6.5769 Y2.3081
G01 X6.5818 Y2.3161
G01 X6.5860 Y2.3245
G01 X6.5885 Y2.3303
G01 X6.5915 Y2.3391
G01 X6.5939 Y2.3482
G01 X6.5950 Y2.3543
G01 X6.5962 Y2.3636
G01 X6.5966 Y2.3730
G01 X6.5965 Y2.9847
G01 X6.5955 Y2.9982
G01 X6.5943 Y3.0054
G01 X6.5927 Y3.0125
G01 X6.5885 Y3.0253
G01 X6.5837 Y3.0358
G01 X6.5791 Y3.0439
G01 X6.5745 Y3.0509
G01 X6.5687 Y3.0583
G01 X6.5624 Y3.0652
G01 X6.5555 Y3.0715
G01 X6.5481 Y3.0773
G01 X6.5411 Y3.0819
G01 X6.5330 Y3.0866
G01 X6.5283 Y3.0947
G01 X6.5237 Y3.1017
G01 X6.5179 Y3.1091
G01 X6.5116 Y3.1160
G01 X6.5047 Y3.1223
G01 X6.4998 Y3.1262
G01 X6.4921 Y3.1316
G01 X6.4840 Y3.1364
G01 X6.4756 Y3.1405
G01 X6.4698 Y3.1428
G01 X6.4629 Y3.1451
G01 X6.4538 Y3.1475
G01 X6.4384 Y3.1498
G01 X6.4238 Y3.1500
G01 X6.4177 Y3.1583
G01 X6.4114 Y3.1653
G01 X6.4031 Y3.1731
G01 X6.3957 Y3.1789
G01 X6.3887 Y3.1835
G01 X6.3806 Y3.1881
G01 X6.3721 Y3.1921
G01 X6.3613 Y3.1959
G01 X6.3481 Y3.1991
G01 X6.3347 Y3.2007
G01 X6.3274 Y3.2010
G01 X6.3180 Y3.2006
G01 X6.3087 Y3.1994
G01 X6.3020 Y3.1982
G01 X6.2880 Y3.2004
G01 X6.2787 Y3.2009
G01 X6.2714 Y3.2008
G01 X6.2639 Y3.2107
G01 X6.2545 Y3.2204
G01 X6.2491 Y3.2253
G01 X6.2433 Y3.2297
G01 X6.2319 Y3.2370
G01 X6.2177 Y3.2437
G01 X6.2089 Y3.2467
G01 X6.1998 Y3.2491
G01 X6.1844 Y3.2514
G01 X6.1698 Y3.2516
G01 X6.1623 Y3.2615
G01 X6.1545 Y3.2698
G01 X6.1458 Y3.2774
G01 X6.1347 Y3.2851
G01 X6.1284 Y3.2888
G01 X6.1219 Y3.2920
G01 X6.1113 Y3.2962
G01 X6.0982 Y3.2999
G01 X6.0886 Y3.3015
G01 X6.0886 Y3.9845
G01 X6.0988 Y3.9862
G01 X6.1128 Y3.9840
G01 X6.1263 Y3.9835
G01 X6.1377 Y3.9842
G01 X6.1496 Y3.9862
G01 X6.1636 Y3.9840
G01 X6.1771 Y3.9835
G01 X6.1885 Y3.9842
G01 X6.2004 Y3.9862
G01 X6.2144 Y3.9840
G01 X6.2258 Y3.9834
G01 X6.2372 Y3.9840
G01 X6.2512 Y3.9862
G01 X6.2652 Y3.9840
G01 X6.2766 Y3.9834
G01 X6.2880 Y3.9840
G01 X6.3020 Y3.9862
G01 X6.3160 Y3.9840
G01 X6.3295 Y3.9835
G01 X6.3388 Y3.9840
G01 X6.3461 Y3.9850
G01 X6.3593 Y3.9879
G01 X6.3682 Y3.9908
G01 X6.3759 Y3.9940
G01 X6.3843 Y3.9982
G01 X6.3940 Y4.0043
G01 X6.4015 Y4.0099
G01 X6.4100 Y4.0176
G01 X6.4177 Y4.0261
G01 X6.4238 Y4.0344
G01 X6.4311 Y4.0343
G01 X6.4404 Y4.0348
G01 X6.4544 Y4.0370
G01 X6.4642 Y4.0353
G01 X6.4725 Y4.0345
G01 X6.4819 Y4.0343
G01 X6.4933 Y4.0350
G01 X6.5046 Y4.0369
G01 X6.5157 Y4.0399
G01 X6.5264 Y4.0439
G01 X6.5367 Y4.0490
G01 X6.5447 Y4.0539
G01 X6.5539 Y4.0607
G01 X6.5624 Y4.0684
G01 X6.5701 Y4.0769
G01 X6.5769 Y4.0861
G01 X6.5828 Y4.0960
G01 X6.5877 Y4.1063
G01 X6.5915 Y4.1171
G01 X6.5939 Y4.1262
G01 X6.5950 Y4.1323
G01 X6.5962 Y4.1416
G01 X6.5966 Y4.1510
G01 X6.5966 Y4.7098
G01 X6.5962 Y4.7192
G01 X6.5943 Y4.7326
G01 X6.5915 Y4.7437
G01 X6.5869 Y4.7564
G01 X6.5807 Y4.7685
G01 X6.5769 Y4.7747
G01 X6.5726 Y4.7806
G01 X6.5638 Y4.7909
G01 X6.5539 Y4.8001
G01 X6.5447 Y4.8069
G01 X6.5330 Y4.8137
G01 X6.5245 Y4.8177
G01 X6.5177 Y4.8202
G01 X6.5046 Y4.8239
G01 X6.4912 Y4.8260
G01 X6.4819 Y4.8265
G01 X6.4725 Y4.8263
G01 X6.4642 Y4.8255
G01 X6.4544 Y4.8238
G01 X6.4425 Y4.8258
G01 X6.4311 Y4.8265
G01 X6.4176 Y4.8260
G01 X6.4036 Y4.8238
G01 X6.3917 Y4.8258
G01 X6.3824 Y4.8265
G01 X6.3709 Y4.8263
G01 X6.3626 Y4.8255
G01 X6.3554 Y4.8243
G01 X6.3483 Y4.8227
G01 X6.3374 Y4.8192
G01 X6.3250 Y4.8137
G01 X6.3151 Y4.8080
G01 X6.3058 Y4.8014
G01 X6.2971 Y4.7938
G01 X6.2893 Y4.7855
G01 X6.2818 Y4.7756
G01 X6.2745 Y4.7757
G01 X6.2652 Y4.7752
G01 X6.2512 Y4.7730
G01 X6.2372 Y4.7752
G01 X6.2258 Y4.7758
G01 X6.2144 Y4.7752
G01 X6.2004 Y4.7730
G01 X6.1885 Y4.7750
G01 X6.1771 Y4.7757
G01 X6.1636 Y4.7752
G01 X6.1496 Y4.7730
G01 X6.1377 Y4.7750
G01 X6.1263 Y4.7757
G01 X6.1128 Y4.7752
G01 X6.0988 Y4.7730
G01 X6.0890 Y4.7747
G01 X6.0807 Y4.7755
G01 X6.0713 Y4.7757
G01 X6.0620 Y4.7752
G01 X6.0506 Y4.7735
G01 X6.0375 Y4.7701
G01 X6.0268 Y4.7661
G01 X6.0147 Y4.7599
G01 X6.0085 Y4.7561
G01 X6.0026 Y4.7518
G01 X5.9923 Y4.7430
G01 X5.9845 Y4.7347
G01 X5.9770 Y4.7248
G01 X5.9697 Y4.7249
G01 X5.9604 Y4.7244
G01 X5.9464 Y4.7222
G01 X5.9324 Y4.7244
G01 X5.9189 Y4.7249
G01 X5.9075 Y4.7242
G01 X5.8956 Y4.7222
G01 X5.8816 Y4.7244
G01 X5.8681 Y4.7249
G01 X5.8567 Y4.7242
G01 X5.8448 Y4.7222
G01 X5.8308 Y4.7244
G01 X5.8173 Y4.7249
G01 X5.8059 Y4.7242
G01 X5.7940 Y4.7222
G01 X5.7800 Y4.7244
G01 X5.7686 Y4.7250
G01 X5.7572 Y4.7244
G01 X5.7438 Y4.7223
G01 X5.7347 Y4.7199
G01 X5.7239 Y4.7161
G01 X5.7136 Y4.7112
G01 X5.7037 Y4.7053
G01 X5.6945 Y4.6985
G01 X5.6860 Y4.6908
G01 X5.6783 Y4.6823
G01 X5.6722 Y4.6740
G01 X5.6649 Y4.6741
G01 X5.6556 Y4.6736
G01 X5.6416 Y4.6714
G01 X5.6276 Y4.6736
G01 X5.6162 Y4.6742
G01 X5.6048 Y4.6736
G01 X5.5908 Y4.6714
G01 X5.5768 Y4.6736
G01 X5.5654 Y4.6742
G01 X5.5540 Y4.6736
G01 X5.5400 Y4.6714
G01 X5.5260 Y4.6736
G01 X5.5146 Y4.6742
G01 X5.5032 Y4.6736
G01 X5.4892 Y4.6714
G01 X5.4752 Y4.6736
G01 X5.4638 Y4.6742
G01 X5.4524 Y4.6736
G01 X5.4410 Y4.6719
G01 X5.4299 Y4.6691
G01 X5.4191 Y4.6653
G01 X5.4088 Y4.6604
G01 X5.3989 Y4.6545
G01 X5.3897 Y4.6477
G01 X5.3812 Y4.6400
G01 X5.3735 Y4.6315
G01 X5.3674 Y4.6232
G01 X5.3601 Y4.6233
G01 X5.3508 Y4.6228
G01 X5.3368 Y4.6206
G01 X5.3228 Y4.6228
G01 X5.3114 Y4.6234
G01 X5.3000 Y4.6228
G01 X5.2860 Y4.6206
G01 X5.2720 Y4.6228
G01 X5.2606 Y4.6234
G01 X5.2492 Y4.6228
G01 X5.2352 Y4.6206
G01 X5.2212 Y4.6228
G01 X5.2098 Y4.6234
G01 X5.1984 Y4.6228
G01 X5.1844 Y4.6206
G01 X5.1704 Y4.6228
G01 X5.1590 Y4.6234
G01 X5.1476 Y4.6228
G01 X5.1362 Y4.6211
G01 X5.1251 Y4.6183
G01 X5.1143 Y4.6145
G01 X5.1040 Y4.6096
G01 X5.0941 Y4.6037
G01 X5.0849 Y4.5969
G01 X5.0764 Y4.5892
G01 X5.0687 Y4.5807
G01 X5.0626 Y4.5724
G01 X5.0553 Y4.5725
G01 X5.0460 Y4.5720
G01 X5.0320 Y4.5698
G01 X5.0180 Y4.5720
G01 X5.0066 Y4.5726
G01 X4.9952 Y4.5720
G01 X4.9812 Y4.5698
G01 X4.9672 Y4.5720
G01 X4.9558 Y4.5726
G01 X4.9444 Y4.5720
G01 X4.9304 Y4.5698
G01 X4.9164 Y4.5720
G01 X4.9050 Y4.5726
G01 X4.8936 Y4.5720
G01 X4.8796 Y4.5698
G01 X4.8656 Y4.5720
G01 X4.8542 Y4.5726
G01 X4.8428 Y4.5720
G01 X4.8314 Y4.5703
G01 X4.8203 Y4.5675
G01 X4.8095 Y4.5637
G01 X4.7992 Y4.5588
G01 X4.7893 Y4.5529
G01 X4.7801 Y4.5461
G01 X4.7716 Y4.5384
G01 X4.7639 Y4.5299
G01 X4.7578 Y4.5216
G01 X4.7505 Y4.5217
G01 X4.7412 Y4.5212
G01 X4.7272 Y4.5190
G01 X4.7132 Y4.5212
G01 X4.7018 Y4.5218
G01 X4.6904 Y4.5212
G01 X4.6764 Y4.5190
G01 X4.6624 Y4.5212
G01 X4.6510 Y4.5218
G01 X4.6396 Y4.5212
G01 X4.6256 Y4.5190
G01 X4.6116 Y4.5212
G01 X4.6002 Y4.5218
G01 X4.5888 Y4.5212
G01 X4.5748 Y4.5190
G01 X4.5629 Y4.5210
G01 X4.5515 Y4.5217
G01 X4.5400 Y4.5214
G01 X4.5287 Y4.5199
G01 X4.5175 Y4.5173
G01 X4.5067 Y4.5137
G01 X4.4962 Y4.5089
G01 X4.4863 Y4.5032
G01 X4.4770 Y4.4966
G01 X4.4683 Y4.4890
G01 X4.4605 Y4.4807
G01 X4.4530 Y4.4708
G01 X4.4457 Y4.4709
G01 X4.4364 Y4.4704
G01 X4.4224 Y4.4682
G01 X4.4084 Y4.4704
G01 X4.3970 Y4.4710
G01 X4.3856 Y4.4704
G01 X4.3716 Y4.4682
G01 X4.3576 Y4.4704
G01 X4.3462 Y4.4710
G01 X4.3348 Y4.4704
G01 X4.3208 Y4.4682
G01 X4.3068 Y4.4704
G01 X4.2954 Y4.4710
G01 X4.2840 Y4.4704
G01 X4.2700 Y4.4682
G01 X4.2581 Y4.4702
G01 X4.2467 Y4.4709
G01 X4.2352 Y4.4706
G01 X4.2239 Y4.4691
G01 X4.2127 Y4.4665
G01 X4.2019 Y4.4629
G01 X4.1914 Y4.4581
G01 X4.1815 Y4.4524
G01 X4.1722 Y4.4458
G01 X4.1635 Y4.4382
G01 X4.1557 Y4.4299
G01 X4.1482 Y4.4200
G01 X4.1409 Y4.4201
G01 X4.1316 Y4.4196
G01 X4.1176 Y4.4174
G01 X4.1036 Y4.4196
G01 X4.0922 Y4.4202
G01 X4.0808 Y4.4196
G01 X4.0668 Y4.4174
G01 X4.0528 Y4.4196
G01 X4.0414 Y4.4202
G01 X4.0300 Y4.4196
G01 X4.0160 Y4.4174
G01 X4.0020 Y4.4196
G01 X3.9906 Y4.4202
G01 X3.9792 Y4.4196
G01 X3.9652 Y4.4174
G01 X3.9512 Y4.4196
G01 X3.9398 Y4.4202
G01 X3.9284 Y4.4196
G01 X3.9170 Y4.4179
G01 X3.9059 Y4.4151
G01 X3.8951 Y4.4113
G01 X3.8848 Y4.4064
G01 X3.8749 Y4.4005
G01 X3.8657 Y4.3937
G01 X3.8572 Y4.3860
G01 X3.8495 Y4.3775
G01 X3.8434 Y4.3692
G01 X3.8361 Y4.3693
G01 X3.8247 Y4.3686
G01 X3.8134 Y4.3667
G01 X3.8023 Y4.3637
G01 X3.7916 Y4.3597
G01 X3.7813 Y4.3546
G01 X3.7716 Y4.3485
G01 X3.7625 Y4.3415
G01 X3.7542 Y4.3337
G01 X3.7454 Y4.3234
G01 X3.7389 Y4.3139
G01 X3.7352 Y4.3076
G01 X3.7320 Y4.3011
G01 X3.7271 Y4.2885
G01 X3.7241 Y4.2774
G01 X3.7220 Y4.2640
G01 X3.7214 Y4.2526
G00 Z2.0000
G00 X4.8288 Y3.8078
G01 F60.00
G01 Z-0.2706
G01 F120.00
G01 X4.8386 Y3.8095
G01 X4.8469 Y3.8103
G01 X4.8563 Y3.8105
G01 X4.8656 Y3.8100
G01 X4.8749 Y3.8087
G01 X4.8841 Y3.8067
G01 X4.8901 Y3.8049
G01 X4.8989 Y3.8017
G01 X4.9074 Y3.7977
G01 X4.9155 Y3.7931
G01 X4.9208 Y3.7897
G01 X4.9283 Y3.7841
G01 X4.9353 Y3.7778
G01 X4.9396 Y3.7733
G01 X4.9445 Y3.7679
G01 X4.9506 Y3.7596
G01 X4.9579 Y3.7597
G01 X4.9672 Y3.7592
G01 X4.9765 Y3.7579
G01 X4.9857 Y3.7559
G01 X4.9937 Y3.7534
G01 X5.0024 Y3.7501
G01 X5.0108 Y3.7460
G01 X5.0171 Y3.7423
G01 X5.0282 Y3.7346
G01 X5.0369 Y3.7270
G01 X5.0447 Y3.7187
G01 X5.0522 Y3.7088
G01 X5.0668 Y3.7086
G01 X5.0822 Y3.7063
G01 X5.0913 Y3.7039
G01 X5.1001 Y3.7009
G01 X5.1143 Y3.6942
G01 X5.1257 Y3.6869
G01 X5.1315 Y3.6825
G01 X5.1369 Y3.6776
G01 X5.1463 Y3.6679
G01 X5.1538 Y3.6580
G01 X5.1611 Y3.6581
G01 X5.1704 Y3.6576
G01 X5.1844 Y3.6554
G01 X5.1911 Y3.6566
G01 X5.2004 Y3.6578
G01 X5.2098 Y3.6582
G01 X5.2192 Y3.6578
G01 X5.2326 Y3.6559
G01 X5.2417 Y3.6537
G01 X5.2477 Y3.6518
G01 X5.2564 Y3.6485
G01 X5.2648 Y3.6444
G01 X5.2747 Y3.6385
G01 X5.2822 Y3.6330
G01 X5.2938 Y3.6225
G01 X5.3001 Y3.6155
G01 X5.3062 Y3.6072
G01 X5.3135 Y3.6073
G01 X5.3228 Y3.6068
G01 X5.3321 Y3.6055
G01 X5.3383 Y3.6042
G01 X5.3453 Y3.6023
G01 X5.3541 Y3.5993
G01 X5.3627 Y3.5955
G01 X5.3701 Y3.5915
G01 X5.3763 Y3.5877
G01 X5.3822 Y3.5834
G01 X5.3925 Y3.5746
G01 X5.4003 Y3.5663
G01 X5.4078 Y3.5564
G01 X5.4151 Y3.5565
G01 X5.4244 Y3.5560
G01 X5.4384 Y3.5538
G01 X5.4486 Y3.5555
G01 X5.4486 Y3.8829
G01 X5.4384 Y3.8846
G01 X5.4244 Y3.8824
G01 X5.4109 Y3.8819
G01 X5.3995 Y3.8826
G01 X5.3876 Y3.8846
G01 X5.3736 Y3.8824
G01 X5.3601 Y3.8819
G01 X5.3487 Y3.8826
G01 X5.3368 Y3.8846
G01 X5.3228 Y3.8824
G01 X5.3114 Y3.8818
G01 X5.3000 Y3.8824
G01 X5.2860 Y3.8846
G01 X5.2720 Y3.8824
G01 X5.2627 Y3.8819
G01 X5.2554 Y3.8820
G01 X5.2479 Y3.8721
G01 X5.2401 Y3.8638
G01 X5.2314 Y3.8562
G01 X5.2221 Y3.8496
G01 X5.2122 Y3.8439
G01 X5.2017 Y3.8391
G01 X5.1909 Y3.8355
G01 X5.1797 Y3.8329
G01 X5.1684 Y3.8314
G01 X5.1569 Y3.8311
G01 X5.1455 Y3.8318
G01 X5.1336 Y3.8338
G01 X5.1196 Y3.8316
G01 X5.1082 Y3.8310
G01 X5.0968 Y3.8316
G01 X5.0828 Y3.8338
G01 X5.0688 Y3.8316
G01 X5.0574 Y3.8310
G01 X5.0460 Y3.8316
G01 X5.0320 Y3.8338
G01 X5.0180 Y3.8316
G01 X5.0066 Y3.8310
G01 X4.9952 Y3.8316
G01 X4.9812 Y3.8338
G01 X4.9672 Y3.8316
G01 X4.9558 Y3.8310
G01 X4.9444 Y3.8316
G01 X4.9304 Y3.8338
G01 X4.9164 Y3.8316
G01 X4.9050 Y3.8310
G01 X4.8936 Y3.8316
G01 X4.8796 Y3.8338
G01 X4.8656 Y3.8316
G01 X4.8563 Y3.8311
G01 X4.8490 Y3.8312
G01 X4.8415 Y3.8213
G01 X4.8352 Y3.8144
G01 X4.8281 Y3.8079
G01 X4.8288 Y3.8078
G00 Z2.0000
G00 X3.7214 Y7.1990
G01 F60.00
G01 Z-0.2706
G01 F120.00
G01 X3.7214 Y6.4878
G01 X3.7220 Y6.4764
G01 X3.7237 Y6.4650
G01 X3.7271 Y6.4519
G01 X3.7311 Y6.4412
G01 X3.7373 Y6.4291
G01 X3.7411 Y6.4229
G01 X3.7454 Y6.4170
G01 X3.7528 Y6.4083
G01 X3.7625 Y6.3989
G01 X3.7722 Y6.3915
G01 X3.7722 Y6.2338
G01 X3.7728 Y6.2224
G01 X3.7741 Y6.2131
G01 X3.7767 Y6.2019
G01 X3.7803 Y6.1911
G01 X3.7851 Y6.1806
G01 X3.7908 Y6.1707
G01 X3.7974 Y6.1614
G01 X3.8050 Y6.1527
G01 X3.8133 Y6.1449
G01 X3.8230 Y6.1375
G01 X3.8230 Y6.0814
G01 X3.8234 Y6.0720
G01 X3.8257 Y6.0566
G01 X3.8281 Y6.0475
G01 X3.8311 Y6.0387
G01 X3.8378 Y6.0245
G01 X3.8427 Y6.0165
G01 X3.8482 Y6.0090
G01 X3.8587 Y5.9974
G01 X3.8657 Y5.9911
G01 X3.8738 Y5.9851
G01 X3.8739 Y5.9756
G01 X3.8746 Y5.9663
G01 X3.8761 Y5.9570
G01 X3.8777 Y5.9499
G01 X3.8802 Y5.9419
G01 X3.8835 Y5.9332
G01 X3.8876 Y5.9248
G01 X3.8913 Y5.9185
G01 X3.8990 Y5.9074
G01 X3.9066 Y5.8987
G01 X3.9149 Y5.8909
G01 X3.9246 Y5.8835
G01 X3.9252 Y5.8668
G01 X3.9265 Y5.8575
G01 X3.9278 Y5.8513
G01 X3.9297 Y5.8443
G01 X3.9327 Y5.8355
G01 X3.9394 Y5.8213
G01 X3.9467 Y5.8099
G01 X3.9511 Y5.8041
G01 X3.9560 Y5.7987
G01 X3.9657 Y5.7893
G01 X3.9754 Y5.7819
G01 X3.9760 Y5.7652
G01 X3.9773 Y5.7559
G01 X3.9786 Y5.7497
G01 X3.9805 Y5.7427
G01 X3.9835 Y5.7339
G01 X3.9873 Y5.7253
G01 X3.9913 Y5.7179
G01 X3.9951 Y5.7117
G01 X4.0006 Y5.7042
G01 X4.0096 Y5.6940
G01 X4.0165 Y5.6877
G01 X4.0239 Y5.6819
G01 X4.0309 Y5.6773
G01 X4.0390 Y5.6726
G01 X4.0471 Y5.6592
G01 X4.0527 Y5.6517
G01 X4.0590 Y5.6447
G01 X4.0673 Y5.6369
G01 X4.0747 Y5.6311
G01 X4.0817 Y5.6265
G01 X4.0898 Y5.6218
G01 X4.0967 Y5.6101
G01 X4.1049 Y5.5993
G01 X4.1112 Y5.5924
G01 X4.1166 Y5.5875
G01 X4.1278 Y5.5787
G01 X4.1281 Y5.5661
G01 X4.1289 Y5.5578
G01 X4.1305 Y5.5486
G01 X4.1335 Y5.5375
G01 X4.1367 Y5.5287
G01 X4.1416 Y5.5184
G01 X4.1475 Y5.5085
G01 X4.1543 Y5.4993
G01 X4.1620 Y5.4908
G01 X4.1705 Y5.4831
G01 X4.1797 Y5.4763
G01 X4.1914 Y5.4694
G01 X4.1995 Y5.4560
G01 X4.2051 Y5.4485
G01 X4.2114 Y5.4415
G01 X4.2197 Y5.4337
G01 X4.2271 Y5.4279
G01 X4.2341 Y5.4233
G01 X4.2422 Y5.4186
G01 X4.2503 Y5.4052
G01 X4.2559 Y5.3977
G01 X4.2608 Y5.3923
G01 X4.2690 Y5.3843
G01 X4.2754 Y5.3790
G01 X4.2831 Y5.3736
G01 X4.2930 Y5.3678
G01 X4.2999 Y5.3561
G01 X4.3067 Y5.3469
G01 X4.3144 Y5.3384
G01 X4.3229 Y5.3307
G01 X4.3321 Y5.3239
G01 X4.3420 Y5.3180
G01 X4.3523 Y5.3131
G01 X4.3611 Y5.3099
G01 X4.3722 Y5.3069
G01 X4.3835 Y5.3050
G01 X4.3949 Y5.3043
G01 X4.4022 Y5.3044
G01 X4.4111 Y5.2930
G01 X4.4160 Y5.2876
G01 X4.4229 Y5.2813
G01 X4.4337 Y5.2731
G01 X4.4454 Y5.2662
G01 X4.4501 Y5.2581
G01 X4.4547 Y5.2511
G01 X4.4605 Y5.2437
G01 X4.4683 Y5.2354
G01 X4.4786 Y5.2266
G01 X4.4845 Y5.2223
G01 X4.4925 Y5.2174
G01 X4.5067 Y5.2107
G01 X4.5155 Y5.2077
G01 X4.5246 Y5.2053
G01 X4.5400 Y5.2030
G01 X4.5546 Y5.2028
G01 X4.5621 Y5.1929
G01 X4.5715 Y5.1832
G01 X4.5769 Y5.1783
G01 X4.5827 Y5.1739
G01 X4.5941 Y5.1666
G01 X4.6083 Y5.1599
G01 X4.6171 Y5.1569
G01 X4.6262 Y5.1545
G01 X4.6416 Y5.1522
G01 X4.6562 Y5.1520
G01 X4.6637 Y5.1421
G01 X4.6715 Y5.1338
G01 X4.6802 Y5.1262
G01 X4.6913 Y5.1185
G01 X4.6976 Y5.1148
G01 X4.7060 Y5.1107
G01 X4.7147 Y5.1074
G01 X4.7227 Y5.1049
G01 X4.7319 Y5.1029
G01 X4.7412 Y5.1016
G01 X4.7505 Y5.1011
G01 X4.7578 Y5.1012
G01 X4.7639 Y5.0929
G01 X4.7702 Y5.0859
G01 X4.7818 Y5.0754
G01 X4.7893 Y5.0699
G01 X4.7973 Y5.0650
G01 X4.8115 Y5.0583
G01 X4.8203 Y5.0553
G01 X4.8294 Y5.0529
G01 X4.8386 Y5.0513
G01 X4.8469 Y5.0505
G01 X4.8542 Y5.0502
G01 X4.8636 Y5.0506
G01 X4.8729 Y5.0518
G01 X4.8796 Y5.0530
G01 X4.8936 Y5.0508
G01 X4.9071 Y5.0503
G01 X4.9185 Y5.0510
G01 X4.9304 Y5.0530
G01 X4.9444 Y5.0508
G01 X4.9537 Y5.0503
G01 X4.9610 Y5.0504
G01 X4.9671 Y5.0421
G01 X4.9748 Y5.0336
G01 X4.9833 Y5.0259
G01 X4.9925 Y5.0191
G01 X5.0024 Y5.0132
G01 X5.0127 Y5.0083
G01 X5.0235 Y5.0045
G01 X5.0346 Y5.0017
G01 X5.0460 Y5.0000
G01 X5.0574 Y4.9994
G01 X5.0688 Y5.0000
G01 X5.0828 Y5.0022
G01 X5.0968 Y5.0000
G01 X5.1082 Y4.9994
G01 X5.1196 Y5.0000
G01 X5.1336 Y5.0022
G01 X5.1476 Y5.0000
G01 X5.1590 Y4.9994
G01 X5.1704 Y5.0000
G01 X5.1844 Y5.0022
G01 X5.1984 Y5.0000
G01 X5.2098 Y4.9994
G01 X5.2212 Y5.0000
G01 X5.2352 Y5.0022
G01 X5.2492 Y5.0000
G01 X5.2606 Y4.9994
G01 X5.2720 Y5.0000
G01 X5.2860 Y5.0022
G01 X5.3000 Y5.0000
G01 X5.3114 Y4.9994
G01 X5.3228 Y5.0000
G01 X5.3368 Y5.0022
G01 X5.3508 Y5.0000
G01 X5.3622 Y4.9994
G01 X5.3736 Y5.0000
G01 X5.3876 Y5.0022
G01 X5.4016 Y5.0000
G01 X5.4130 Y4.9994
G01 X5.4244 Y5.0000
G01 X5.4384 Y5.0022
G01 X5.4524 Y5.0000
G01 X5.4638 Y4.9994
G01 X5.4752 Y5.0000
G01 X5.4892 Y5.0022
G01 X5.5032 Y5.0000
G01 X5.5146 Y4.9994
G01 X5.5260 Y5.0000
G01 X5.5400 Y5.0022
G01 X5.5540 Y5.0000
G01 X5.5654 Y4.9994
G01 X5.5768 Y5.0000
G01 X5.5882 Y5.0017
G01 X5.5993 Y5.0045
G01 X5.6101 Y5.0083
G01 X5.6204 Y5.0132
G01 X5.6303 Y5.0191
G01 X5.6395 Y5.0259
G01 X5.6480 Y5.0336
G01 X5.6557 Y5.0421
G01 X5.6618 Y5.0504
G01 X5.6691 Y5.0503
G01 X5.6784 Y5.0508
G01 X5.6924 Y5.0530
G01 X5.7043 Y5.0510
G01 X5.7157 Y5.0503
G01 X5.7292 Y5.0508
G01 X5.7432 Y5.0530
G01 X5.7499 Y5.0518
G01 X5.7592 Y5.0506
G01 X5.7686 Y5.0502
G01 X5.7759 Y5.0505
G01 X5.7842 Y5.0513
G01 X5.7934 Y5.0529
G01 X5.8025 Y5.0553
G01 X5.8133 Y5.0591
G01 X5.8218 Y5.0631
G01 X5.8299 Y5.0677
G01 X5.8352 Y5.0711
G01 X5.8427 Y5.0767
G01 X5.8497 Y5.0830
G01 X5.8540 Y5.0875
G01 X5.8589 Y5.0929
G01 X5.8650 Y5.1012
G01 X5.8796 Y5.1014
G01 X5.8909 Y5.1029
G01 X5.9041 Y5.1061
G01 X5.9168 Y5.1107
G01 X5.9252 Y5.1148
G01 X5.9315 Y5.1185
G01 X5.9368 Y5.1219
G01 X5.9443 Y5.1275
G01 X5.9513 Y5.1338
G01 X5.9556 Y5.1383
G01 X5.9605 Y5.1437
G01 X5.9666 Y5.1520
G01 X5.9812 Y5.1522
G01 X5.9925 Y5.1537
G01 X6.0057 Y5.1569
G01 X6.0165 Y5.1607
G01 X6.0250 Y5.1647
G01 X6.0331 Y5.1693
G01 X6.0384 Y5.1727
G01 X6.0459 Y5.1783
G01 X6.0529 Y5.1846
G01 X6.0572 Y5.1891
G01 X6.0621 Y5.1945
G01 X6.0682 Y5.2028
G01 X6.0755 Y5.2027
G01 X6.0869 Y5.2034
G01 X6.0962 Y5.2049
G01 X6.1053 Y5.2071
G01 X6.1142 Y5.2100
G01 X6.1219 Y5.2132
G01 X6.1303 Y5.2174
G01 X6.1400 Y5.2235
G01 X6.1506 Y5.2319
G01 X6.1560 Y5.2368
G01 X6.1623 Y5.2437
G01 X6.1705 Y5.2545
G01 X6.1774 Y5.2662
G01 X6.1855 Y5.2709
G01 X6.1925 Y5.2755
G01 X6.1999 Y5.2813
G01 X6.2082 Y5.2891
G01 X6.2145 Y5.2961
G01 X6.2201 Y5.3036
G01 X6.2282 Y5.3170
G01 X6.2363 Y5.3217
G01 X6.2433 Y5.3263
G01 X6.2507 Y5.3321
G01 X6.2590 Y5.3399
G01 X6.2653 Y5.3469
G01 X6.2709 Y5.3544
G01 X6.2790 Y5.3678
G01 X6.2871 Y5.3725
G01 X6.2941 Y5.3771
G01 X6.3015 Y5.3829
G01 X6.3098 Y5.3907
G01 X6.3161 Y5.3977
G01 X6.3217 Y5.4052
G01 X6.3298 Y5.4186
G01 X6.3397 Y5.4244
G01 X6.3490 Y5.4310
G01 X6.3577 Y5.4386
G01 X6.3655 Y5.4469
G01 X6.3725 Y5.4560
G01 X6.3786 Y5.4657
G01 X6.3837 Y5.4760
G01 X6.3870 Y5.4847
G01 X6.3907 Y5.4978
G01 X6.3923 Y5.5070
G01 X6.3931 Y5.5153
G01 X6.3934 Y5.5279
G01 X6.4046 Y5.5367
G01 X6.4100 Y5.5416
G01 X6.4163 Y5.5485
G01 X6.4245 Y5.5593
G01 X6.4314 Y5.5710
G01 X6.4395 Y5.5757
G01 X6.4465 Y5.5803
G01 X6.4539 Y5.5861
G01 X6.4622 Y5.5939
G01 X6.4710 Y5.6042
G01 X6.4753 Y5.6101
G01 X6.4802 Y5.6181
G01 X6.4869 Y5.6323
G01 X6.4899 Y5.6411
G01 X6.4918 Y5.6481
G01 X6.4931 Y5.6543
G01 X6.4944 Y5.6636
G01 X6.4950 Y5.6803
G01 X6.5031 Y5.6863
G01 X6.5116 Y5.6940
G01 X6.5179 Y5.7009
G01 X6.5237 Y5.7083
G01 X6.5283 Y5.7153
G01 X6.5329 Y5.7234
G01 X6.5369 Y5.7319
G01 X6.5407 Y5.7427
G01 X6.5439 Y5.7559
G01 X6.5455 Y5.7693
G01 X6.5458 Y5.8327
G01 X6.5539 Y5.8387
G01 X6.5609 Y5.8450
G01 X6.5673 Y5.8518
G01 X6.5726 Y5.8582
G01 X6.5780 Y5.8659
G01 X6.5828 Y5.8740
G01 X6.5877 Y5.8843
G01 X6.5909 Y5.8931
G01 X6.5943 Y5.9062
G01 X6.5962 Y5.9196
G01 X6.5966 Y5.9290
G01 X6.5966 Y5.9851
G01 X6.6063 Y5.9925
G01 X6.6146 Y6.0003
G01 X6.6222 Y6.0090
G01 X6.6288 Y6.0183
G01 X6.6345 Y6.0282
G01 X6.6393 Y6.0387
G01 X6.6429 Y6.0495
G01 X6.6458 Y6.0627
G01 X6.6470 Y6.0720
G01 X6.6474 Y6.0814
G01 X6.6474 Y6.6910
G01 X6.6470 Y6.7004
G01 X6.6451 Y6.7138
G01 X6.6423 Y6.7249
G01 X6.6385 Y6.7357
G01 X6.6326 Y6.7479
G01 X6.6253 Y6.7593
G01 X6.6209 Y6.7651
G01 X6.6160 Y6.7705
G01 X6.6063 Y6.7799
G01 X6.5966 Y6.7873
G01 X6.5965 Y6.9471
G01 X6.5958 Y6.9585
G01 X6.5939 Y6.9698
G01 X6.5915 Y6.9789
G01 X6.5877 Y6.9897
G01 X6.5828 Y7.0000
G01 X6.5769 Y7.0099
G01 X6.5701 Y7.0191
G01 X6.5624 Y7.0276
G01 X6.5539 Y7.0353
G01 X6.5458 Y7.0413
G01 X6.5458 Y7.0974
G01 X6.5452 Y7.1088
G01 X6.5439 Y7.1181
G01 X6.5419 Y7.1273
G01 X6.5394 Y7.1353
G01 X6.5361 Y7.1440
G01 X6.5320 Y7.1524
G01 X6.5283 Y7.1587
G01 X6.5249 Y7.1640
G01 X6.5193 Y7.1715
G01 X6.5130 Y7.1785
G01 X6.5085 Y7.1828
G01 X6.5031 Y7.1877
G01 X6.4950 Y7.1937
G01 X6.4950 Y7.2498
G01 X6.4944 Y7.2612
G01 X6.4931 Y7.2705
G01 X6.4911 Y7.2797
G01 X6.4893 Y7.2857
G01 X6.4861 Y7.2945
G01 X6.4812 Y7.3048
G01 X6.4753 Y7.3147
G01 X6.4685 Y7.3239
G01 X6.4622 Y7.3309
G01 X6.4539 Y7.3387
G01 X6.4465 Y7.3445
G01 X6.4395 Y7.3491
G01 X6.4314 Y7.3538
G01 X6.4267 Y7.3619
G01 X6.4221 Y7.3689
G01 X6.4163 Y7.3763
G01 X6.4100 Y7.3832
G01 X6.4031 Y7.3895
G01 X6.3957 Y7.3953
G01 X6.3887 Y7.3999
G01 X6.3806 Y7.4046
G01 X6.3725 Y7.4180
G01 X6.3669 Y7.4255
G01 X6.3606 Y7.4325
G01 X6.3490 Y7.4430
G01 X6.3415 Y7.4485
G01 X6.3335 Y7.4534
G01 X6.3213 Y7.4593
G01 X6.3085 Y7.4637
G01 X6.2953 Y7.4666
G01 X6.2880 Y7.4676
G01 X6.2808 Y7.4681
G01 X6.2745 Y7.4681
G01 X6.2652 Y7.4676
G01 X6.2512 Y7.4654
G01 X6.2372 Y7.4676
G01 X6.2258 Y7.4682
G01 X6.2144 Y7.4676
G01 X6.2004 Y7.4654
G01 X6.1885 Y7.4674
G01 X6.1771 Y7.4681
G01 X6.1636 Y7.4676
G01 X6.1496 Y7.4654
G01 X6.1377 Y7.4674
G01 X6.1263 Y7.4681
G01 X6.1128 Y7.4676
G01 X6.0988 Y7.4654
G01 X6.0869 Y7.4674
G01 X6.0755 Y7.4681
G01 X6.0620 Y7.4676
G01 X6.0480 Y7.4654
G01 X6.0340 Y7.4676
G01 X6.0247 Y7.4681
G01 X6.0174 Y7.4680
G01 X6.0099 Y7.4779
G01 X6.0036 Y7.4848
G01 X5.9982 Y7.4897
G01 X5.9876 Y7.4981
G01 X5.9760 Y7.5052
G01 X5.9637 Y7.5109
G01 X5.9509 Y7.5151
G01 X5.9438 Y7.5167
G01 X5.9345 Y7.5182
G01 X5.9210 Y7.5190
G01 X5.9096 Y7.5184
G01 X5.8956 Y7.5162
G01 X5.8837 Y7.5182
G01 X5.8723 Y7.5189
G01 X5.8588 Y7.5184
G01 X5.8448 Y7.5162
G01 X5.8329 Y7.5182
G01 X5.8215 Y7.5189
G01 X5.8080 Y7.5184
G01 X5.7940 Y7.5162
G01 X5.7800 Y7.5184
G01 X5.7665 Y7.5189
G01 X5.7551 Y7.5182
G01 X5.7417 Y7.5158
G01 X5.7307 Y7.5126
G01 X5.7239 Y7.5101
G01 X5.7173 Y7.5071
G01 X5.7055 Y7.5004
G01 X5.6962 Y7.4938
G01 X5.6860 Y7.4848
G01 X5.6783 Y7.4763
G01 X5.6715 Y7.4671
G01 X5.6656 Y7.4572
G01 X5.6607 Y7.4469
G01 X5.6563 Y7.4341
G01 X5.6537 Y7.4229
G01 X5.6521 Y7.4095
G01 X5.6518 Y7.3514
G01 X5.6521 Y7.3441
G01 X5.6526 Y7.3379
G01 X5.6541 Y7.3286
G01 X5.6575 Y7.3155
G01 X5.6607 Y7.3067
G01 X5.6656 Y7.2964
G01 X5.6704 Y7.2883
G01 X5.6758 Y7.2806
G01 X5.6811 Y7.2742
G01 X5.6875 Y7.2674
G01 X5.6945 Y7.2611
G01 X5.7026 Y7.2551
G01 X5.7032 Y7.2384
G01 X5.7045 Y7.2291
G01 X5.7058 Y7.2229
G01 X5.7077 Y7.2159
G01 X5.7107 Y7.2071
G01 X5.7145 Y7.1985
G01 X5.7185 Y7.1911
G01 X5.7223 Y7.1849
G01 X5.7266 Y7.1790
G01 X5.7340 Y7.1703
G01 X5.7437 Y7.1609
G01 X5.7534 Y7.1535
G01 X5.7540 Y7.1368
G01 X5.7553 Y7.1275
G01 X5.7566 Y7.1213
G01 X5.7585 Y7.1143
G01 X5.7615 Y7.1055
G01 X5.7682 Y7.0913
G01 X5.7755 Y7.0799
G01 X5.7799 Y7.0741
G01 X5.7848 Y7.0687
G01 X5.7945 Y7.0593
G01 X5.8042 Y7.0519
G01 X5.8048 Y7.0352
G01 X5.8069 Y7.0218
G01 X5.8093 Y7.0127
G01 X5.8116 Y7.0058
G01 X5.8139 Y7.0000
G01 X5.8180 Y6.9916
G01 X5.8251 Y6.9800
G01 X5.8335 Y6.9694
G01 X5.8384 Y6.9640
G01 X5.8438 Y6.9591
G01 X5.8550 Y6.9503
G01 X5.8550 Y6.8942
G01 X5.8554 Y6.8848
G01 X5.8573 Y6.8714
G01 X5.8607 Y6.8583
G01 X5.8639 Y6.8495
G01 X5.8688 Y6.8392
G01 X5.8736 Y6.8311
G01 X5.8790 Y6.8234
G01 X5.8843 Y6.8170
G01 X5.8907 Y6.8102
G01 X5.8977 Y6.8039
G01 X5.9058 Y6.7979
G01 X5.9059 Y6.6889
G01 X5.9069 Y6.6754
G01 X5.9081 Y6.6682
G01 X5.9103 Y6.6591
G01 X5.9132 Y6.6502
G01 X5.9164 Y6.6425
G01 X5.9206 Y6.6341
G01 X5.9267 Y6.6244
G01 X5.9323 Y6.6169
G01 X5.9400 Y6.6084
G01 X5.9485 Y6.6007
G01 X5.9566 Y6.5947
G01 X5.9566 Y6.2793
G01 X5.9485 Y6.2733
G01 X5.9415 Y6.2670
G01 X5.9351 Y6.2602
G01 X5.9298 Y6.2538
G01 X5.9244 Y6.2461
G01 X5.9196 Y6.2380
G01 X5.9147 Y6.2277
G01 X5.9115 Y6.2189
G01 X5.9081 Y6.2058
G01 X5.9062 Y6.1924
G01 X5.9058 Y6.1830
G01 X5.9058 Y6.1269
G01 X5.8946 Y6.1181
G01 X5.8892 Y6.1132
G01 X5.8829 Y6.1063
G01 X5.8747 Y6.0955
G01 X5.8678 Y6.0838
G01 X5.8561 Y6.0769
G01 X5.8453 Y6.0687
G01 X5.8384 Y6.0624
G01 X5.8335 Y6.0570
G01 X5.8251 Y6.0464
G01 X5.8201 Y6.0385
G01 X5.8161 Y6.0311
G01 X5.8123 Y6.0225
G01 X5.8093 Y6.0137
G01 X5.8065 Y6.0026
G01 X5.8050 Y5.9933
G01 X5.8043 Y5.9840
G01 X5.8042 Y5.9745
G01 X5.7930 Y5.9657
G01 X5.7876 Y5.9608
G01 X5.7813 Y5.9539
G01 X5.7731 Y5.9431
G01 X5.7662 Y5.9314
G01 X5.7545 Y5.9245
G01 X5.7437 Y5.9163
G01 X5.7368 Y5.9100
G01 X5.7319 Y5.9046
G01 X5.7230 Y5.8932
G01 X5.7157 Y5.8933
G01 X5.7064 Y5.8928
G01 X5.6971 Y5.8915
G01 X5.6879 Y5.8895
G01 X5.6799 Y5.8870
G01 X5.6712 Y5.8837
G01 X5.6628 Y5.8796
G01 X5.6565 Y5.8759
G01 X5.6454 Y5.8682
G01 X5.6367 Y5.8606
G01 X5.6289 Y5.8523
G01 X5.6214 Y5.8424
G01 X5.6141 Y5.8425
G01 X5.6048 Y5.8420
G01 X5.5908 Y5.8398
G01 X5.5841 Y5.8410
G01 X5.5748 Y5.8422
G01 X5.5654 Y5.8426
G01 X5.5581 Y5.8423
G01 X5.5519 Y5.8418
G01 X5.5426 Y5.8403
G01 X5.5295 Y5.8369
G01 X5.5207 Y5.8337
G01 X5.5104 Y5.8288
G01 X5.5023 Y5.8240
G01 X5.4946 Y5.8186
G01 X5.4882 Y5.8133
G01 X5.4814 Y5.8069
G01 X5.4751 Y5.7999
G01 X5.4690 Y5.7916
G01 X5.4617 Y5.7917
G01 X5.4524 Y5.7912
G01 X5.4384 Y5.7890
G01 X5.4244 Y5.7912
G01 X5.4109 Y5.7917
G01 X5.3995 Y5.7910
G01 X5.3876 Y5.7890
G01 X5.3736 Y5.7912
G01 X5.3601 Y5.7917
G01 X5.3487 Y5.7910
G01 X5.3368 Y5.7890
G01 X5.3228 Y5.7912
G01 X5.3093 Y5.7917
G01 X5.2979 Y5.7910
G01 X5.2860 Y5.7890
G01 X5.2720 Y5.7912
G01 X5.2606 Y5.7918
G01 X5.2492 Y5.7912
G01 X5.2352 Y5.7890
G01 X5.2212 Y5.7912
G01 X5.2119 Y5.7917
G01 X5.2046 Y5.7916
G01 X5.1985 Y5.7999
G01 X5.1908 Y5.8084
G01 X5.1823 Y5.8161
G01 X5.1748 Y5.8217
G01 X5.1651 Y5.8278
G01 X5.1548 Y5.8329
G01 X5.1441 Y5.8369
G01 X5.1351 Y5.8394
G01 X5.1217 Y5.8418
G01 X5.1103 Y5.8425
G01 X5.0968 Y5.8420
G01 X5.0828 Y5.8398
G01 X5.0709 Y5.8418
G01 X5.0595 Y5.8425
G01 X5.0460 Y5.8420
G01 X5.0320 Y5.8398
G01 X5.0180 Y5.8420
G01 X5.0087 Y5.8425
G01 X5.0014 Y5.8424
G01 X4.9925 Y5.8538
G01 X4.9876 Y5.8592
G01 X4.9807 Y5.8655
G01 X4.9699 Y5.8737
G01 X4.9582 Y5.8805
G01 X4.9458 Y5.8860
G01 X4.9389 Y5.8883
G01 X4.9298 Y5.8907
G01 X4.9144 Y5.8930
G01 X4.8998 Y5.8932
G01 X4.8909 Y5.9046
G01 X4.8860 Y5.9100
G01 X4.8791 Y5.9163
G01 X4.8683 Y5.9245
G01 X4.8566 Y5.9314
G01 X4.8485 Y5.9448
G01 X4.8429 Y5.9523
G01 X4.8366 Y5.9593
G01 X4.8283 Y5.9671
G01 X4.8209 Y5.9729
G01 X4.8139 Y5.9775
G01 X4.8058 Y5.9822
G01 X4.7989 Y5.9939
G01 X4.7934 Y6.0014
G01 X4.7893 Y6.0062
G01 X4.7844 Y6.0116
G01 X4.7775 Y6.0179
G01 X4.7667 Y6.0261
G01 X4.7587 Y6.0310
G01 X4.7503 Y6.0352
G01 X4.7426 Y6.0384
G01 X4.7337 Y6.0413
G01 X4.7246 Y6.0435
G01 X4.7153 Y6.0450
G01 X4.7039 Y6.0457
G01 X4.6966 Y6.0456
G01 X4.6905 Y6.0539
G01 X4.6828 Y6.0624
G01 X4.6743 Y6.0701
G01 X4.6662 Y6.0761
G01 X4.6661 Y6.0856
G01 X4.6654 Y6.0949
G01 X4.6639 Y6.1042
G01 X4.6611 Y6.1153
G01 X4.6581 Y6.1241
G01 X4.6543 Y6.1327
G01 X4.6503 Y6.1401
G01 X4.6453 Y6.1480
G01 X4.6369 Y6.1586
G01 X4.6320 Y6.1640
G01 X4.6251 Y6.1703
G01 X4.6143 Y6.1785
G01 X4.6026 Y6.1854
G01 X4.5957 Y6.1971
G01 X4.5875 Y6.2079
G01 X4.5812 Y6.2148
G01 X4.5758 Y6.2197
G01 X4.5646 Y6.2285
G01 X4.5642 Y6.2432
G01 X4.5627 Y6.2545
G01 X4.5601 Y6.2657
G01 X4.5565 Y6.2765
G01 X4.5498 Y6.2907
G01 X4.5449 Y6.2987
G01 X4.5394 Y6.3062
G01 X4.5289 Y6.3178
G01 X4.5219 Y6.3241
G01 X4.5138 Y6.3301
G01 X4.5132 Y6.3468
G01 X4.5111 Y6.3602
G01 X4.5074 Y6.3733
G01 X4.5049 Y6.3801
G01 X4.5009 Y6.3886
G01 X4.4941 Y6.4003
G01 X4.4859 Y6.4111
G01 X4.4796 Y6.4180
G01 X4.4742 Y6.4229
G01 X4.4630 Y6.4317
G01 X4.4629 Y6.5407
G01 X4.4622 Y6.5521
G01 X4.4598 Y6.5655
G01 X4.4573 Y6.5745
G01 X4.4533 Y6.5852
G01 X4.4492 Y6.5936
G01 X4.4433 Y6.6035
G01 X4.4365 Y6.6127
G01 X4.4288 Y6.6212
G01 X4.4203 Y6.6289
G01 X4.4122 Y6.6349
G01 X4.4122 Y7.0519
G01 X4.4203 Y7.0579
G01 X4.4273 Y7.0642
G01 X4.4337 Y7.0710
G01 X4.4390 Y7.0774
G01 X4.4444 Y7.0851
G01 X4.4492 Y7.0932
G01 X4.4533 Y7.1016
G01 X4.4566 Y7.1103
G01 X4.4591 Y7.1183
G01 X4.4611 Y7.1275
G01 X4.4624 Y7.1368
G01 X4.4629 Y7.1440
G01 X4.4630 Y7.2551
G01 X4.4727 Y7.2625
G01 X4.4824 Y7.2719
G01 X4.4873 Y7.2773
G01 X4.4917 Y7.2831
G01 X4.4990 Y7.2945
G01 X4.5049 Y7.3067
G01 X4.5087 Y7.3175
G01 X4.5115 Y7.3286
G01 X4.5134 Y7.3420
G01 X4.5138 Y7.3514
G01 X4.5137 Y7.4551
G01 X4.5132 Y7.4644
G01 X4.5115 Y7.4758
G01 X4.5087 Y7.4869
G01 X4.5057 Y7.4957
G01 X4.5009 Y7.5062
G01 X4.4963 Y7.5143
G01 X4.4917 Y7.5213
G01 X4.4859 Y7.5287
G01 X4.4796 Y7.5356
G01 X4.4711 Y7.5433
G01 X4.4619 Y7.5501
G01 X4.4520 Y7.5560
G01 X4.4417 Y7.5609
G01 X4.4329 Y7.5641
G01 X4.4218 Y7.5671
G01 X4.4105 Y7.5690
G01 X4.3991 Y7.5697
G01 X4.3918 Y7.5696
G01 X4.3857 Y7.5779
G01 X4.3780 Y7.5864
G01 X4.3695 Y7.5941
G01 X4.3603 Y7.6009
G01 X4.3504 Y7.6068
G01 X4.3401 Y7.6117
G01 X4.3293 Y7.6155
G01 X4.3182 Y7.6183
G01 X4.3068 Y7.6200
G01 X4.2954 Y7.6206
G01 X4.2840 Y7.6200
G01 X4.2700 Y7.6178
G01 X4.2560 Y7.6200
G01 X4.2446 Y7.6206
G01 X4.2332 Y7.6200
G01 X4.2192 Y7.6178
G01 X4.2052 Y7.6200
G01 X4.1938 Y7.6206
G01 X4.1824 Y7.6200
G01 X4.1684 Y7.6178
G01 X4.1544 Y7.6200
G01 X4.1451 Y7.6205
G01 X4.1378 Y7.6204
G01 X4.1303 Y7.6303
G01 X4.1225 Y7.6386
G01 X4.1122 Y7.6474
G01 X4.1063 Y7.6517
G01 X4.1001 Y7.6555
G01 X4.0880 Y7.6617
G01 X4.0773 Y7.6657
G01 X4.0642 Y7.6691
G01 X4.0528 Y7.6708
G01 X4.0435 Y7.6713
G01 X4.0341 Y7.6711
G01 X4.0258 Y7.6703
G01 X4.0160 Y7.6686
G01 X4.0020 Y7.6708
G01 X3.9885 Y7.6713
G01 X3.9771 Y7.6706
G01 X3.9652 Y7.6686
G01 X3.9585 Y7.6698
G01 X3.9492 Y7.6710
G01 X3.9398 Y7.6714
G01 X3.9304 Y7.6710
G01 X3.9191 Y7.6695
G01 X3.9099 Y7.6675
G01 X3.9019 Y7.6650
G01 X3.8913 Y7.6608
G01 X3.8848 Y7.6576
G01 X3.8767 Y7.6528
G01 X3.8641 Y7.6435
G01 X3.8572 Y7.6372
G01 X3.8523 Y7.6318
G01 X3.8482 Y7.6270
G01 X3.8427 Y7.6195
G01 X3.8378 Y7.6115
G01 X3.8336 Y7.6031
G01 X3.8304 Y7.5954
G01 X3.8275 Y7.5865
G01 X3.8253 Y7.5774
G01 X3.8238 Y7.5681
G01 X3.8231 Y7.5588
G01 X3.8230 Y7.5493
G01 X3.8149 Y7.5433
G01 X3.8079 Y7.5370
G01 X3.7974 Y7.5254
G01 X3.7919 Y7.5179
G01 X3.7870 Y7.5099
G01 X3.7828 Y7.5015
G01 X3.7796 Y7.4938
G01 X3.7767 Y7.4849
G01 X3.7745 Y7.4758
G01 X3.7730 Y7.4665
G01 X3.7723 Y7.4572
G01 X3.7722 Y7.2953
G01 X3.7610 Y7.2865
G01 X3.7556 Y7.2816
G01 X3.7507 Y7.2762
G01 X3.7423 Y7.2656
G01 X3.7352 Y7.2540
G01 X3.7295 Y7.2417
G01 X3.7253 Y7.2289
G01 X3.7237 Y7.2218
G01 X3.7222 Y7.2125
G01 X3.7214 Y7.1990
G00 Z2.0000
G00 X3.7214 Y9.8406
G01 F60.00
G01 Z-0.2706
G01 F120.00
G01 X3.7214 Y9.1294
G01 X3.7220 Y9.1180
G01 X3.7237 Y9.1066
G01 X3.7271 Y9.0935
G01 X3.7311 Y9.0828
G01 X3.7373 Y9.0707
G01 X3.7411 Y9.0645
G01 X3.7454 Y9.0586
G01 X3.7528 Y9.0499
G01 X3.7625 Y9.0405
G01 X3.7722 Y9.0331
G01 X3.7722 Y8.8754
G01 X3.7728 Y8.8640
G01 X3.7741 Y8.8547
G01 X3.7767 Y8.8435
G01 X3.7803 Y8.8327
G01 X3.7851 Y8.8222
G01 X3.7908 Y8.8123
G01 X3.7974 Y8.8030
G01 X3.8050 Y8.7943
G01 X3.8133 Y8.7865
G01 X3.8230 Y8.7791
G01 X3.8230 Y8.7230
G01 X3.8234 Y8.7136
G01 X3.8257 Y8.6982
G01 X3.8281 Y8.6891
G01 X3.8311 Y8.6803
G01 X3.8378 Y8.6661
G01 X3.8427 Y8.6581
G01 X3.8482 Y8.6506
G01 X3.8587 Y8.6390
G01 X3.8657 Y8.6327
G01 X3.8738 Y8.6267
G01 X3.8739 Y8.6172
G01 X3.8746 Y8.6079
G01 X3.8761 Y8.5986
G01 X3.8777 Y8.5915
G01 X3.8802 Y8.5835
G01 X3.8835 Y8.5748
G01 X3.8876 Y8.5664
G01 X3.8913 Y8.5601
G01 X3.8990 Y8.5490
G01 X3.9066 Y8.5403
G01 X3.9149 Y8.5325
G01 X3.9246 Y8.5251
G01 X3.9252 Y8.5084
G01 X3.9265 Y8.4991
G01 X3.9278 Y8.4929
G01 X3.9297 Y8.4859
G01 X3.9327 Y8.4771
G01 X3.9394 Y8.4629
G01 X3.9467 Y8.4515
G01 X3.9511 Y8.4457
G01 X3.9560 Y8.4403
G01 X3.9657 Y8.4309
G01 X3.9754 Y8.4235
G01 X3.9760 Y8.4068
G01 X3.9773 Y8.3975
G01 X3.9786 Y8.3913
G01 X3.9805 Y8.3843
G01 X3.9835 Y8.3755
G01 X3.9873 Y8.3669
G01 X3.9913 Y8.3595
G01 X3.9951 Y8.3533
G01 X4.0006 Y8.3458
G01 X4.0096 Y8.3356
G01 X4.0165 Y8.3293
G01 X4.0239 Y8.3235
G01 X4.0309 Y8.3189
G01 X4.0390 Y8.3142
G01 X4.0471 Y8.3008
G01 X4.0527 Y8.2933
G01 X4.0590 Y8.2863
G01 X4.0673 Y8.2785
G01 X4.0747 Y8.2727
G01 X4.0817 Y8.2681
G01 X4.0898 Y8.2634
G01 X4.0967 Y8.2517
G01 X4.1049 Y8.2409
G01 X4.1112 Y8.2340
G01 X4.1166 Y8.2291
G01 X4.1278 Y8.2203
G01 X4.1281 Y8.2077
G01 X4.1289 Y8.1994
G01 X4.1305 Y8.1902
G01 X4.1335 Y8.1791
G01 X4.1367 Y8.1703
G01 X4.1416 Y8.1600
G01 X4.1475 Y8.1501
G01 X4.1543 Y8.1409
G01 X4.1620 Y8.1324
G01 X4.1705 Y8.1247
G01 X4.1797 Y8.1179
G01 X4.1914 Y8.1110
G01 X4.1995 Y8.0976
G01 X4.2051 Y8.0901
G01 X4.2114 Y8.0831
G01 X4.2197 Y8.0753
G01 X4.2271 Y8.0695
G01 X4.2341 Y8.0649
G01 X4.2422 Y8.0602
G01 X4.2503 Y8.0468
G01 X4.2559 Y8.0393
G01 X4.2608 Y8.0339
G01 X4.2690 Y8.0259
G01 X4.2754 Y8.0206
G01 X4.2831 Y8.0152
G01 X4.2930 Y8.0094
G01 X4.2999 Y7.9977
G01 X4.3067 Y7.9885
G01 X4.3144 Y7.9800
G01 X4.3229 Y7.9723
G01 X4.3321 Y7.9655
G01 X4.3420 Y7.9596
G01 X4.3523 Y7.9547
G01 X4.3611 Y7.9515
G01 X4.3722 Y7.9485
G01 X4.3835 Y7.9466
G01 X4.3949 Y7.9459
G01 X4.4022 Y7.9460
G01 X4.4111 Y7.9346
G01 X4.4160 Y7.9292
G01 X4.4229 Y7.9229
G01 X4.4337 Y7.9147
G01 X4.4454 Y7.9078
G01 X4.4501 Y7.8997
G01 X4.4547 Y7.8927
G01 X4.4605 Y7.8853
G01 X4.4683 Y7.8770
G01 X4.4786 Y7.8682
G01 X4.4845 Y7.8639
G01 X4.4925 Y7.8590
G01 X4.5067 Y7.8523
G01 X4.5155 Y7.8493
G01 X4.5246 Y7.8469
G01 X4.5400 Y7.8446
G01 X4.5546 Y7.8444
G01 X4.5621 Y7.8345
G01 X4.5715 Y7.8248
G01 X4.5769 Y7.8199
G01 X4.5827 Y7.8155
G01 X4.5941 Y7.8082
G01 X4.6083 Y7.8015
G01 X4.6171 Y7.7985
G01 X4.6262 Y7.7961
G01 X4.6416 Y7.7938
G01 X4.6562 Y7.7936
G01 X4.6637 Y7.7837
G01 X4.6715 Y7.7754
G01 X4.6802 Y7.7678
G01 X4.6913 Y7.7601
G01 X4.6976 Y7.7564
G01 X4.7060 Y7.7523
G01 X4.7147 Y7.7490
G01 X4.7227 Y7.7465
G01 X4.7319 Y7.7445
G01 X4.7412 Y7.7432
G01 X4.7505 Y7.7427
G01 X4.7578 Y7.7428
G01 X4.7639 Y7.7345
G01 X4.7702 Y7.7275
G01 X4.7818 Y7.7170
G01 X4.7893 Y7.7115
G01 X4.7973 Y7.7066
G01 X4.8115 Y7.6999
G01 X4.8203 Y7.6969
G01 X4.8294 Y7.6945
G01 X4.8386 Y7.6929
G01 X4.8469 Y7.6921
G01 X4.8542 Y7.6918
G01 X4.8636 Y7.6922
G01 X4.8729 Y7.6934
G01 X4.8796 Y7.6946
G01 X4.8936 Y7.6924
G01 X4.9071 Y7.6919
G01 X4.9185 Y7.6926
G01 X4.9304 Y7.6946
G01 X4.9444 Y7.6924
G01 X4.9537 Y7.6919
G01 X4.9610 Y7.6920
G01 X4.9671 Y7.6837
G01 X4.9748 Y7.6752
G01 X4.9833 Y7.6675
G01 X4.9925 Y7.6607
G01 X5.0024 Y7.6548
G01 X5.0127 Y7.6499
G01 X5.0235 Y7.6461
G01 X5.0346 Y7.6433
G01 X5.0460 Y7.6416
G01 X5.0574 Y7.6410
G01 X5.0688 Y7.6416
G01 X5.0828 Y7.6438
G01 X5.0968 Y7.6416
G01 X5.1082 Y7.6410
G01 X5.1196 Y7.6416
G01 X5.1336 Y7.6438
G01 X5.1476 Y7.6416
G01 X5.1590 Y7.6410
G01 X5.1704 Y7.6416
G01 X5.1844 Y7.6438
G01 X5.1984 Y7.6416
G01 X5.2098 Y7.6410
G01 X5.2212 Y7.6416
G01 X5.2352 Y7.6438
G01 X5.2492 Y7.6416
G01 X5.2606 Y7.6410
G01 X5.2720 Y7.6416
G01 X5.2860 Y7.6438
G01 X5.3000 Y7.6416
G01 X5.3114 Y7.6410
G01 X5.3228 Y7.6416
G01 X5.3368 Y7.6438
G01 X5.3508 Y7.6416
G01 X5.3622 Y7.6410
G01 X5.3736 Y7.6416
G01 X5.3876 Y7.6438
G01 X5.4016 Y7.6416
G01 X5.4130 Y7.6410
G01 X5.4244 Y7.6416
G01 X5.4384 Y7.6438
G01 X5.4524 Y7.6416
G01 X5.4638 Y7.6410
G01 X5.4752 Y7.6416
G01 X5.4892 Y7.6438
G01 X5.5032 Y7.6416
G01 X5.5146 Y7.6410
G01 X5.5260 Y7.6416
G01 X5.5400 Y7.6438
G01 X5.5540 Y7.6416
G01 X5.5654 Y7.6410
G01 X5.5768 Y7.6416
G01 X5.5882 Y7.6433
G01 X5.5993 Y7.6461
G01 X5.6101 Y7.6499
G01 X5.6204 Y7.6548
G01 X5.6303 Y7.6607
G01 X5.6395 Y7.6675
G01 X5.6480 Y7.6752
G01 X5.6557 Y7.6837
G01 X5.6618 Y7.6920
G01 X5.6691 Y7.6919
G01 X5.6784 Y7.6924
G01 X5.6924 Y7.6946
G01 X5.7043 Y7.6926
G01 X5.7157 Y7.6919
G01 X5.7292 Y7.6924
G01 X5.7432 Y7.6946
G01 X5.7499 Y7.6934
G01 X5.7592 Y7.6922
G01 X5.7686 Y7.6918
G01 X5.7759 Y7.6921
G01 X5.7842 Y7.6929
G01 X5.7934 Y7.6945
G01 X5.8025 Y7.6969
G01 X5.8133 Y7.7007
G01 X5.8218 Y7.7047
G01 X5.8299 Y7.7093
G01 X5.8352 Y7.7127
G01 X5.8427 Y7.7183
G01 X5.8497 Y7.7246
G01 X5.8540 Y7.7291
G01 X5.8589 Y7.7345
G01 X5.8650 Y7.7428
G01 X5.8796 Y7.7430
G01 X5.8909 Y7.7445
G01 X5.9041 Y7.7477
G01 X5.9168 Y7.7523
G01 X5.9252 Y7.7564
G01 X5.9315 Y7.7601
G01 X5.9368 Y7.7635
G01 X5.9443 Y7.7691
G01 X5.9513 Y7.7754
G01 X5.9556 Y7.7799
G01 X5.9605 Y7.7853
G01 X5.9666 Y7.7936
G01 X5.9812 Y7.7938
G01 X5.9925 Y7.7953
G01 X6.0057 Y7.7985
G01 X6.0165 Y7.8023
G01 X6.0250 Y7.8063
G01 X6.0331 Y7.8109
G01 X6.0384 Y7.8143
G01 X6.0459 Y7.8199
G01 X6.0529 Y7.8262
G01 X6.0572 Y7.8307
G01 X6.0621 Y7.8361
G01 X6.0682 Y7.8444
G01 X6.0755 Y7.8443
G01 X6.0869 Y7.8450
G01 X6.0962 Y7.8465
G01 X6.1053 Y7.8487
G01 X6.1142 Y7.8516
G01 X6.1219 Y7.8548
G01 X6.1303 Y7.8590
G01 X6.1400 Y7.8651
G01 X6.1506 Y7.8735
G01 X6.1560 Y7.8784
G01 X6.1623 Y7.8853
G01 X6.1705 Y7.8961
G01 X6.1774 Y7.9078
G01 X6.1855 Y7.9125
G01 X6.1925 Y7.9171
G01 X6.1999 Y7.9229
G01 X6.2082 Y7.9307
G01 X6.2145 Y7.9377
G01 X6.2201 Y7.9452
G01 X6.2282 Y7.9586
G01 X6.2363 Y7.9633
G01 X6.2433 Y7.9679
G01 X6.2507 Y7.9737
G01 X6.2590 Y7.9815
G01 X6.2653 Y7.9885
G01 X6.2709 Y7.9960
G01 X6.2790 Y8.0094
G01 X6.2871 Y8.0141
G01 X6.2941 Y8.0187
G01 X6.3015 Y8.0245
G01 X6.3098 Y8.0323
G01 X6.3161 Y8.0393
G01 X6.3217 Y8.0468
G01 X6.3298 Y8.0602
G01 X6.3397 Y8.0660
G01 X6.3490 Y8.0726
G01 X6.3577 Y8.0802
G01 X6.3655 Y8.0885
G01 X6.3725 Y8.0976
G01 X6.3786 Y8.1073
G01 X6.3837 Y8.1176
G01 X6.3870 Y8.1263
G01 X6.3907 Y8.1394
G01 X6.3923 Y8.1486
G01 X6.3931 Y8.1569
G01 X6.3934 Y8.1695
G01 X6.4046 Y8.1783
G01 X6.4100 Y8.1832
G01 X6.4163 Y8.1901
G01 X6.4245 Y8.2009
G01 X6.4314 Y8.2126
G01 X6.4395 Y8.2173
G01 X6.4465 Y8.2219
G01 X6.4539 Y8.2277
G01 X6.4622 Y8.2355
G01 X6.4710 Y8.2458
G01 X6.4753 Y8.2517
G01 X6.4802 Y8.2597
G01 X6.4869 Y8.2739
G01 X6.4899 Y8.2827
G01 X6.4918 Y8.2897
G01 X6.4931 Y8.2959
G01 X6.4944 Y8.3052
G01 X6.4950 Y8.3219
G01 X6.5031 Y8.3279
G01 X6.5116 Y8.3356
G01 X6.5179 Y8.3425
G01 X6.5237 Y8.3499
G01 X6.5283 Y8.3569
G01 X6.5329 Y8.3650
G01 X6.5369 Y8.3735
G01 X6.5407 Y8.3843
G01 X6.5439 Y8.3975
G01 X6.5455 Y8.4109
G01 X6.5458 Y8.4743
G01 X6.5539 Y8.4803
G01 X6.5609 Y8.4866
G01 X6.5673 Y8.4934
G01 X6.5726 Y8.4998
G01 X6.5780 Y8.5075
G01 X6.5828 Y8.5156
G01 X6.5877 Y8.5259
G01 X6.5909 Y8.5347
G01 X6.5943 Y8.5478
G01 X6.5962 Y8.5612
G01 X6.5966 Y8.5706
G01 X6.5966 Y8.6267
G01 X6.6063 Y8.6341
G01 X6.6146 Y8.6419
G01 X6.6222 Y8.6506
G01 X6.6288 Y8.6599
G01 X6.6345 Y8.6698
G01 X6.6393 Y8.6803
G01 X6.6429 Y8.6911
G01 X6.6458 Y8.7043
G01 X6.6470 Y8.7136
G01 X6.6474 Y8.7230
G01 X6.6474 Y9.3326
G01 X6.6470 Y9.3420
G01 X6.6451 Y9.3554
G01 X6.6423 Y9.3665
G01 X6.6385 Y9.3773
G01 X6.6326 Y9.3895
G01 X6.6253 Y9.4009
G01 X6.6209 Y9.4067
G01 X6.6160 Y9.4121
G01 X6.6063 Y9.4215
G01 X6.5966 Y9.4289
G01 X6.5965 Y9.5887
G01 X6.5958 Y9.6001
G01 X6.5939 Y9.6114
G01 X6.5915 Y9.6205
G01 X6.5877 Y9.6313
G01 X6.5828 Y9.6416
G01 X6.5769 Y9.6515
G01 X6.5701 Y9.6607
G01 X6.5624 Y9.6692
G01 X6.5539 Y9.6769
G01 X6.5458 Y9.6829
G01 X6.5458 Y9.7390
G01 X6.5452 Y9.7504
G01 X6.5439 Y9.7597
G01 X6.5419 Y9.7689
G01 X6.5394 Y9.7769
G01 X6.5361 Y9.7856
G01 X6.5320 Y9.7940
G01 X6.5283 Y9.8003
G01 X6.5249 Y9.8056
G01 X6.5193 Y9.8131
G01 X6.5130 Y9.8201
G01 X6.5085 Y9.8244
G01 X6.5031 Y9.8293
G01 X6.4950 Y9.8353
G01 X6.4950 Y9.8914
G01 X6.4944 Y9.9028
G01 X6.4931 Y9.9121
G01 X6.4911 Y9.9213
G01 X6.4893 Y9.9273
G01 X6.4861 Y9.9361
G01 X6.4812 Y9.9464
G01 X6.4753 Y9.9563
G01 X6.4685 Y9.9655
G01 X6.4622 Y9.9725
G01 X6.4539 Y9.9803
G01 X6.4465 Y9.9861
G01 X6.4395 Y9.9907
G01 X6.4314 Y9.9954
G01 X6.4267 Y10.0035
G01 X6.4221 Y10.0105
G01 X6.4163 Y10.0179
G01 X6.4100 Y10.0248
G01 X6.4031 Y10.0311
G01 X6.3957 Y10.0369
G01 X6.3887 Y10.0415
G01 X6.3806 Y10.0462
G01 X6.3725 Y10.0596
G01 X6.3669 Y10.0671
G01 X6.3606 Y10.0741
G01 X6.3490 Y10.0846
G01 X6.3415 Y10.0901
G01 X6.3335 Y10.0950
G01 X6.3213 Y10.1009
G01 X6.3085 Y10.1053
G01 X6.2953 Y10.1082
G01 X6.2880 Y10.1092
G01 X6.2808 Y10.1097
G01 X6.2745 Y10.1097
G01 X6.2652 Y10.1092
G01 X6.2512 Y10.1070
G01 X6.2372 Y10.1092
G01 X6.2258 Y10.1098
G01 X6.2144 Y10.1092
G01 X6.2004 Y10.1070
G01 X6.1885 Y10.1090
G01 X6.1771 Y10.1097
G01 X6.1636 Y10.1092
G01 X6.1496 Y10.1070
G01 X6.1377 Y10.1090
G01 X6.1263 Y10.1097
G01 X6.1128 Y10.1092
G01 X6.0988 Y10.1070
G01 X6.0869 Y10.1090
G01 X6.0755 Y10.1097
G01 X6.0620 Y10.1092
G01 X6.0480 Y10.1070
G01 X6.0340 Y10.1092
G01 X6.0247 Y10.1097
G01 X6.0174 Y10.1096
G01 X6.0099 Y10.1195
G01 X6.0036 Y10.1264
G01 X5.9982 Y10.1313
G01 X5.9876 Y10.1397
G01 X5.9760 Y10.1468
G01 X5.9637 Y10.1525
G01 X5.9509 Y10.1567
G01 X5.9438 Y10.1583
G01 X5.9345 Y10.1598
G01 X5.9210 Y10.1606
G01 X5.9096 Y10.1600
G01 X5.8956 Y10.1578
G01 X5.8837 Y10.1598
G01 X5.8723 Y10.1605
G01 X5.8588 Y10.1600
G01 X5.8448 Y10.1578
G01 X5.8329 Y10.1598
G01 X5.8215 Y10.1605
G01 X5.8080 Y10.1600
G01 X5.7940 Y10.1578
G01 X5.7800 Y10.1600
G01 X5.7665 Y10.1605
G01 X5.7551 Y10.1598
G01 X5.7417 Y10.1574
G01 X5.7307 Y10.1542
G01 X5.7239 Y10.1517
G01 X5.7173 Y10.1487
G01 X5.7055 Y10.1420
G01 X5.6962 Y10.1354
G01 X5.6860 Y10.1264
G01 X5.6783 Y10.1179
G01 X5.6715 Y10.1087
G01 X5.6656 Y10.0988
G01 X5.6607 Y10.0885
G01 X5.6563 Y10.0757
G01 X5.6537 Y10.0645
G01 X5.6521 Y10.0511
G01 X5.6518 Y9.9930
G01 X5.6521 Y9.9857
G01 X5.6526 Y9.9795
G01 X5.6541 Y9.9702
G01 X5.6575 Y9.9571
G01 X5.6607 Y9.9483
G01 X5.6656 Y9.9380
G01 X5.6704 Y9.9299
G01 X5.6758 Y9.9222
G01 X5.6811 Y9.9158
G01 X5.6875 Y9.9090
G01 X5.6945 Y9.9027
G01 X5.7026 Y9.8967
G01 X5.7032 Y9.8800
G01 X5.7045 Y9.8707
G01 X5.7058 Y9.8645
G01 X5.7077 Y9.8575
G01 X5.7107 Y9.8487
G01 X5.7145 Y9.8401
G01 X5.7185 Y9.8327
G01 X5.7223 Y9.8265
G01 X5.7266 Y9.8206
G01 X5.7340 Y9.8119
G01 X5.7437 Y9.8025
G01 X5.7534 Y9.7951
G01 X5.7540 Y9.7784
G01 X5.7553 Y9.7691
G01 X5.7566 Y9.7629
G01 X5.7585 Y9.7559
G01 X5.7615 Y9.7471
G01 X5.7682 Y9.7329
G01 X5.7755 Y9.7215
G01 X5.7799 Y9.7157
G01 X5.7848 Y9.7103
G01 X5.7945 Y9.7009
G01 X5.8042 Y9.6935
G01 X5.8048 Y9.6768
G01 X5.8069 Y9.6634
G01 X5.8093 Y9.6543
G01 X5.8116 Y9.6474
G01 X5.8139 Y9.6416
G01 X5.8180 Y9.6332
G01 X5.8251 Y9.6216
G01 X5.8335 Y9.6110
G01 X5.8384 Y9.6056
G01 X5.8438 Y9.6007
G01 X5.8550 Y9.5919
G01 X5.8550 Y9.5358
G01 X5.8554 Y9.5264
G01 X5.8573 Y9.5130
G01 X5.8607 Y9.4999
G01 X5.8639 Y9.4911
G01 X5.8688 Y9.4808
G01 X5.8736 Y9.4727
G01 X5.8790 Y9.4650
G01 X5.8843 Y9.4586
G01 X5.8907 Y9.4518
G01 X5.8977 Y9.4455
G01 X5.9058 Y9.4395
G01 X5.9059 Y9.3305
G01 X5.9069 Y9.3170
G01 X5.9081 Y9.3098
G01 X5.9103 Y9.3007
G01 X5.9132 Y9.2918
G01 X5.9164 Y9.2841
G01 X5.9206 Y9.2757
G01 X5.9267 Y9.2660
G01 X5.9323 Y9.2585
G01 X5.9400 Y9.2500
G01 X5.9485 Y9.2423
G01 X5.9566 Y9.2363
G01 X5.9566 Y8.9209
G01 X5.9485 Y8.9149
G01 X5.9415 Y8.9086
G01 X5.9351 Y8.9018
G01 X5.9298 Y8.8954
G01 X5.9244 Y8.8877
G01 X5.9196 Y8.8796
G01 X5.9147 Y8.8693
G01 X5.9115 Y8.8605
G01 X5.9081 Y8.8474
G01 X5.9062 Y8.8340
G01 X5.9058 Y8.8246
G01 X5.9058 Y8.7685
G01 X5.8946 Y8.7597
G01 X5.8892 Y8.7548
G01 X5.8829 Y8.7479
G01 X5.8747 Y8.7371
G01 X5.8678 Y8.7254
G01 X5.8561 Y8.7185
G01 X5.8453 Y8.7103
G01 X5.8384 Y8.7040
G01 X5.8335 Y8.6986
G01 X5.8251 Y8.6880
G01 X5.8201 Y8.6801
G01 X5.8161 Y8.6727
G01 X5.8123 Y8.6641
G01 X5.8093 Y8.6553
G01 X5.8065 Y8.6442
G01 X5.8050 Y8.6349
G01 X5.8043 Y8.6256
G01 X5.8042 Y8.6161
G01 X5.7930 Y8.6073
G01 X5.7876 Y8.6024
G01 X5.7813 Y8.5955
G01 X5.7731 Y8.5847
G01 X5.7662 Y8.5730
G01 X5.7545 Y8.5661
G01 X5.7437 Y8.5579
G01 X5.7368 Y8.5516
G01 X5.7319 Y8.5462
G01 X5.7230 Y8.5348
G01 X5.7157 Y8.5349
G01 X5.7064 Y8.5344
G01 X5.6971 Y8.5331
G01 X5.6879 Y8.5311
G01 X5.6799 Y8.5286
G01 X5.6712 Y8.5253
G01 X5.6628 Y8.5212
G01 X5.6565 Y8.5175
G01 X5.6454 Y8.5098
G01 X5.6367 Y8.5022
G01 X5.6289 Y8.4939
G01 X5.6214 Y8.4840
G01 X5.6141 Y8.4841
G01 X5.6048 Y8.4836
G01 X5.5908 Y8.4814
G01 X5.5841 Y8.4826
G01 X5.5748 Y8.4838
G01 X5.5654 Y8.4842
G01 X5.5581 Y8.4839
G01 X5.5519 Y8.4834
G01 X5.5426 Y8.4819
G01 X5.5295 Y8.4785
G01 X5.5207 Y8.4753
G01 X5.5104 Y8.4704
G01 X5.5023 Y8.4656
G01 X5.4946 Y8.4602
G01 X5.4882 Y8.4549
G01 X5.4814 Y8.4485
G01 X5.4751 Y8.4415
G01 X5.4690 Y8.4332
G01 X5.4617 Y8.4333
G01 X5.4524 Y8.4328
G01 X5.4384 Y8.4306
G01 X5.4244 Y8.4328
G01 X5.4109 Y8.4333
G01 X5.3995 Y8.4326
G01 X5.3876 Y8.4306
G01 X5.3736 Y8.4328
G01 X5.3601 Y8.4333
G01 X5.3487 Y8.4326
G01 X5.3368 Y8.4306
G01 X5.3228 Y8.4328
G01 X5.3093 Y8.4333
G01 X5.2979 Y8.4326
G01 X5.2860 Y8.4306
G01 X5.2720 Y8.4328
G01 X5.2606 Y8.4334
G01 X5.2492 Y8.4328
G01 X5.2352 Y8.4306
G01 X5.2212 Y8.4328
G01 X5.2119 Y8.4333
G01 X5.2046 Y8.4332
G01 X5.1985 Y8.4415
G01 X5.1908 Y8.4500
G01 X5.1823 Y8.4577
G01 X5.1748 Y8.4633
G01 X5.1651 Y8.4694
G01 X5.1548 Y8.4745
G01 X5.1441 Y8.4785
G01 X5.1351 Y8.4810
G01 X5.1217 Y8.4834
G01 X5.1103 Y8.4841
G01 X5.0968 Y8.4836
G01 X5.0828 Y8.4814
G01 X5.0709 Y8.4834
G01 X5.0595 Y8.4841
G01 X5.0460 Y8.4836
G01 X5.0320 Y8.4814
G01 X5.0180 Y8.4836
G01 X5.0087 Y8.4841
G01 X5.0014 Y8.4840
G01 X4.9925 Y8.4954
G01 X4.9876 Y8.5008
G01 X4.9807 Y8.5071
G01 X4.9699 Y8.5153
G01 X4.9582 Y8.5221
G01 X4.9458 Y8.5276
G01 X4.9389 Y8.5299
G01 X4.9298 Y8.5323
G01 X4.9144 Y8.5346
G01 X4.8998 Y8.5348
G01 X4.8909 Y8.5462
G01 X4.8860 Y8.5516
G01 X4.8791 Y8.5579
G01 X4.8683 Y8.5661
G01 X4.8566 Y8.5730
G01 X4.8485 Y8.5864
G01 X4.8429 Y8.5939
G01 X4.8366 Y8.6009
G01 X4.8283 Y8.6087
G01 X4.8209 Y8.6145
G01 X4.8139 Y8.6191
G01 X4.8058 Y8.6238
G01 X4.7989 Y8.6355
G01 X4.7934 Y8.6430
G01 X4.7893 Y8.6478
G01 X4.7844 Y8.6532
G01 X4.7775 Y8.6595
G01 X4.7667 Y8.6677
G01 X4.7587 Y8.6726
G01 X4.7503 Y8.6768
G01 X4.7426 Y8.6800
G01 X4.7337 Y8.6829
G01 X4.7246 Y8.6851
G01 X4.7153 Y8.6866
G01 X4.7039 Y8.6873
G01 X4.6966 Y8.6872
G01 X4.6905 Y8.6955
G01 X4.6828 Y8.7040
G01 X4.6743 Y8.7117
G01 X4.6662 Y8.7177
G01 X4.6661 Y8.7272
G01 X4.6654 Y8.7365
G01 X4.6639 Y8.7458
G01 X4.6611 Y8.7569
G01 X4.6581 Y8.7657
G01 X4.6543 Y8.7743
G01 X4.6503 Y8.7817
G01 X4.6453 Y8.7896
G01 X4.6369 Y8.8002
G01 X4.6320 Y8.8056
G01 X4.6251 Y8.8119
G01 X4.6143 Y8.8201
G01 X4.6026 Y8.8270
G01 X4.5957 Y8.8387
G01 X4.5875 Y8.8495
G01 X4.5812 Y8.8564
G01 X4.5758 Y8.8613
G01 X4.5646 Y8.8701
G01 X4.5642 Y8.8848
G01 X4.5627 Y8.8961
G01 X4.5601 Y8.9073
G01 X4.5565 Y8.9181
G01 X4.5498 Y8.9323
G01 X4.5449 Y8.9403
G01 X4.5394 Y8.9478
G01 X4.5289 Y8.9594
G01 X4.5219 Y8.9657
G01 X4.5138 Y8.9717
G01 X4.5132 Y8.9884
G01 X4.5111 Y9.0018
G01 X4.5074 Y9.0149
G01 X4.5049 Y9.0217
G01 X4.5009 Y9.0302
G01 X4.4941 Y9.0419
G01 X4.4859 Y9.0527
G01 X4.4796 Y9.0596
G01 X4.4742 Y9.0645
G01 X4.4630 Y9.0733
G01 X4.4629 Y9.1823
G01 X4.4622 Y9.1937
G01 X4.4598 Y9.2071
G01 X4.4573 Y9.2161
G01 X4.4533 Y9.2268
G01 X4.4492 Y9.2352
G01 X4.4433 Y9.2451
G01 X4.4365 Y9.2543
G01 X4.4288 Y9.2628
G01 X4.4203 Y9.2705
G01 X4.4122 Y9.2765
G01 X4.4122 Y9.6935
G01 X4.4203 Y9.6995
G01 X4.4273 Y9.7058
G01 X4.4337 Y9.7126
G01 X4.4390 Y9.7190
G01 X4.4444 Y9.7267
G01 X4.4492 Y9.7348
G01 X4.4533 Y9.7432
G01 X4.4566 Y9.7519
G01 X4.4591 Y9.7599
G01 X4.4611 Y9.7691
G01 X4.4624 Y9.7784
G01 X4.4629 Y9.7856
G01 X4.4630 Y9.8967
G01 X4.4727 Y9.9041
G01 X4.4824 Y9.9135
G01 X4.4873 Y9.9189
G01 X4.4917 Y9.9247
G01 X4.4990 Y9.9361
G01 X4.5049 Y9.9483
G01 X4.5087 Y9.9591
G01 X4.5115 Y9.9702
G01 X4.5134 Y9.9836
G01 X4.5138 Y9.9930
G01 X4.5137 Y10.0967
G01 X4.5132 Y10.1060
G01 X4.5115 Y10.1174
G01 X4.5087 Y10.1285
G01 X4.5057 Y10.1373
G01 X4.5009 Y10.1478
G01 X4.4963 Y10.1559
G01 X4.4917 Y10.1629
G01 X4.4859 Y10.1703
G01 X4.4796 Y10.1772
G01 X4.4711 Y10.1849
G01 X4.4619 Y10.1917
G01 X4.4520 Y10.1976
G01 X4.4417 Y10.2025
G01 X4.4329 Y10.2057
G01 X4.4218 Y10.2087
G01 X4.4105 Y10.2106
G01 X4.3991 Y10.2113
G01 X4.3918 Y10.2112
G01 X4.3857 Y10.2195
G01 X4.3780 Y10.2280
G01 X4.3695 Y10.2357
G01 X4.3603 Y10.2425
G01 X4.3504 Y10.2484
G01 X4.3401 Y10.2533
G01 X4.3293 Y10.2571
G01 X4.3182 Y10.2599
G01 X4.3068 Y10.2616
G01 X4.2954 Y10.2622
G01 X4.2840 Y10.2616
G01 X4.2700 Y10.2594
G01 X4.2560 Y10.2616
G01 X4.2446 Y10.2622
G01 X4.2332 Y10.2616
G01 X4.2192 Y10.2594
G01 X4.2052 Y10.2616
G01 X4.1938 Y10.2622
G01 X4.1824 Y10.2616
G01 X4.1684 Y10.2594
G01 X4.1544 Y10.2616
G01 X4.1451 Y10.2621
G01 X4.1378 Y10.2620
G01 X4.1303 Y10.2719
G01 X4.1225 Y10.2802
G01 X4.1122 Y10.2890
G01 X4.1063 Y10.2933
G01 X4.1001 Y10.2971
G01 X4.0880 Y10.3033
G01 X4.0773 Y10.3073
G01 X4.0642 Y10.3107
G01 X4.0528 Y10.3124
G01 X4.0435 Y10.3129
G01 X4.0341 Y10.3127
G01 X4.0258 Y10.3119
G01 X4.0160 Y10.3102
G01 X4.0020 Y10.3124
G01 X3.9885 Y10.3129
G01 X3.9771 Y10.3122
G01 X3.9652 Y10.3102
G01 X3.9585 Y10.3114
G01 X3.9492 Y10.3126
G01 X3.9398 Y10.3130
G01 X3.9304 Y10.3126
G01 X3.9191 Y10.3111
G01 X3.9099 Y10.3091
G01 X3.9019 Y10.3066
G01 X3.8913 Y10.3024
G01 X3.8848 Y10.2992
G01 X3.8767 Y10.2944
G01 X3.8641 Y10.2851
G01 X3.8572 Y10.2788
G01 X3.8523 Y10.2734
G01 X3.8482 Y10.2686
G01 X3.8427 Y10.2611
G01 X3.8378 Y10.2531
G01 X3.8336 Y10.2447
G01 X3.8304 Y10.2370
G01 X3.8275 Y10.2281
G01 X3.8253 Y10.2190
G01 X3.8238 Y10.2097
G01 X3.8231 Y10.2004
G01 X3.8230 Y10.1909
G01 X3.8149 Y10.1849
G01 X3.8079 Y10.1786
G01 X3.7974 Y10.1670
G01 X3.7919 Y10.1595
G01 X3.7870 Y10.1515
G01 X3.7828 Y10.1431
G01 X3.7796 Y10.1354
G01 X3.7767 Y10.1265
G01 X3.7745 Y10.1174
G01 X3.7730 Y10.1081
G01 X3.7723 Y10.0988
G01 X3.7722 Y9.9369
G01 X3.7610 Y9.9281
G01 X3.7556 Y9.9232
G01 X3.7507 Y9.9178
G01 X3.7423 Y9.9072
G01 X3.7352 Y9.8956
G01 X3.7295 Y9.8833
G01 X3.7253 Y9.8705
G01 X3.7237 Y9.8634
G01 X3.7222 Y9.8541
G01 X3.7214 Y9.8406
G00 Z2.0000
G00 X3.7722 Y12.3806
G01 F60.00
G01 Z-0.2706
G01 F120.00
G01 X3.7723 Y10.7021
G01 X3.7733 Y10.6886
G01 X3.7745 Y10.6814
G01 X3.7761 Y10.6743
G01 X3.7803 Y10.6615
G01 X3.7851 Y10.6510
G01 X3.7919 Y10.6393
G01 X3.7987 Y10.6301
G01 X3.8079 Y10.6202
G01 X3.8182 Y10.6114
G01 X3.8241 Y10.6071
G01 X3.8321 Y10.6022
G01 X3.8463 Y10.5955
G01 X3.8551 Y10.5925
G01 X3.8642 Y10.5901
G01 X3.8796 Y10.5878
G01 X3.8890 Y10.5874
G01 X3.8984 Y10.5878
G01 X3.9077 Y10.5890
G01 X3.9144 Y10.5902
G01 X3.9284 Y10.5880
G01 X3.9419 Y10.5875
G01 X3.9533 Y10.5882
G01 X3.9652 Y10.5902
G01 X3.9792 Y10.5880
G01 X3.9927 Y10.5875
G01 X4.0041 Y10.5882
G01 X4.0160 Y10.5902
G01 X4.0300 Y10.5880
G01 X4.0435 Y10.5875
G01 X4.0549 Y10.5882
G01 X4.0668 Y10.5902
G01 X4.0808 Y10.5880
G01 X4.0901 Y10.5875
G01 X4.0974 Y10.5876
G01 X4.1049 Y10.5777
G01 X4.1127 Y10.5694
G01 X4.1214 Y10.5618
G01 X4.1325 Y10.5541
G01 X4.1388 Y10.5504
G01 X4.1453 Y10.5472
G01 X4.1559 Y10.5430
G01 X4.1690 Y10.5393
G01 X4.1803 Y10.5374
G01 X4.1917 Y10.5367
G01 X4.2011 Y10.5369
G01 X4.2094 Y10.5377
G01 X4.2192 Y10.5394
G01 X4.2332 Y10.5372
G01 X4.2467 Y10.5367
G01 X4.2581 Y10.5374
G01 X4.2700 Y10.5394
G01 X4.2840 Y10.5372
G01 X4.2975 Y10.5367
G01 X4.3089 Y10.5374
G01 X4.3208 Y10.5394
G01 X4.3348 Y10.5372
G01 X4.3462 Y10.5366
G01 X4.3576 Y10.5372
G01 X4.3716 Y10.5394
G01 X4.3856 Y10.5372
G01 X4.3970 Y10.5366
G01 X4.4084 Y10.5372
G01 X4.4224 Y10.5394
G01 X4.4364 Y10.5372
G01 X4.4457 Y10.5367
G01 X4.4530 Y10.5368
G01 X4.4605 Y10.5269
G01 X4.4683 Y10.5186
G01 X4.4770 Y10.5110
G01 X4.4881 Y10.5033
G01 X4.4944 Y10.4996
G01 X4.5009 Y10.4964
G01 X4.5115 Y10.4922
G01 X4.5246 Y10.4885
G01 X4.5359 Y10.4866
G01 X4.5473 Y10.4859
G01 X4.5567 Y10.4861
G01 X4.5650 Y10.4869
G01 X4.5748 Y10.4886
G01 X4.5888 Y10.4864
G01 X4.6023 Y10.4859
G01 X4.6137 Y10.4866
G01 X4.6256 Y10.4886
G01 X4.6396 Y10.4864
G01 X4.6531 Y10.4859
G01 X4.6645 Y10.4866
G01 X4.6764 Y10.4886
G01 X4.6904 Y10.4864
G01 X4.7018 Y10.4858
G01 X4.7132 Y10.4864
G01 X4.7272 Y10.4886
G01 X4.7412 Y10.4864
G01 X4.7526 Y10.4858
G01 X4.7640 Y10.4864
G01 X4.7780 Y10.4886
G01 X4.7920 Y10.4864
G01 X4.8013 Y10.4859
G01 X4.8086 Y10.4860
G01 X4.8161 Y10.4761
G01 X4.8239 Y10.4678
G01 X4.8326 Y10.4602
G01 X4.8437 Y10.4525
G01 X4.8500 Y10.4488
G01 X4.8565 Y10.4456
G01 X4.8671 Y10.4414
G01 X4.8802 Y10.4377
G01 X4.8915 Y10.4358
G01 X4.9029 Y10.4351
G01 X4.9123 Y10.4353
G01 X4.9206 Y10.4361
G01 X4.9304 Y10.4378
G01 X4.9444 Y10.4356
G01 X4.9579 Y10.4351
G01 X4.9693 Y10.4358
G01 X4.9812 Y10.4378
G01 X4.9952 Y10.4356
G01 X5.0087 Y10.4351
G01 X5.0201 Y10.4358
G01 X5.0320 Y10.4378
G01 X5.0460 Y10.4356
G01 X5.0574 Y10.4350
G01 X5.0688 Y10.4356
G01 X5.0828 Y10.4378
G01 X5.0968 Y10.4356
G01 X5.1082 Y10.4350
G01 X5.1196 Y10.4356
G01 X5.1336 Y10.4378
G01 X5.1476 Y10.4356
G01 X5.1569 Y10.4351
G01 X5.1642 Y10.4352
G01 X5.1717 Y10.4253
G01 X5.1795 Y10.4170
G01 X5.1882 Y10.4094
G01 X5.1993 Y10.4017
G01 X5.2056 Y10.3980
G01 X5.2121 Y10.3948
G01 X5.2227 Y10.3906
G01 X5.2358 Y10.3869
G01 X5.2471 Y10.3850
G01 X5.2585 Y10.3843
G01 X5.2679 Y10.3845
G01 X5.2762 Y10.3853
G01 X5.2860 Y10.3870
G01 X5.3000 Y10.3848
G01 X5.3135 Y10.3843
G01 X5.3249 Y10.3850
G01 X5.3368 Y10.3870
G01 X5.3508 Y10.3848
G01 X5.3643 Y10.3843
G01 X5.3757 Y10.3850
G01 X5.3876 Y10.3870
G01 X5.4016 Y10.3848
G01 X5.4130 Y10.3842
G01 X5.4244 Y10.3848
G01 X5.4384 Y10.3870
G01 X5.4524 Y10.3848
G01 X5.4638 Y10.3842
G01 X5.4752 Y10.3848
G01 X5.4892 Y10.3870
G01 X5.5032 Y10.3848
G01 X5.5125 Y10.3843
G01 X5.5198 Y10.3844
G01 X5.5273 Y10.3745
G01 X5.5351 Y10.3662
G01 X5.5438 Y10.3586
G01 X5.5549 Y10.3509
G01 X5.5612 Y10.3472
G01 X5.5677 Y10.3440
G01 X5.5783 Y10.3398
G01 X5.5914 Y10.3361
G01 X5.6027 Y10.3342
G01 X5.6141 Y10.3335
G01 X5.6235 Y10.3337
G01 X5.6318 Y10.3345
G01 X5.6416 Y10.3362
G01 X5.6556 Y10.3340
G01 X5.6691 Y10.3335
G01 X5.6805 Y10.3342
G01 X5.6924 Y10.3362
G01 X5.7064 Y10.3340
G01 X5.7199 Y10.3335
G01 X5.7313 Y10.3342
G01 X5.7432 Y10.3362
G01 X5.7572 Y10.3340
G01 X5.7686 Y10.3334
G01 X5.7800 Y10.3340
G01 X5.7940 Y10.3362
G01 X5.8080 Y10.3340
G01 X5.8194 Y10.3334
G01 X5.8308 Y10.3340
G01 X5.8448 Y10.3362
G01 X5.8588 Y10.3340
G01 X5.8681 Y10.3335
G01 X5.8754 Y10.3336
G01 X5.8829 Y10.3237
G01 X5.8907 Y10.3154
G01 X5.8994 Y10.3078
G01 X5.9087 Y10.3012
G01 X5.9186 Y10.2955
G01 X5.9310 Y10.2900
G01 X5.9419 Y10.2865
G01 X5.9490 Y10.2849
G01 X5.9562 Y10.2837
G01 X5.9645 Y10.2829
G01 X5.9760 Y10.2827
G01 X5.9853 Y10.2834
G01 X5.9972 Y10.2854
G01 X6.0112 Y10.2832
G01 X6.0247 Y10.2827
G01 X6.0361 Y10.2834
G01 X6.0480 Y10.2854
G01 X6.0620 Y10.2832
G01 X6.0734 Y10.2826
G01 X6.0848 Y10.2832
G01 X6.0988 Y10.2854
G01 X6.1128 Y10.2832
G01 X6.1242 Y10.2826
G01 X6.1356 Y10.2832
G01 X6.1496 Y10.2854
G01 X6.1636 Y10.2832
G01 X6.1750 Y10.2826
G01 X6.1864 Y10.2832
G01 X6.2004 Y10.2854
G01 X6.2144 Y10.2832
G01 X6.2237 Y10.2827
G01 X6.2310 Y10.2828
G01 X6.2385 Y10.2729
G01 X6.2463 Y10.2646
G01 X6.2550 Y10.2570
G01 X6.2661 Y10.2493
G01 X6.2724 Y10.2456
G01 X6.2789 Y10.2424
G01 X6.2895 Y10.2382
G01 X6.3026 Y10.2345
G01 X6.3139 Y10.2326
G01 X6.3253 Y10.2319
G01 X6.3347 Y10.2321
G01 X6.3430 Y10.2329
G01 X6.3528 Y10.2346
G01 X6.3668 Y10.2324
G01 X6.3782 Y10.2318
G01 X6.3896 Y10.2324
G01 X6.4036 Y10.2346
G01 X6.4176 Y10.2324
G01 X6.4290 Y10.2318
G01 X6.4404 Y10.2324
G01 X6.4544 Y10.2346
G01 X6.4663 Y10.2326
G01 X6.4777 Y10.2319
G01 X6.4892 Y10.2322
G01 X6.5005 Y10.2337
G01 X6.5117 Y10.2363
G01 X6.5225 Y10.2399
G01 X6.5330 Y10.2447
G01 X6.5411 Y10.2493
G01 X6.5481 Y10.2539
G01 X6.5570 Y10.2611
G01 X6.5638 Y10.2675
G01 X6.5726 Y10.2778
G01 X6.5780 Y10.2855
G01 X6.5828 Y10.2936
G01 X6.5877 Y10.3039
G01 X6.5909 Y10.3127
G01 X6.5934 Y10.3217
G01 X6.5950 Y10.3299
G01 X6.5962 Y10.3392
G01 X6.5966 Y10.3486
G01 X6.5966 Y12.2790
G01 X6.5960 Y12.2904
G01 X6.5947 Y12.2997
G01 X6.5934 Y12.3059
G01 X6.5915 Y12.3129
G01 X6.5885 Y12.3217
G01 X6.5828 Y12.3340
G01 X6.5780 Y12.3421
G01 X6.5745 Y12.3473
G01 X6.5701 Y12.3531
G01 X6.5638 Y12.3601
G01 X6.5522 Y12.3706
G01 X6.5447 Y12.3761
G01 X6.5385 Y12.3799
G01 X6.5330 Y12.3829
G01 X6.5245 Y12.3869
G01 X6.5137 Y12.3907
G01 X6.5026 Y12.3935
G01 X6.4912 Y12.3952
G01 X6.4819 Y12.3957
G01 X6.4684 Y12.3952
G01 X6.4544 Y12.3930
G01 X6.4404 Y12.3952
G01 X6.4290 Y12.3958
G01 X6.4176 Y12.3952
G01 X6.4036 Y12.3930
G01 X6.3896 Y12.3952
G01 X6.3782 Y12.3958
G01 X6.3668 Y12.3952
G01 X6.3528 Y12.3930
G01 X6.3521 Y12.3931
G01 X6.3606 Y12.4011
G01 X6.3682 Y12.4098
G01 X6.3748 Y12.4191
G01 X6.3806 Y12.4290
G01 X6.3923 Y12.4359
G01 X6.3998 Y12.4414
G01 X6.4046 Y12.4455
G01 X6.4100 Y12.4504
G01 X6.4163 Y12.4573
G01 X6.4256 Y12.4699
G01 X6.4304 Y12.4780
G01 X6.4345 Y12.4864
G01 X6.4397 Y12.5011
G01 X6.4419 Y12.5102
G01 X6.4434 Y12.5195
G01 X6.4441 Y12.5288
G01 X6.4442 Y12.5383
G01 X6.4523 Y12.5443
G01 X6.4577 Y12.5492
G01 X6.4622 Y12.5535
G01 X6.4685 Y12.5605
G01 X6.4741 Y12.5680
G01 X6.4775 Y12.5733
G01 X6.4821 Y12.5814
G01 X6.4861 Y12.5899
G01 X6.4899 Y12.6007
G01 X6.4931 Y12.6139
G01 X6.4946 Y12.6252
G01 X6.4950 Y12.6399
G01 X6.5031 Y12.6459
G01 X6.5085 Y12.6508
G01 X6.5130 Y12.6551
G01 X6.5193 Y12.6621
G01 X6.5249 Y12.6696
G01 X6.5283 Y12.6749
G01 X6.5320 Y12.6812
G01 X6.5361 Y12.6896
G01 X6.5394 Y12.6983
G01 X6.5419 Y12.7063
G01 X6.5439 Y12.7155
G01 X6.5452 Y12.7248
G01 X6.5458 Y12.7362
G01 X6.5458 Y12.7923
G01 X6.5539 Y12.7983
G01 X6.5624 Y12.8060
G01 X6.5701 Y12.8145
G01 X6.5769 Y12.8237
G01 X6.5828 Y12.8336
G01 X6.5877 Y12.8439
G01 X6.5915 Y12.8547
G01 X6.5943 Y12.8658
G01 X6.5960 Y12.8772
G01 X6.5965 Y12.8865
G01 X6.5966 Y12.9955
G01 X6.6047 Y13.0015
G01 X6.6132 Y13.0092
G01 X6.6209 Y13.0177
G01 X6.6277 Y13.0269
G01 X6.6336 Y13.0368
G01 X6.6377 Y13.0452
G01 X6.6417 Y13.0559
G01 X6.6442 Y13.0649
G01 X6.6466 Y13.0783
G01 X6.6474 Y13.0918
G01 X6.6474 Y13.5998
G01 X6.6470 Y13.6092
G01 X6.6451 Y13.6226
G01 X6.6423 Y13.6337
G01 X6.6385 Y13.6445
G01 X6.6326 Y13.6567
G01 X6.6253 Y13.6681
G01 X6.6209 Y13.6739
G01 X6.6160 Y13.6793
G01 X6.6063 Y13.6887
G01 X6.5966 Y13.6961
G01 X6.5965 Y13.8051
G01 X6.5955 Y13.8186
G01 X6.5943 Y13.8258
G01 X6.5927 Y13.8329
G01 X6.5902 Y13.8409
G01 X6.5860 Y13.8515
G01 X6.5818 Y13.8599
G01 X6.5757 Y13.8696
G01 X6.5701 Y13.8771
G01 X6.5624 Y13.8856
G01 X6.5539 Y13.8933
G01 X6.5458 Y13.8993
G01 X6.5457 Y13.9088
G01 X6.5450 Y13.9181
G01 X6.5435 Y13.9274
G01 X6.5413 Y13.9365
G01 X6.5361 Y13.9512
G01 X6.5320 Y13.9596
G01 X6.5272 Y13.9677
G01 X6.5179 Y13.9803
G01 X6.5116 Y13.9872
G01 X6.5062 Y13.9921
G01 X6.5014 Y13.9962
G01 X6.4939 Y14.0017
G01 X6.4822 Y14.0086
G01 X6.4775 Y14.0167
G01 X6.4729 Y14.0237
G01 X6.4671 Y14.0311
G01 X6.4593 Y14.0394
G01 X6.4523 Y14.0457
G01 X6.4448 Y14.0513
G01 X6.4314 Y14.0594
G01 X6.4267 Y14.0675
G01 X6.4221 Y14.0745
G01 X6.4163 Y14.0819
G01 X6.4085 Y14.0902
G01 X6.4015 Y14.0965
G01 X6.3940 Y14.1021
G01 X6.3806 Y14.1102
G01 X6.3759 Y14.1183
G01 X6.3713 Y14.1253
G01 X6.3655 Y14.1327
G01 X6.3592 Y14.1396
G01 X6.3523 Y14.1459
G01 X6.3449 Y14.1517
G01 X6.3379 Y14.1563
G01 X6.3298 Y14.1610
G01 X6.3251 Y14.1691
G01 X6.3205 Y14.1761
G01 X6.3147 Y14.1835
G01 X6.3084 Y14.1904
G01 X6.3015 Y14.1967
G01 X6.2941 Y14.2025
G01 X6.2871 Y14.2071
G01 X6.2790 Y14.2118
G01 X6.2721 Y14.2235
G01 X6.2653 Y14.2327
G01 X6.2561 Y14.2426
G01 X6.2458 Y14.2514
G01 X6.2381 Y14.2568
G01 X6.2282 Y14.2625
G01 X6.2197 Y14.2665
G01 X6.2089 Y14.2703
G01 X6.1978 Y14.2731
G01 X6.1885 Y14.2746
G01 X6.1771 Y14.2753
G01 X6.1698 Y14.2752
G01 X6.1637 Y14.2835
G01 X6.1574 Y14.2905
G01 X6.1506 Y14.2969
G01 X6.1442 Y14.3022
G01 X6.1365 Y14.3076
G01 X6.1284 Y14.3124
G01 X6.1181 Y14.3173
G01 X6.1093 Y14.3205
G01 X6.0962 Y14.3239
G01 X6.0869 Y14.3254
G01 X6.0807 Y14.3259
G01 X6.0734 Y14.3262
G01 X6.0640 Y14.3258
G01 X6.0547 Y14.3246
G01 X6.0480 Y14.3234
G01 X6.0340 Y14.3256
G01 X6.0247 Y14.3261
G01 X6.0174 Y14.3260
G01 X6.0099 Y14.3359
G01 X6.0005 Y14.3456
G01 X5.9951 Y14.3505
G01 X5.9893 Y14.3549
G01 X5.9779 Y14.3622
G01 X5.9657 Y14.3681
G01 X5.9549 Y14.3719
G01 X5.9438 Y14.3747
G01 X5.9304 Y14.3766
G01 X5.9210 Y14.3770
G01 X5.9116 Y14.3766
G01 X5.9023 Y14.3754
G01 X5.8956 Y14.3742
G01 X5.8816 Y14.3764
G01 X5.8702 Y14.3770
G01 X5.8588 Y14.3764
G01 X5.8448 Y14.3742
G01 X5.8308 Y14.3764
G01 X5.8194 Y14.3770
G01 X5.8080 Y14.3764
G01 X5.7940 Y14.3742
G01 X5.7800 Y14.3764
G01 X5.7686 Y14.3770
G01 X5.7572 Y14.3764
G01 X5.7432 Y14.3742
G01 X5.7292 Y14.3764
G01 X5.7178 Y14.3770
G01 X5.7064 Y14.3764
G01 X5.6924 Y14.3742
G01 X5.6805 Y14.3762
G01 X5.6691 Y14.3769
G01 X5.6556 Y14.3764
G01 X5.6416 Y14.3742
G01 X5.6297 Y14.3762
G01 X5.6183 Y14.3769
G01 X5.6048 Y14.3764
G01 X5.5908 Y14.3742
G01 X5.5810 Y14.3759
G01 X5.5727 Y14.3767
G01 X5.5633 Y14.3769
G01 X5.5540 Y14.3764
G01 X5.5426 Y14.3747
G01 X5.5295 Y14.3713
G01 X5.5188 Y14.3673
G01 X5.5067 Y14.3611
G01 X5.5005 Y14.3573
G01 X5.4946 Y14.3530
G01 X5.4843 Y14.3442
G01 X5.4765 Y14.3359
G01 X5.4690 Y14.3260
G01 X5.4617 Y14.3261
G01 X5.4524 Y14.3256
G01 X5.4384 Y14.3234
G01 X5.4286 Y14.3251
G01 X5.4203 Y14.3259
G01 X5.4109 Y14.3261
G01 X5.3995 Y14.3254
G01 X5.3902 Y14.3239
G01 X5.3791 Y14.3211
G01 X5.3683 Y14.3173
G01 X5.3598 Y14.3133
G01 X5.3464 Y14.3053
G01 X5.3389 Y14.2997
G01 X5.3319 Y14.2934
G01 X5.3241 Y14.2851
G01 X5.3183 Y14.2777
G01 X5.3137 Y14.2707
G01 X5.3090 Y14.2626
G01 X5.2973 Y14.2557
G01 X5.2865 Y14.2475
G01 X5.2796 Y14.2412
G01 X5.2747 Y14.2358
G01 X5.2658 Y14.2244
G01 X5.2585 Y14.2245
G01 X5.2471 Y14.2238
G01 X5.2358 Y14.2219
G01 X5.2247 Y14.2189
G01 X5.2159 Y14.2157
G01 X5.2056 Y14.2108
G01 X5.1957 Y14.2049
G01 X5.1865 Y14.1981
G01 X5.1780 Y14.1904
G01 X5.1703 Y14.1819
G01 X5.1635 Y14.1727
G01 X5.1566 Y14.1610
G01 X5.1432 Y14.1529
G01 X5.1357 Y14.1473
G01 X5.1287 Y14.1410
G01 X5.1209 Y14.1327
G01 X5.1151 Y14.1253
G01 X5.1105 Y14.1183
G01 X5.1058 Y14.1102
G01 X5.0924 Y14.1021
G01 X5.0849 Y14.0965
G01 X5.0795 Y14.0916
G01 X5.0715 Y14.0834
G01 X5.0662 Y14.0770
G01 X5.0608 Y14.0693
G01 X5.0550 Y14.0594
G01 X5.0433 Y14.0525
G01 X5.0341 Y14.0457
G01 X5.0256 Y14.0380
G01 X5.0179 Y14.0295
G01 X5.0111 Y14.0203
G01 X5.0052 Y14.0104
G01 X5.0003 Y14.0001
G01 X4.9971 Y13.9913
G01 X4.9941 Y13.9802
G01 X4.9925 Y13.9710
G01 X4.9917 Y13.9627
G01 X4.9914 Y13.9501
G01 X4.9802 Y13.9413
G01 X4.9748 Y13.9364
G01 X4.9685 Y13.9295
G01 X4.9603 Y13.9187
G01 X4.9534 Y13.9070
G01 X4.9453 Y13.9023
G01 X4.9383 Y13.8977
G01 X4.9309 Y13.8919
G01 X4.9226 Y13.8841
G01 X4.9163 Y13.8771
G01 X4.9119 Y13.8713
G01 X4.9084 Y13.8661
G01 X4.9036 Y13.8580
G01 X4.8995 Y13.8496
G01 X4.8972 Y13.8438
G01 X4.8949 Y13.8369
G01 X4.8925 Y13.8278
G01 X4.8904 Y13.8144
G01 X4.8898 Y13.7977
G01 X4.8817 Y13.7917
G01 X4.8747 Y13.7854
G01 X4.8642 Y13.7738
G01 X4.8587 Y13.7663
G01 X4.8538 Y13.7583
G01 X4.8471 Y13.7441
G01 X4.8435 Y13.7333
G01 X4.8409 Y13.7221
G01 X4.8394 Y13.7108
G01 X4.8390 Y13.6961
G01 X4.8278 Y13.6873
G01 X4.8224 Y13.6824
G01 X4.8161 Y13.6755
G01 X4.8079 Y13.6647
G01 X4.8010 Y13.6530
G01 X4.7929 Y13.6483
G01 X4.7859 Y13.6437
G01 X4.7785 Y13.6379
G01 X4.7702 Y13.6301
G01 X4.7614 Y13.6198
G01 X4.7571 Y13.6139
G01 X4.7522 Y13.6059
G01 X4.7455 Y13.5917
G01 X4.7425 Y13.5829
G01 X4.7406 Y13.5759
G01 X4.7393 Y13.5697
G01 X4.7380 Y13.5604
G01 X4.7374 Y13.5437
G01 X4.7262 Y13.5349
G01 X4.7208 Y13.5300
G01 X4.7145 Y13.5231
G01 X4.7063 Y13.5123
G01 X4.6994 Y13.5006
G01 X4.6860 Y13.4925
G01 X4.6785 Y13.4869
G01 X4.6715 Y13.4806
G01 X4.6637 Y13.4723
G01 X4.6579 Y13.4649
G01 X4.6533 Y13.4579
G01 X4.6486 Y13.4498
G01 X4.6369 Y13.4429
G01 X4.6261 Y13.4347
G01 X4.6192 Y13.4284
G01 X4.6143 Y13.4230
G01 X4.6054 Y13.4116
G01 X4.5981 Y13.4117
G01 X4.5888 Y13.4112
G01 X4.5748 Y13.4090
G01 X4.5608 Y13.4112
G01 X4.5515 Y13.4117
G01 X4.5442 Y13.4116
G01 X4.5353 Y13.4230
G01 X4.5304 Y13.4284
G01 X4.5235 Y13.4347
G01 X4.5127 Y13.4429
G01 X4.5010 Y13.4498
G01 X4.4941 Y13.4615
G01 X4.4859 Y13.4723
G01 X4.4796 Y13.4792
G01 X4.4742 Y13.4841
G01 X4.4630 Y13.4929
G01 X4.4624 Y13.5096
G01 X4.4603 Y13.5230
G01 X4.4566 Y13.5361
G01 X4.4541 Y13.5429
G01 X4.4501 Y13.5514
G01 X4.4433 Y13.5631
G01 X4.4351 Y13.5739
G01 X4.4288 Y13.5808
G01 X4.4234 Y13.5857
G01 X4.4122 Y13.5945
G01 X4.4122 Y13.7575
G01 X4.4203 Y13.7635
G01 X4.4273 Y13.7698
G01 X4.4337 Y13.7766
G01 X4.4390 Y13.7830
G01 X4.4444 Y13.7907
G01 X4.4492 Y13.7988
G01 X4.4541 Y13.8091
G01 X4.4573 Y13.8179
G01 X4.4607 Y13.8310
G01 X4.4626 Y13.8444
G01 X4.4630 Y13.8538
G01 X4.4630 Y13.9099
G01 X4.4742 Y13.9187
G01 X4.4796 Y13.9236
G01 X4.4845 Y13.9290
G01 X4.4929 Y13.9396
G01 X4.5000 Y13.9512
G01 X4.5041 Y13.9596
G01 X4.5064 Y13.9654
G01 X4.5087 Y13.9723
G01 X4.5111 Y13.9814
G01 X4.5132 Y13.9948
G01 X4.5138 Y14.0115
G01 X4.5235 Y14.0189
G01 X4.5332 Y14.0283
G01 X4.5381 Y14.0337
G01 X4.5425 Y14.0395
G01 X4.5498 Y14.0509
G01 X4.5565 Y14.0651
G01 X4.5595 Y14.0739
G01 X4.5614 Y14.0809
G01 X4.5627 Y14.0871
G01 X4.5640 Y14.0964
G01 X4.5646 Y14.1131
G01 X4.5743 Y14.1205
G01 X4.5840 Y14.1299
G01 X4.5914 Y14.1386
G01 X4.5957 Y14.1445
G01 X4.5995 Y14.1507
G01 X4.6035 Y14.1581
G01 X4.6073 Y14.1667
G01 X4.6103 Y14.1755
G01 X4.6122 Y14.1825
G01 X4.6135 Y14.1887
G01 X4.6148 Y14.1980
G01 X4.6154 Y14.2147
G01 X4.6235 Y14.2207
G01 X4.6320 Y14.2284
G01 X4.6397 Y14.2369
G01 X4.6453 Y14.2444
G01 X4.6514 Y14.2541
G01 X4.6556 Y14.2625
G01 X4.6588 Y14.2702
G01 X4.6617 Y14.2791
G01 X4.6643 Y14.2903
G01 X4.6659 Y14.3037
G01 X4.6662 Y14.3618
G01 X4.6658 Y14.3712
G01 X4.6651 Y14.3774
G01 X4.6635 Y14.3866
G01 X4.6611 Y14.3957
G01 X4.6573 Y14.4065
G01 X4.6524 Y14.4168
G01 X4.6465 Y14.4267
G01 X4.6397 Y14.4359
G01 X4.6320 Y14.4444
G01 X4.6235 Y14.4521
G01 X4.6143 Y14.4589
G01 X4.6063 Y14.4638
G01 X4.5941 Y14.4697
G01 X4.5813 Y14.4741
G01 X4.5681 Y14.4770
G01 X4.5608 Y14.4780
G01 X4.5536 Y14.4785
G01 X4.5473 Y14.4785
G01 X4.5380 Y14.4780
G01 X4.5240 Y14.4758
G01 X4.5100 Y14.4780
G01 X4.4986 Y14.4786
G01 X4.4872 Y14.4780
G01 X4.4732 Y14.4758
G01 X4.4613 Y14.4778
G01 X4.4499 Y14.4785
G01 X4.4364 Y14.4780
G01 X4.4224 Y14.4758
G01 X4.4105 Y14.4778
G01 X4.3991 Y14.4785
G01 X4.3856 Y14.4780
G01 X4.3716 Y14.4758
G01 X4.3597 Y14.4778
G01 X4.3483 Y14.4785
G01 X4.3348 Y14.4780
G01 X4.3208 Y14.4758
G01 X4.3068 Y14.4780
G01 X4.2975 Y14.4785
G01 X4.2902 Y14.4784
G01 X4.2827 Y14.4883
G01 X4.2733 Y14.4980
G01 X4.2679 Y14.5029
G01 X4.2621 Y14.5073
G01 X4.2507 Y14.5146
G01 X4.2385 Y14.5205
G01 X4.2277 Y14.5243
G01 X4.2166 Y14.5271
G01 X4.2032 Y14.5290
G01 X4.1938 Y14.5294
G01 X4.1844 Y14.5290
G01 X4.1751 Y14.5278
G01 X4.1684 Y14.5266
G01 X4.1565 Y14.5286
G01 X4.1451 Y14.5293
G01 X4.1316 Y14.5288
G01 X4.1176 Y14.5266
G01 X4.1057 Y14.5286
G01 X4.0943 Y14.5293
G01 X4.0808 Y14.5288
G01 X4.0668 Y14.5266
G01 X4.0601 Y14.5278
G01 X4.0508 Y14.5290
G01 X4.0414 Y14.5294
G01 X4.0320 Y14.5290
G01 X4.0186 Y14.5271
G01 X4.0055 Y14.5237
G01 X3.9929 Y14.5188
G01 X3.9864 Y14.5156
G01 X3.9783 Y14.5108
G01 X3.9673 Y14.5029
G01 X3.9574 Y14.4937
G01 X3.9486 Y14.4834
G01 X3.9443 Y14.4775
G01 X3.9394 Y14.4695
G01 X3.9327 Y14.4553
G01 X3.9297 Y14.4465
G01 X3.9278 Y14.4395
G01 X3.9265 Y14.4333
G01 X3.9252 Y14.4240
G01 X3.9246 Y14.4073
G01 X3.9149 Y14.3999
G01 X3.9052 Y14.3905
G01 X3.9003 Y14.3851
G01 X3.8959 Y14.3793
G01 X3.8886 Y14.3679
G01 X3.8819 Y14.3537
G01 X3.8789 Y14.3449
G01 X3.8770 Y14.3379
G01 X3.8757 Y14.3317
G01 X3.8744 Y14.3224
G01 X3.8738 Y14.3057
G01 X3.8641 Y14.2983
G01 X3.8558 Y14.2905
G01 X3.8482 Y14.2818
G01 X3.8405 Y14.2707
G01 X3.8368 Y14.2644
G01 X3.8327 Y14.2560
G01 X3.8294 Y14.2473
G01 X3.8269 Y14.2393
G01 X3.8253 Y14.2322
G01 X3.8238 Y14.2229
G01 X3.8231 Y14.2136
G01 X3.8230 Y14.2041
G01 X3.8149 Y14.1981
G01 X3.8095 Y14.1932
G01 X3.8050 Y14.1889
G01 X3.7987 Y14.1819
G01 X3.7931 Y14.1744
G01 X3.7897 Y14.1691
G01 X3.7860 Y14.1628
G01 X3.7819 Y14.1544
G01 X3.7786 Y14.1457
G01 X3.7761 Y14.1377
G01 X3.7741 Y14.1285
G01 X3.7726 Y14.1172
G01 X3.7722 Y14.1078
G01 X3.7722 Y14.0009
G01 X3.7625 Y13.9935
G01 X3.7528 Y13.9841
G01 X3.7454 Y13.9754
G01 X3.7411 Y13.9695
G01 X3.7373 Y13.9633
G01 X3.7311 Y13.9512
G01 X3.7271 Y13.9405
G01 X3.7237 Y13.9274
G01 X3.7220 Y13.9160
G01 X3.7214 Y13.9046
G01 X3.7214 Y13.3966
G01 X3.7218 Y13.3872
G01 X3.7225 Y13.3810
G01 X3.7241 Y13.3718
G01 X3.7278 Y13.3587
G01 X3.7320 Y13.3481
G01 X3.7352 Y13.3416
G01 X3.7389 Y13.3353
G01 X3.7466 Y13.3242
G01 X3.7542 Y13.3155
G01 X3.7625 Y13.3077
G01 X3.7722 Y13.3003
G01 X3.7725 Y13.2369
G01 X3.7741 Y13.2235
G01 X3.7773 Y13.2103
G01 X3.7811 Y13.1995
G01 X3.7851 Y13.1910
G01 X3.7897 Y13.1829
G01 X3.7943 Y13.1759
G01 X3.8001 Y13.1685
G01 X3.8064 Y13.1616
G01 X3.8149 Y13.1539
G01 X3.8230 Y13.1479
G01 X3.8236 Y13.1312
G01 X3.8257 Y13.1178
G01 X3.8281 Y13.1087
G01 X3.8304 Y13.1018
G01 X3.8327 Y13.0960
G01 X3.8368 Y13.0876
G01 X3.8416 Y13.0795
G01 X3.8451 Y13.0743
G01 X3.8495 Y13.0685
G01 X3.8558 Y13.0615
G01 X3.8641 Y13.0537
G01 X3.8715 Y13.0479
G01 X3.8785 Y13.0433
G01 X3.8866 Y13.0386
G01 X3.8935 Y13.0269
G01 X3.9017 Y13.0161
G01 X3.9080 Y13.0092
G01 X3.9134 Y13.0043
G01 X3.9246 Y12.9955
G01 X3.9249 Y12.9829
G01 X3.9257 Y12.9746
G01 X3.9273 Y12.9654
G01 X3.9303 Y12.9543
G01 X3.9335 Y12.9455
G01 X3.9384 Y12.9352
G01 X3.9443 Y12.9253
G01 X3.9511 Y12.9161
G01 X3.9588 Y12.9076
G01 X3.9673 Y12.8999
G01 X3.9765 Y12.8931
G01 X3.9882 Y12.8862
G01 X3.9963 Y12.8728
G01 X4.0019 Y12.8653
G01 X4.0068 Y12.8599
G01 X4.0150 Y12.8519
G01 X4.0214 Y12.8466
G01 X4.0291 Y12.8412
G01 X4.0390 Y12.8354
G01 X4.0459 Y12.8237
G01 X4.0527 Y12.8145
G01 X4.0604 Y12.8060
G01 X4.0706 Y12.7970
G01 X4.0781 Y12.7915
G01 X4.0880 Y12.7856
G01 X4.0983 Y12.7807
G01 X4.1071 Y12.7775
G01 X4.1182 Y12.7745
G01 X4.1295 Y12.7726
G01 X4.1409 Y12.7719
G01 X4.1482 Y12.7720
G01 X4.1571 Y12.7606
G01 X4.1620 Y12.7552
G01 X4.1689 Y12.7489
G01 X4.1797 Y12.7407
G01 X4.1914 Y12.7338
G01 X4.1961 Y12.7257
G01 X4.2007 Y12.7187
G01 X4.2065 Y12.7113
G01 X4.2143 Y12.7030
G01 X4.2213 Y12.6967
G01 X4.2288 Y12.6911
G01 X4.2422 Y12.6831
G01 X4.2507 Y12.6791
G01 X4.2615 Y12.6753
G01 X4.2726 Y12.6725
G01 X4.2819 Y12.6710
G01 X4.2933 Y12.6703
G01 X4.3027 Y12.6705
G01 X4.3110 Y12.6713
G01 X4.3208 Y12.6730
G01 X4.3348 Y12.6708
G01 X4.3441 Y12.6703
G01 X4.3514 Y12.6704
G01 X4.3575 Y12.6621
G01 X4.3652 Y12.6536
G01 X4.3737 Y12.6459
G01 X4.3829 Y12.6391
G01 X4.3928 Y12.6332
G01 X4.4031 Y12.6283
G01 X4.4139 Y12.6245
G01 X4.4250 Y12.6217
G01 X4.4364 Y12.6200
G01 X4.4478 Y12.6194
G01 X4.4592 Y12.6200
G01 X4.4732 Y12.6222
G01 X4.4872 Y12.6200
G01 X4.4986 Y12.6194
G01 X4.5100 Y12.6200
G01 X4.5240 Y12.6222
G01 X4.5380 Y12.6200
G01 X4.5494 Y12.6194
G01 X4.5608 Y12.6200
G01 X4.5748 Y12.6222
G01 X4.5888 Y12.6200
G01 X4.6002 Y12.6194
G01 X4.6116 Y12.6200
G01 X4.6256 Y12.6222
G01 X4.6396 Y12.6200
G01 X4.6510 Y12.6194
G01 X4.6624 Y12.6200
G01 X4.6764 Y12.6222
G01 X4.6904 Y12.6200
G01 X4.7018 Y12.6194
G01 X4.7132 Y12.6200
G01 X4.7272 Y12.6222
G01 X4.7391 Y12.6202
G01 X4.7505 Y12.6195
G01 X4.7620 Y12.6198
G01 X4.7733 Y12.6213
G01 X4.7845 Y12.6239
G01 X4.7953 Y12.6275
G01 X4.8058 Y12.6323
G01 X4.8157 Y12.6380
G01 X4.8250 Y12.6446
G01 X4.8337 Y12.6522
G01 X4.8415 Y12.6605
G01 X4.8490 Y12.6704
G01 X4.8563 Y12.6703
G01 X4.8656 Y12.6708
G01 X4.8796 Y12.6730
G01 X4.8863 Y12.6718
G01 X4.8956 Y12.6706
G01 X4.9050 Y12.6702
G01 X4.9123 Y12.6705
G01 X4.9257 Y12.6721
G01 X4.9389 Y12.6753
G01 X4.9497 Y12.6791
G01 X4.9582 Y12.6831
G01 X4.9663 Y12.6877
G01 X4.9733 Y12.6923
G01 X4.9807 Y12.6981
G01 X4.9890 Y12.7059
G01 X4.9953 Y12.7129
G01 X5.0014 Y12.7212
G01 X5.0087 Y12.7211
G01 X5.0180 Y12.7216
G01 X5.0273 Y12.7229
G01 X5.0335 Y12.7242
G01 X5.0405 Y12.7261
G01 X5.0493 Y12.7291
G01 X5.0579 Y12.7329
G01 X5.0653 Y12.7369
G01 X5.0715 Y12.7407
G01 X5.0790 Y12.7462
G01 X5.0906 Y12.7567
G01 X5.0969 Y12.7637
G01 X5.1025 Y12.7712
G01 X5.1106 Y12.7846
G01 X5.1187 Y12.7893
G01 X5.1257 Y12.7939
G01 X5.1331 Y12.7997
G01 X5.1414 Y12.8075
G01 X5.1477 Y12.8145
G01 X5.1533 Y12.8220
G01 X5.1614 Y12.8354
G01 X5.1695 Y12.8401
G01 X5.1765 Y12.8447
G01 X5.1839 Y12.8505
G01 X5.1908 Y12.8568
G01 X5.1971 Y12.8637
G01 X5.2029 Y12.8711
G01 X5.2075 Y12.8781
G01 X5.2122 Y12.8862
G01 X5.2239 Y12.8931
G01 X5.2347 Y12.9013
G01 X5.2444 Y12.9107
G01 X5.2493 Y12.9161
G01 X5.2537 Y12.9219
G01 X5.2583 Y12.9289
G01 X5.2629 Y12.9370
G01 X5.2669 Y12.9455
G01 X5.2707 Y12.9563
G01 X5.2735 Y12.9674
G01 X5.2750 Y12.9767
G01 X5.2757 Y12.9860
G01 X5.2758 Y12.9955
G01 X5.2870 Y13.0043
G01 X5.2924 Y13.0092
G01 X5.2987 Y13.0161
G01 X5.3069 Y13.0269
G01 X5.3138 Y13.0386
G01 X5.3255 Y13.0455
G01 X5.3330 Y13.0510
G01 X5.3378 Y13.0551
G01 X5.3432 Y13.0600
G01 X5.3495 Y13.0669
G01 X5.3577 Y13.0777
G01 X5.3626 Y13.0857
G01 X5.3668 Y13.0941
G01 X5.3700 Y13.1018
G01 X5.3729 Y13.1107
G01 X5.3751 Y13.1198
G01 X5.3766 Y13.1291
G01 X5.3773 Y13.1384
G01 X5.3774 Y13.1479
G01 X5.3886 Y13.1567
G01 X5.3940 Y13.1616
G01 X5.4003 Y13.1685
G01 X5.4085 Y13.1793
G01 X5.4154 Y13.1910
G01 X5.4271 Y13.1979
G01 X5.4379 Y13.2061
G01 X5.4448 Y13.2124
G01 X5.4497 Y13.2178
G01 X5.4581 Y13.2284
G01 X5.4631 Y13.2363
G01 X5.4671 Y13.2437
G01 X5.4709 Y13.2523
G01 X5.4739 Y13.2611
G01 X5.4767 Y13.2722
G01 X5.4782 Y13.2815
G01 X5.4789 Y13.2908
G01 X5.4790 Y13.3003
G01 X5.4902 Y13.3091
G01 X5.4956 Y13.3140
G01 X5.5019 Y13.3209
G01 X5.5101 Y13.3317
G01 X5.5170 Y13.3434
G01 X5.5287 Y13.3503
G01 X5.5395 Y13.3585
G01 X5.5464 Y13.3648
G01 X5.5513 Y13.3702
G01 X5.5597 Y13.3808
G01 X5.5647 Y13.3887
G01 X5.5687 Y13.3961
G01 X5.5725 Y13.4047
G01 X5.5755 Y13.4135
G01 X5.5783 Y13.4246
G01 X5.5798 Y13.4339
G01 X5.5805 Y13.4432
G01 X5.5806 Y13.4527
G01 X5.5918 Y13.4615
G01 X5.5972 Y13.4664
G01 X5.6035 Y13.4733
G01 X5.6117 Y13.4841
G01 X5.6186 Y13.4958
G01 X5.6303 Y13.5027
G01 X5.6411 Y13.5109
G01 X5.6480 Y13.5172
G01 X5.6529 Y13.5226
G01 X5.6618 Y13.5340
G01 X5.6764 Y13.5342
G01 X5.6877 Y13.5357
G01 X5.7009 Y13.5389
G01 X5.7117 Y13.5427
G01 X5.7202 Y13.5467
G01 X5.7283 Y13.5513
G01 X5.7336 Y13.5547
G01 X5.7411 Y13.5603
G01 X5.7481 Y13.5666
G01 X5.7524 Y13.5711
G01 X5.7573 Y13.5765
G01 X5.7634 Y13.5848
G01 X5.7707 Y13.5847
G01 X5.7800 Y13.5852
G01 X5.7940 Y13.5874
G01 X5.8080 Y13.5852
G01 X5.8173 Y13.5847
G01 X5.8246 Y13.5848
G01 X5.8335 Y13.5734
G01 X5.8384 Y13.5680
G01 X5.8453 Y13.5617
G01 X5.8561 Y13.5535
G01 X5.8678 Y13.5466
G01 X5.8747 Y13.5349
G01 X5.8829 Y13.5241
G01 X5.8892 Y13.5172
G01 X5.8946 Y13.5123
G01 X5.9058 Y13.5035
G01 X5.9064 Y13.4868
G01 X5.9085 Y13.4734
G01 X5.9122 Y13.4603
G01 X5.9147 Y13.4535
G01 X5.9187 Y13.4450
G01 X5.9255 Y13.4333
G01 X5.9337 Y13.4225
G01 X5.9400 Y13.4156
G01 X5.9454 Y13.4107
G01 X5.9566 Y13.4019
G01 X5.9566 Y13.1881
G01 X5.9485 Y13.1821
G01 X5.9431 Y13.1772
G01 X5.9386 Y13.1729
G01 X5.9323 Y13.1659
G01 X5.9267 Y13.1584
G01 X5.9233 Y13.1531
G01 X5.9196 Y13.1468
G01 X5.9155 Y13.1384
G01 X5.9122 Y13.1297
G01 X5.9097 Y13.1217
G01 X5.9077 Y13.1125
G01 X5.9064 Y13.1032
G01 X5.9058 Y13.0918
G01 X5.9058 Y13.0357
G01 X5.8977 Y13.0297
G01 X5.8907 Y13.0234
G01 X5.8843 Y13.0166
G01 X5.8790 Y13.0102
G01 X5.8736 Y13.0025
G01 X5.8688 Y12.9944
G01 X5.8639 Y12.9841
G01 X5.8607 Y12.9753
G01 X5.8573 Y12.9622
G01 X5.8554 Y12.9488
G01 X5.8550 Y12.9394
G01 X5.8550 Y12.8833
G01 X5.8438 Y12.8745
G01 X5.8384 Y12.8696
G01 X5.8321 Y12.8627
G01 X5.8239 Y12.8519
G01 X5.8171 Y12.8402
G01 X5.8116 Y12.8278
G01 X5.8093 Y12.8209
G01 X5.8069 Y12.8118
G01 X5.8048 Y12.7984
G01 X5.8042 Y12.7817
G01 X5.7930 Y12.7729
G01 X5.7876 Y12.7680
G01 X5.7813 Y12.7611
G01 X5.7731 Y12.7503
G01 X5.7662 Y12.7386
G01 X5.7563 Y12.7328
G01 X5.7470 Y12.7262
G01 X5.7383 Y12.7186
G01 X5.7319 Y12.7118
G01 X5.7266 Y12.7054
G01 X5.7212 Y12.6977
G01 X5.7164 Y12.6896
G01 X5.7115 Y12.6793
G01 X5.7083 Y12.6705
G01 X5.7065 Y12.6645
G01 X5.7045 Y12.6553
G01 X5.7032 Y12.6460
G01 X5.7026 Y12.6346
G01 X5.7027 Y12.5817
G01 X5.7032 Y12.5724
G01 X5.7045 Y12.5631
G01 X5.7083 Y12.5479
G01 X5.7115 Y12.5391
G01 X5.7155 Y12.5306
G01 X5.7201 Y12.5225
G01 X5.7247 Y12.5155
G01 X5.7291 Y12.5097
G01 X5.7340 Y12.5043
G01 X5.7437 Y12.4949
G01 X5.7545 Y12.4867
G01 X5.7662 Y12.4798
G01 X5.7709 Y12.4717
G01 X5.7755 Y12.4647
G01 X5.7813 Y12.4573
G01 X5.7891 Y12.4490
G01 X5.7994 Y12.4402
G01 X5.8053 Y12.4359
G01 X5.8133 Y12.4310
G01 X5.8255 Y12.4251
G01 X5.8363 Y12.4213
G01 X5.8474 Y12.4185
G01 X5.8608 Y12.4166
G01 X5.8702 Y12.4162
G01 X5.8796 Y12.4166
G01 X5.8889 Y12.4178
G01 X5.8956 Y12.4190
G01 X5.9096 Y12.4168
G01 X5.9231 Y12.4163
G01 X5.9345 Y12.4170
G01 X5.9464 Y12.4190
G01 X5.9604 Y12.4168
G01 X5.9739 Y12.4163
G01 X5.9832 Y12.4168
G01 X5.9972 Y12.4190
G01 X5.9979 Y12.4189
G01 X5.9894 Y12.4109
G01 X5.9818 Y12.4022
G01 X5.9752 Y12.3929
G01 X5.9685 Y12.3811
G01 X5.9640 Y12.3706
G01 X5.9617 Y12.3637
G01 X5.9598 Y12.3567
G01 X5.9574 Y12.3433
G01 X5.9567 Y12.3319
G01 X5.9566 Y11.1247
G01 X5.9464 Y11.1230
G01 X5.9324 Y11.1252
G01 X5.9189 Y11.1257
G01 X5.9075 Y11.1250
G01 X5.8956 Y11.1230
G01 X5.8816 Y11.1252
G01 X5.8681 Y11.1257
G01 X5.8567 Y11.1250
G01 X5.8448 Y11.1230
G01 X5.8308 Y11.1252
G01 X5.8194 Y11.1258
G01 X5.8080 Y11.1252
G01 X5.7940 Y11.1230
G01 X5.7800 Y11.1252
G01 X5.7686 Y11.1258
G01 X5.7572 Y11.1252
G01 X5.7432 Y11.1230
G01 X5.7292 Y11.1252
G01 X5.7199 Y11.1257
G01 X5.7126 Y11.1256
G01 X5.7065 Y11.1339
G01 X5.6988 Y11.1424
G01 X5.6903 Y11.1501
G01 X5.6811 Y11.1569
G01 X5.6712 Y11.1628
G01 X5.6609 Y11.1677
G01 X5.6501 Y11.1715
G01 X5.6410 Y11.1739
G01 X5.6276 Y11.1760
G01 X5.6162 Y11.1766
G01 X5.6048 Y11.1760
G01 X5.5908 Y11.1738
G01 X5.5789 Y11.1758
G01 X5.5675 Y11.1765
G01 X5.5540 Y11.1760
G01 X5.5400 Y11.1738
G01 X5.5281 Y11.1758
G01 X5.5167 Y11.1765
G01 X5.5032 Y11.1760
G01 X5.4892 Y11.1738
G01 X5.4790 Y11.1755
G01 X5.4790 Y12.0250
G01 X5.4786 Y12.0344
G01 X5.4767 Y12.0478
G01 X5.4733 Y12.0609
G01 X5.4684 Y12.0735
G01 X5.4652 Y12.0800
G01 X5.4604 Y12.0881
G01 X5.4525 Y12.0991
G01 X5.4433 Y12.1090
G01 X5.4330 Y12.1178
G01 X5.4271 Y12.1221
G01 X5.4191 Y12.1270
G01 X5.4069 Y12.1329
G01 X5.3961 Y12.1367
G01 X5.3850 Y12.1395
G01 X5.3716 Y12.1414
G01 X5.3622 Y12.1418
G01 X5.3528 Y12.1414
G01 X5.3435 Y12.1402
G01 X5.3368 Y12.1390
G01 X5.3228 Y12.1412
G01 X5.3093 Y12.1417
G01 X5.2979 Y12.1410
G01 X5.2860 Y12.1390
G01 X5.2720 Y12.1412
G01 X5.2585 Y12.1417
G01 X5.2471 Y12.1410
G01 X5.2352 Y12.1390
G01 X5.2212 Y12.1412
G01 X5.2119 Y12.1417
G01 X5.2046 Y12.1416
G01 X5.1971 Y12.1515
G01 X5.1877 Y12.1612
G01 X5.1823 Y12.1661
G01 X5.1765 Y12.1705
G01 X5.1651 Y12.1778
G01 X5.1529 Y12.1837
G01 X5.1421 Y12.1875
G01 X5.1289 Y12.1907
G01 X5.1155 Y12.1923
G01 X5.1082 Y12.1926
G01 X5.0988 Y12.1922
G01 X5.0895 Y12.1910
G01 X5.0828 Y12.1898
G01 X5.0688 Y12.1920
G01 X5.0574 Y12.1926
G01 X5.0460 Y12.1920
G01 X5.0320 Y12.1898
G01 X5.0201 Y12.1918
G01 X5.0087 Y12.1925
G01 X4.9952 Y12.1920
G01 X4.9812 Y12.1898
G01 X4.9693 Y12.1918
G01 X4.9579 Y12.1925
G01 X4.9464 Y12.1922
G01 X4.9371 Y12.1910
G01 X4.9289 Y12.1894
G01 X4.9199 Y12.1869
G01 X4.9111 Y12.1837
G01 X4.9008 Y12.1788
G01 X4.8909 Y12.1729
G01 X4.8834 Y12.1674
G01 X4.8763 Y12.1612
G01 X4.8704 Y12.1553
G01 X4.8642 Y12.1482
G01 X4.8576 Y12.1389
G01 X4.8528 Y12.1308
G01 X4.8479 Y12.1205
G01 X4.8441 Y12.1097
G01 X4.8413 Y12.0986
G01 X4.8396 Y12.0872
G01 X4.8391 Y12.0779
G01 X4.8390 Y11.2771
G01 X4.8288 Y11.2754
G01 X4.8148 Y11.2776
G01 X4.8013 Y11.2781
G01 X4.7899 Y11.2774
G01 X4.7780 Y11.2754
G01 X4.7640 Y11.2776
G01 X4.7505 Y11.2781
G01 X4.7391 Y11.2774
G01 X4.7272 Y11.2754
G01 X4.7132 Y11.2776
G01 X4.7018 Y11.2782
G01 X4.6904 Y11.2776
G01 X4.6764 Y11.2754
G01 X4.6624 Y11.2776
G01 X4.6531 Y11.2781
G01 X4.6458 Y11.2780
G01 X4.6397 Y11.2863
G01 X4.6320 Y11.2948
G01 X4.6235 Y11.3025
G01 X4.6143 Y11.3093
G01 X4.6044 Y11.3152
G01 X4.5941 Y11.3201
G01 X4.5833 Y11.3239
G01 X4.5742 Y11.3263
G01 X4.5608 Y11.3284
G01 X4.5494 Y11.3290
G01 X4.5380 Y11.3284
G01 X4.5240 Y11.3262
G01 X4.5121 Y11.3282
G01 X4.5007 Y11.3289
G01 X4.4872 Y11.3284
G01 X4.4732 Y11.3262
G01 X4.4613 Y11.3282
G01 X4.4499 Y11.3289
G01 X4.4364 Y11.3284
G01 X4.4224 Y11.3262
G01 X4.4122 Y11.3279
G01 X4.4121 Y12.3319
G01 X4.4116 Y12.3412
G01 X4.4103 Y12.3505
G01 X4.4083 Y12.3597
G01 X4.4058 Y12.3677
G01 X4.4025 Y12.3764
G01 X4.3984 Y12.3848
G01 X4.3925 Y12.3947
G01 X4.3870 Y12.4022
G01 X4.3794 Y12.4109
G01 X4.3726 Y12.4173
G01 X4.3662 Y12.4226
G01 X4.3567 Y12.4291
G01 X4.3486 Y12.4337
G01 X4.3381 Y12.4385
G01 X4.3273 Y12.4421
G01 X4.3161 Y12.4447
G01 X4.3048 Y12.4462
G01 X4.2933 Y12.4465
G01 X4.2819 Y12.4458
G01 X4.2700 Y12.4438
G01 X4.2560 Y12.4460
G01 X4.2446 Y12.4466
G01 X4.2332 Y12.4460
G01 X4.2192 Y12.4438
G01 X4.2052 Y12.4460
G01 X4.1938 Y12.4466
G01 X4.1824 Y12.4460
G01 X4.1684 Y12.4438
G01 X4.1544 Y12.4460
G01 X4.1451 Y12.4465
G01 X4.1378 Y12.4464
G01 X4.1317 Y12.4547
G01 X4.1240 Y12.4632
G01 X4.1155 Y12.4709
G01 X4.1063 Y12.4777
G01 X4.0964 Y12.4836
G01 X4.0861 Y12.4885
G01 X4.0753 Y12.4923
G01 X4.0642 Y12.4951
G01 X4.0528 Y12.4968
G01 X4.0414 Y12.4974
G01 X4.0300 Y12.4968
G01 X4.0160 Y12.4946
G01 X4.0020 Y12.4968
G01 X3.9906 Y12.4974
G01 X3.9792 Y12.4968
G01 X3.9652 Y12.4946
G01 X3.9512 Y12.4968
G01 X3.9398 Y12.4974
G01 X3.9284 Y12.4968
G01 X3.9144 Y12.4946
G01 X3.9004 Y12.4968
G01 X3.8869 Y12.4973
G01 X3.8776 Y12.4968
G01 X3.8662 Y12.4951
G01 X3.8551 Y12.4923
G01 X3.8443 Y12.4885
G01 X3.8340 Y12.4836
G01 X3.8241 Y12.4777
G01 X3.8149 Y12.4709
G01 X3.8064 Y12.4632
G01 X3.7987 Y12.4547
G01 X3.7919 Y12.4455
G01 X3.7860 Y12.4356
G01 X3.7811 Y12.4253
G01 X3.7773 Y12.4145
G01 X3.7745 Y12.4034
G01 X3.7728 Y12.3920
G01 X3.7722 Y12.3806
G00 Z2.0000
G00 X4.4122 Y15.6773
G01 F60.00
G01 Z-0.2706
G01 F120.00
G01 X4.4234 Y15.6685
G01 X4.4288 Y15.6636
G01 X4.4351 Y15.6567
G01 X4.4433 Y15.6459
G01 X4.4502 Y15.6342
G01 X4.4636 Y15.6261
G01 X4.4711 Y15.6205
G01 X4.4781 Y15.6142
G01 X4.4859 Y15.6059
G01 X4.4917 Y15.5985
G01 X4.4963 Y15.5915
G01 X4.5010 Y15.5834
G01 X4.5127 Y15.5765
G01 X4.5235 Y15.5683
G01 X4.5304 Y15.5620
G01 X4.5353 Y15.5566
G01 X4.5442 Y15.5452
G01 X4.5588 Y15.5450
G01 X4.5701 Y15.5435
G01 X4.5813 Y15.5409
G01 X4.5921 Y15.5373
G01 X4.6063 Y15.5306
G01 X4.6143 Y15.5257
G01 X4.6218 Y15.5202
G01 X4.6334 Y15.5097
G01 X4.6397 Y15.5027
G01 X4.6458 Y15.4944
G01 X4.6604 Y15.4942
G01 X4.6758 Y15.4919
G01 X4.6849 Y15.4895
G01 X4.6918 Y15.4872
G01 X4.7042 Y15.4817
G01 X4.7159 Y15.4749
G01 X4.7267 Y15.4667
G01 X4.7336 Y15.4604
G01 X4.7385 Y15.4550
G01 X4.7474 Y15.4436
G01 X4.7547 Y15.4437
G01 X4.7640 Y15.4432
G01 X4.7780 Y15.4410
G01 X4.7847 Y15.4422
G01 X4.7940 Y15.4434
G01 X4.8034 Y15.4438
G01 X4.8107 Y15.4435
G01 X4.8169 Y15.4430
G01 X4.8262 Y15.4415
G01 X4.8393 Y15.4381
G01 X4.8481 Y15.4349
G01 X4.8584 Y15.4300
G01 X4.8665 Y15.4252
G01 X4.8742 Y15.4198
G01 X4.8806 Y15.4145
G01 X4.8874 Y15.4081
G01 X4.8937 Y15.4011
G01 X4.8998 Y15.3928
G01 X4.9071 Y15.3929
G01 X4.9164 Y15.3924
G01 X4.9304 Y15.3902
G01 X4.9444 Y15.3924
G01 X4.9579 Y15.3929
G01 X4.9693 Y15.3922
G01 X4.9812 Y15.3902
G01 X4.9952 Y15.3924
G01 X5.0087 Y15.3929
G01 X5.0180 Y15.3924
G01 X5.0253 Y15.3914
G01 X5.0385 Y15.3885
G01 X5.0474 Y15.3856
G01 X5.0551 Y15.3824
G01 X5.0635 Y15.3782
G01 X5.0732 Y15.3721
G01 X5.0807 Y15.3665
G01 X5.0892 Y15.3588
G01 X5.0969 Y15.3503
G01 X5.1030 Y15.3420
G01 X5.1103 Y15.3421
G01 X5.1196 Y15.3416
G01 X5.1336 Y15.3394
G01 X5.1476 Y15.3416
G01 X5.1611 Y15.3421
G01 X5.1725 Y15.3414
G01 X5.1844 Y15.3394
G01 X5.1984 Y15.3416
G01 X5.2119 Y15.3421
G01 X5.2233 Y15.3414
G01 X5.2352 Y15.3394
G01 X5.2492 Y15.3416
G01 X5.2627 Y15.3421
G01 X5.2741 Y15.3414
G01 X5.2875 Y15.3390
G01 X5.2965 Y15.3365
G01 X5.3072 Y15.3325
G01 X5.3175 Y15.3274
G01 X5.3272 Y15.3213
G01 X5.3347 Y15.3157
G01 X5.3432 Y15.3080
G01 X5.3509 Y15.2995
G01 X5.3570 Y15.2912
G01 X5.3643 Y15.2913
G01 X5.3736 Y15.2908
G01 X5.3876 Y15.2886
G01 X5.4016 Y15.2908
G01 X5.4130 Y15.2914
G01 X5.4244 Y15.2908
G01 X5.4384 Y15.2886
G01 X5.4524 Y15.2908
G01 X5.4638 Y15.2914
G01 X5.4752 Y15.2908
G01 X5.4892 Y15.2886
G01 X5.5032 Y15.2908
G01 X5.5146 Y15.2914
G01 X5.5260 Y15.2908
G01 X5.5400 Y15.2886
G01 X5.5540 Y15.2908
G01 X5.5654 Y15.2914
G01 X5.5768 Y15.2908
G01 X5.5908 Y15.2886
G01 X5.6048 Y15.2908
G01 X5.6162 Y15.2914
G01 X5.6276 Y15.2908
G01 X5.6416 Y15.2886
G01 X5.6535 Y15.2906
G01 X5.6649 Y15.2913
G01 X5.6784 Y15.2908
G01 X5.6924 Y15.2886
G01 X5.7043 Y15.2906
G01 X5.7157 Y15.2913
G01 X5.7292 Y15.2908
G01 X5.7432 Y15.2886
G01 X5.7551 Y15.2906
G01 X5.7665 Y15.2913
G01 X5.7800 Y15.2908
G01 X5.7940 Y15.2886
G01 X5.8080 Y15.2908
G01 X5.8173 Y15.2913
G01 X5.8246 Y15.2912
G01 X5.8321 Y15.3011
G01 X5.8399 Y15.3094
G01 X5.8486 Y15.3170
G01 X5.8597 Y15.3247
G01 X5.8660 Y15.3284
G01 X5.8725 Y15.3316
G01 X5.8831 Y15.3358
G01 X5.8962 Y15.3395
G01 X5.9067 Y15.3413
G01 X5.9085 Y15.3518
G01 X5.9122 Y15.3649
G01 X5.9164 Y15.3755
G01 X5.9196 Y15.3820
G01 X5.9233 Y15.3883
G01 X5.9310 Y15.3994
G01 X5.9386 Y15.4081
G01 X5.9469 Y15.4159
G01 X5.9566 Y15.4233
G01 X5.9566 Y15.4339
G01 X5.9454 Y15.4427
G01 X5.9400 Y15.4476
G01 X5.9337 Y15.4545
G01 X5.9255 Y15.4653
G01 X5.9186 Y15.4770
G01 X5.9052 Y15.4851
G01 X5.8977 Y15.4907
G01 X5.8907 Y15.4970
G01 X5.8829 Y15.5053
G01 X5.8771 Y15.5127
G01 X5.8725 Y15.5197
G01 X5.8678 Y15.5278
G01 X5.8561 Y15.5347
G01 X5.8453 Y15.5429
G01 X5.8384 Y15.5492
G01 X5.8335 Y15.5546
G01 X5.8246 Y15.5660
G01 X5.8100 Y15.5662
G01 X5.7946 Y15.5685
G01 X5.7855 Y15.5709
G01 X5.7786 Y15.5732
G01 X5.7662 Y15.5787
G01 X5.7545 Y15.5855
G01 X5.7437 Y15.5937
G01 X5.7368 Y15.6000
G01 X5.7319 Y15.6054
G01 X5.7230 Y15.6168
G01 X5.7157 Y15.6167
G01 X5.7064 Y15.6172
G01 X5.6924 Y15.6194
G01 X5.6857 Y15.6182
G01 X5.6764 Y15.6170
G01 X5.6670 Y15.6166
G01 X5.6597 Y15.6169
G01 X5.6535 Y15.6174
G01 X5.6442 Y15.6189
G01 X5.6311 Y15.6223
G01 X5.6223 Y15.6255
G01 X5.6120 Y15.6304
G01 X5.6039 Y15.6352
G01 X5.5962 Y15.6406
G01 X5.5898 Y15.6459
G01 X5.5830 Y15.6523
G01 X5.5767 Y15.6593
G01 X5.5706 Y15.6676
G01 X5.5633 Y15.6675
G01 X5.5540 Y15.6680
G01 X5.5400 Y15.6702
G01 X5.5302 Y15.6685
G01 X5.5219 Y15.6677
G01 X5.5125 Y15.6675
G01 X5.5032 Y15.6680
G01 X5.4939 Y15.6693
G01 X5.4847 Y15.6713
G01 X5.4767 Y15.6738
G01 X5.4680 Y15.6771
G01 X5.4596 Y15.6812
G01 X5.4533 Y15.6849
G01 X5.4480 Y15.6883
G01 X5.4405 Y15.6939
G01 X5.4335 Y15.7002
G01 X5.4292 Y15.7047
G01 X5.4243 Y15.7101
G01 X5.4182 Y15.7184
G01 X5.4109 Y15.7183
G01 X5.4016 Y15.7188
G01 X5.3876 Y15.7210
G01 X5.3736 Y15.7188
G01 X5.3601 Y15.7183
G01 X5.3487 Y15.7190
G01 X5.3368 Y15.7210
G01 X5.3228 Y15.7188
G01 X5.3093 Y15.7183
G01 X5.3000 Y15.7188
G01 X5.2927 Y15.7198
G01 X5.2866 Y15.7209
G01 X5.2775 Y15.7233
G01 X5.2667 Y15.7271
G01 X5.2582 Y15.7311
G01 X5.2501 Y15.7357
G01 X5.2431 Y15.7403
G01 X5.2357 Y15.7461
G01 X5.2274 Y15.7539
G01 X5.2211 Y15.7609
G01 X5.2150 Y15.7692
G01 X5.2077 Y15.7691
G01 X5.1984 Y15.7696
G01 X5.1844 Y15.7718
G01 X5.1704 Y15.7696
G01 X5.1569 Y15.7691
G01 X5.1455 Y15.7698
G01 X5.1336 Y15.7718
G01 X5.1196 Y15.7696
G01 X5.1061 Y15.7691
G01 X5.0947 Y15.7698
G01 X5.0828 Y15.7718
G01 X5.0688 Y15.7696
G01 X5.0553 Y15.7691
G01 X5.0439 Y15.7698
G01 X5.0320 Y15.7718
G01 X5.0180 Y15.7696
G01 X5.0045 Y15.7691
G01 X4.9931 Y15.7698
G01 X4.9797 Y15.7722
G01 X4.9707 Y15.7747
G01 X4.9600 Y15.7787
G01 X4.9497 Y15.7838
G01 X4.9400 Y15.7899
G01 X4.9325 Y15.7955
G01 X4.9240 Y15.8032
G01 X4.9163 Y15.8117
G01 X4.9102 Y15.8200
G01 X4.9029 Y15.8199
G01 X4.8936 Y15.8204
G01 X4.8796 Y15.8226
G01 X4.8656 Y15.8204
G01 X4.8542 Y15.8198
G01 X4.8428 Y15.8204
G01 X4.8288 Y15.8226
G01 X4.8148 Y15.8204
G01 X4.8034 Y15.8198
G01 X4.7920 Y15.8204
G01 X4.7780 Y15.8226
G01 X4.7640 Y15.8204
G01 X4.7526 Y15.8198
G01 X4.7412 Y15.8204
G01 X4.7272 Y15.8226
G01 X4.7153 Y15.8206
G01 X4.7039 Y15.8199
G01 X4.6904 Y15.8204
G01 X4.6764 Y15.8226
G01 X4.6645 Y15.8206
G01 X4.6531 Y15.8199
G01 X4.6396 Y15.8204
G01 X4.6256 Y15.8226
G01 X4.6137 Y15.8206
G01 X4.6023 Y15.8199
G01 X4.5888 Y15.8204
G01 X4.5748 Y15.8226
G01 X4.5608 Y15.8204
G01 X4.5515 Y15.8199
G01 X4.5442 Y15.8200
G01 X4.5353 Y15.8086
G01 X4.5304 Y15.8032
G01 X4.5235 Y15.7969
G01 X4.5127 Y15.7887
G01 X4.5010 Y15.7818
G01 X4.4963 Y15.7737
G01 X4.4917 Y15.7667
G01 X4.4859 Y15.7593
G01 X4.4781 Y15.7510
G01 X4.4711 Y15.7447
G01 X4.4636 Y15.7391
G01 X4.4502 Y15.7310
G01 X4.4433 Y15.7193
G01 X4.4351 Y15.7085
G01 X4.4288 Y15.7016
G01 X4.4234 Y15.6967
G01 X4.4122 Y15.6879
G01 X4.4122 Y15.6773
G00 Z2.0000
G00 X3.7214 Y15.9366
G01 F60.00
G01 Z-0.2706
G01 F120.00
G01 X3.7214 Y15.5302
G01 X3.7220 Y15.5188
G01 X3.7233 Y15.5095
G01 X3.7259 Y15.4983
G01 X3.7295 Y15.4875
G01 X3.7343 Y15.4770
G01 X3.7400 Y15.4671
G01 X3.7466 Y15.4578
G01 X3.7542 Y15.4491
G01 X3.7625 Y15.4413
G01 X3.7722 Y15.4339
G01 X3.7722 Y15.3778
G01 X3.7726 Y15.3684
G01 X3.7745 Y15.3550
G01 X3.7779 Y15.3419
G01 X3.7811 Y15.3331
G01 X3.7860 Y15.3228
G01 X3.7908 Y15.3147
G01 X3.7962 Y15.3070
G01 X3.8015 Y15.3006
G01 X3.8079 Y15.2938
G01 X3.8149 Y15.2875
G01 X3.8230 Y15.2815
G01 X3.8233 Y15.2689
G01 X3.8241 Y15.2606
G01 X3.8257 Y15.2514
G01 X3.8294 Y15.2383
G01 X3.8327 Y15.2296
G01 X3.8378 Y15.2193
G01 X3.8439 Y15.2096
G01 X3.8509 Y15.2005
G01 X3.8587 Y15.1922
G01 X3.8674 Y15.1846
G01 X3.8767 Y15.1780
G01 X3.8866 Y15.1722
G01 X3.8947 Y15.1588
G01 X3.9003 Y15.1513
G01 X3.9066 Y15.1443
G01 X3.9149 Y15.1365
G01 X3.9223 Y15.1307
G01 X3.9293 Y15.1261
G01 X3.9374 Y15.1214
G01 X3.9455 Y15.1080
G01 X3.9511 Y15.1005
G01 X3.9574 Y15.0935
G01 X3.9657 Y15.0857
G01 X3.9731 Y15.0799
G01 X3.9801 Y15.0753
G01 X3.9882 Y15.0706
G01 X3.9963 Y15.0572
G01 X4.0019 Y15.0497
G01 X4.0068 Y15.0443
G01 X4.0150 Y15.0363
G01 X4.0214 Y15.0310
G01 X4.0291 Y15.0256
G01 X4.0390 Y15.0198
G01 X4.0448 Y15.0099
G01 X4.0514 Y15.0006
G01 X4.0590 Y14.9919
G01 X4.0673 Y14.9841
G01 X4.0764 Y14.9771
G01 X4.0861 Y14.9710
G01 X4.0964 Y14.9659
G01 X4.1071 Y14.9619
G01 X4.1182 Y14.9589
G01 X4.1295 Y14.9570
G01 X4.1409 Y14.9563
G01 X4.1482 Y14.9564
G01 X4.1571 Y14.9450
G01 X4.1620 Y14.9396
G01 X4.1689 Y14.9333
G01 X4.1797 Y14.9251
G01 X4.1914 Y14.9182
G01 X4.1961 Y14.9101
G01 X4.2007 Y14.9031
G01 X4.2065 Y14.8957
G01 X4.2143 Y14.8874
G01 X4.2246 Y14.8786
G01 X4.2305 Y14.8743
G01 X4.2385 Y14.8694
G01 X4.2527 Y14.8627
G01 X4.2615 Y14.8597
G01 X4.2706 Y14.8573
G01 X4.2860 Y14.8550
G01 X4.3006 Y14.8548
G01 X4.3081 Y14.8449
G01 X4.3175 Y14.8352
G01 X4.3229 Y14.8303
G01 X4.3287 Y14.8259
G01 X4.3401 Y14.8186
G01 X4.3543 Y14.8119
G01 X4.3631 Y14.8089
G01 X4.3722 Y14.8065
G01 X4.3876 Y14.8042
G01 X4.4022 Y14.8040
G01 X4.4097 Y14.7941
G01 X4.4175 Y14.7858
G01 X4.4262 Y14.7782
G01 X4.4373 Y14.7705
G01 X4.4436 Y14.7668
G01 X4.4520 Y14.7627
G01 X4.4607 Y14.7594
G01 X4.4687 Y14.7569
G01 X4.4779 Y14.7549
G01 X4.4872 Y14.7536
G01 X4.4965 Y14.7531
G01 X4.5038 Y14.7532
G01 X4.5099 Y14.7449
G01 X4.5148 Y14.7395
G01 X4.5191 Y14.7350
G01 X4.5261 Y14.7287
G01 X4.5336 Y14.7231
G01 X4.5389 Y14.7197
G01 X4.5470 Y14.7151
G01 X4.5555 Y14.7111
G01 X4.5643 Y14.7079
G01 X4.5703 Y14.7061
G01 X4.5795 Y14.7041
G01 X4.5888 Y14.7028
G01 X4.5981 Y14.7023
G01 X4.6075 Y14.7025
G01 X4.6158 Y14.7033
G01 X4.6256 Y14.7050
G01 X4.6396 Y14.7028
G01 X4.6489 Y14.7023
G01 X4.6562 Y14.7024
G01 X4.6623 Y14.6941
G01 X4.6700 Y14.6856
G01 X4.6785 Y14.6779
G01 X4.6877 Y14.6711
G01 X4.6976 Y14.6652
G01 X4.7079 Y14.6603
G01 X4.7187 Y14.6565
G01 X4.7278 Y14.6541
G01 X4.7391 Y14.6522
G01 X4.7505 Y14.6515
G01 X4.7640 Y14.6520
G01 X4.7780 Y14.6542
G01 X4.7920 Y14.6520
G01 X4.8013 Y14.6515
G01 X4.8086 Y14.6516
G01 X4.8147 Y14.6433
G01 X4.8224 Y14.6348
G01 X4.8309 Y14.6271
G01 X4.8384 Y14.6215
G01 X4.8481 Y14.6154
G01 X4.8565 Y14.6112
G01 X4.8642 Y14.6080
G01 X4.8731 Y14.6051
G01 X4.8863 Y14.6022
G01 X4.8936 Y14.6012
G01 X4.9029 Y14.6007
G01 X4.9164 Y14.6012
G01 X4.9304 Y14.6034
G01 X4.9423 Y14.6014
G01 X4.9537 Y14.6007
G01 X4.9672 Y14.6012
G01 X4.9812 Y14.6034
G01 X4.9931 Y14.6014
G01 X5.0045 Y14.6007
G01 X5.0180 Y14.6012
G01 X5.0320 Y14.6034
G01 X5.0439 Y14.6014
G01 X5.0553 Y14.6007
G01 X5.0688 Y14.6012
G01 X5.0828 Y14.6034
G01 X5.0968 Y14.6012
G01 X5.1061 Y14.6007
G01 X5.1134 Y14.6008
G01 X5.1209 Y14.5909
G01 X5.1303 Y14.5812
G01 X5.1357 Y14.5763
G01 X5.1415 Y14.5719
G01 X5.1529 Y14.5646
G01 X5.1651 Y14.5587
G01 X5.1759 Y14.5549
G01 X5.1891 Y14.5517
G01 X5.2025 Y14.5501
G01 X5.2098 Y14.5498
G01 X5.2192 Y14.5502
G01 X5.2285 Y14.5514
G01 X5.2352 Y14.5526
G01 X5.2492 Y14.5504
G01 X5.2627 Y14.5499
G01 X5.2741 Y14.5506
G01 X5.2860 Y14.5526
G01 X5.3000 Y14.5504
G01 X5.3135 Y14.5499
G01 X5.3249 Y14.5506
G01 X5.3368 Y14.5526
G01 X5.3508 Y14.5504
G01 X5.3643 Y14.5499
G01 X5.3757 Y14.5506
G01 X5.3876 Y14.5526
G01 X5.4016 Y14.5504
G01 X5.4130 Y14.5498
G01 X5.4244 Y14.5504
G01 X5.4384 Y14.5526
G01 X5.4524 Y14.5504
G01 X5.4638 Y14.5498
G01 X5.4752 Y14.5504
G01 X5.4892 Y14.5526
G01 X5.5032 Y14.5504
G01 X5.5146 Y14.5498
G01 X5.5260 Y14.5504
G01 X5.5400 Y14.5526
G01 X5.5540 Y14.5504
G01 X5.5654 Y14.5498
G01 X5.5768 Y14.5504
G01 X5.5908 Y14.5526
G01 X5.6048 Y14.5504
G01 X5.6162 Y14.5498
G01 X5.6276 Y14.5504
G01 X5.6416 Y14.5526
G01 X5.6556 Y14.5504
G01 X5.6670 Y14.5498
G01 X5.6784 Y14.5504
G01 X5.6924 Y14.5526
G01 X5.7064 Y14.5504
G01 X5.7178 Y14.5498
G01 X5.7292 Y14.5504
G01 X5.7432 Y14.5526
G01 X5.7572 Y14.5504
G01 X5.7686 Y14.5498
G01 X5.7800 Y14.5504
G01 X5.7940 Y14.5526
G01 X5.8080 Y14.5504
G01 X5.8194 Y14.5498
G01 X5.8329 Y14.5506
G01 X5.8422 Y14.5521
G01 X5.8493 Y14.5537
G01 X5.8621 Y14.5579
G01 X5.8744 Y14.5636
G01 X5.8860 Y14.5707
G01 X5.8966 Y14.5791
G01 X5.9020 Y14.5840
G01 X5.9083 Y14.5909
G01 X5.9158 Y14.6008
G01 X5.9231 Y14.6007
G01 X5.9324 Y14.6012
G01 X5.9464 Y14.6034
G01 X5.9604 Y14.6012
G01 X5.9739 Y14.6007
G01 X5.9853 Y14.6014
G01 X5.9972 Y14.6034
G01 X6.0112 Y14.6012
G01 X6.0247 Y14.6007
G01 X6.0340 Y14.6012
G01 X6.0413 Y14.6022
G01 X6.0474 Y14.6033
G01 X6.0565 Y14.6057
G01 X6.0673 Y14.6095
G01 X6.0758 Y14.6135
G01 X6.0839 Y14.6181
G01 X6.0909 Y14.6227
G01 X6.0983 Y14.6285
G01 X6.1066 Y14.6363
G01 X6.1129 Y14.6433
G01 X6.1190 Y14.6516
G01 X6.1263 Y14.6515
G01 X6.1356 Y14.6520
G01 X6.1496 Y14.6542
G01 X6.1594 Y14.6525
G01 X6.1677 Y14.6517
G01 X6.1771 Y14.6515
G01 X6.1885 Y14.6522
G01 X6.1978 Y14.6537
G01 X6.2089 Y14.6565
G01 X6.2197 Y14.6603
G01 X6.2282 Y14.6643
G01 X6.2416 Y14.6723
G01 X6.2491 Y14.6779
G01 X6.2561 Y14.6842
G01 X6.2639 Y14.6925
G01 X6.2697 Y14.6999
G01 X6.2743 Y14.7069
G01 X6.2790 Y14.7150
G01 X6.2907 Y14.7219
G01 X6.3015 Y14.7301
G01 X6.3084 Y14.7364
G01 X6.3133 Y14.7418
G01 X6.3222 Y14.7532
G01 X6.3347 Y14.7533
G01 X6.3461 Y14.7546
G01 X6.3593 Y14.7575
G01 X6.3682 Y14.7604
G01 X6.3806 Y14.7659
G01 X6.3905 Y14.7716
G01 X6.3998 Y14.7782
G01 X6.4069 Y14.7844
G01 X6.4149 Y14.7926
G01 X6.4202 Y14.7990
G01 X6.4256 Y14.8067
G01 X6.4314 Y14.8166
G01 X6.4448 Y14.8247
G01 X6.4523 Y14.8303
G01 X6.4593 Y14.8366
G01 X6.4671 Y14.8449
G01 X6.4729 Y14.8523
G01 X6.4775 Y14.8593
G01 X6.4822 Y14.8674
G01 X6.4939 Y14.8743
G01 X6.5014 Y14.8798
G01 X6.5062 Y14.8839
G01 X6.5116 Y14.8888
G01 X6.5179 Y14.8957
G01 X6.5261 Y14.9065
G01 X6.5310 Y14.9145
G01 X6.5352 Y14.9229
G01 X6.5384 Y14.9306
G01 X6.5413 Y14.9395
G01 X6.5435 Y14.9486
G01 X6.5450 Y14.9579
G01 X6.5457 Y14.9672
G01 X6.5458 Y14.9767
G01 X6.5555 Y14.9841
G01 X6.5652 Y14.9935
G01 X6.5726 Y15.0022
G01 X6.5769 Y15.0081
G01 X6.5807 Y15.0143
G01 X6.5847 Y15.0217
G01 X6.5885 Y15.0303
G01 X6.5915 Y15.0391
G01 X6.5934 Y15.0461
G01 X6.5947 Y15.0523
G01 X6.5960 Y15.0616
G01 X6.5966 Y15.0783
G01 X6.6047 Y15.0843
G01 X6.6132 Y15.0920
G01 X6.6209 Y15.1005
G01 X6.6265 Y15.1080
G01 X6.6326 Y15.1177
G01 X6.6368 Y15.1261
G01 X6.6400 Y15.1338
G01 X6.6429 Y15.1427
G01 X6.6451 Y15.1518
G01 X6.6463 Y15.1590
G01 X6.6470 Y15.1652
G01 X6.6474 Y15.1746
G01 X6.6474 Y15.5810
G01 X6.6468 Y15.5924
G01 X6.6451 Y15.6038
G01 X6.6423 Y15.6149
G01 X6.6385 Y15.6257
G01 X6.6336 Y15.6360
G01 X6.6277 Y15.6459
G01 X6.6209 Y15.6551
G01 X6.6132 Y15.6636
G01 X6.6047 Y15.6713
G01 X6.5966 Y15.6773
G01 X6.5966 Y15.7334
G01 X6.5958 Y15.7469
G01 X6.5943 Y15.7562
G01 X6.5915 Y15.7673
G01 X6.5877 Y15.7781
G01 X6.5837 Y15.7866
G01 X6.5757 Y15.8000
G01 X6.5701 Y15.8075
G01 X6.5638 Y15.8145
G01 X6.5555 Y15.8223
G01 X6.5481 Y15.8281
G01 X6.5411 Y15.8327
G01 X6.5330 Y15.8374
G01 X6.5261 Y15.8491
G01 X6.5179 Y15.8599
G01 X6.5116 Y15.8668
G01 X6.5062 Y15.8717
