(G-CODE GENERATED BY FLATCAM v8.994 - www.flatcam.org - Version Date: 2020/11/7)

(Name: acceso_stem_PCB - CADCAM Bottom Copper.GBR_cutout_cnc)
(Type: G-code from Geometry)
(Units: MM)

(Created on Thursday, 25 April 2024 at 10:20)

(This preprocessor is the default preprocessor used by FlatCAM.)
(It is made to work with MACH3 compatible motion controllers.)

(TOOL DIAMETER: 2.4 mm)
(Feedrate_XY: 120.0 mm/min)
(Feedrate_Z: 60.0 mm/min)
(Feedrate rapids 1500.0 mm/min)

(Z_Cut: -1.8 mm)
(DepthPerCut: 0.6 mm <=>3 passes)
(Z_Move: 1.0 mm)
(Z Start: None mm)
(Z End: 15.0 mm)
(X,Y End: None mm)
(Steps per circle: 64)
(Preprocessor Geometry: default)

(X range:    0.4551 ...   57.2812  mm)
(Y range:    2.1838 ...   65.8614  mm)

(Spindle Speed: 0.0 RPM)
G21
G90
G94

G01 F120.00

M5
G00 Z15.0000
G00 X0.0000 Y0.0000
T1
M6    
(MSG, Change to Tool Dia = 2.4000)
M0
G00 Z15.0000

M03
G01 F120.00
G00 X55.8812 Y2.1838
G01 F60.00
G01 Z-0.6000
G01 F120.00
G01 X1.8551 Y2.1838
G01 X1.7179 Y2.1906
G01 X1.5820 Y2.2107
G01 X1.4487 Y2.2441
G01 X1.3193 Y2.2904
G01 X1.1951 Y2.3491
G01 X1.0773 Y2.4198
G01 X0.9669 Y2.5016
G01 X0.8651 Y2.5939
G01 X0.7729 Y2.6957
G01 X0.6910 Y2.8060
G01 X0.6204 Y2.9239
G01 X0.5617 Y3.0481
G01 X0.5154 Y3.1774
G01 X0.4820 Y3.3107
G01 X0.4618 Y3.4466
G01 X0.4551 Y3.5838
G01 X0.4551 Y64.4614
G01 X0.4618 Y64.5986
G01 X0.4820 Y64.7345
G01 X0.5154 Y64.8678
G01 X0.5617 Y64.9971
G01 X0.6204 Y65.1213
G01 X0.6910 Y65.2392
G01 X0.7729 Y65.3495
G01 X0.8651 Y65.4513
G01 X0.9669 Y65.5436
G01 X1.0773 Y65.6254
G01 X1.1951 Y65.6961
G01 X1.3193 Y65.7548
G01 X1.4487 Y65.8011
G01 X1.5820 Y65.8345
G01 X1.7179 Y65.8546
G01 X1.8551 Y65.8614
G01 X55.8812 Y65.8614
G01 X56.0184 Y65.8546
G01 X56.1543 Y65.8345
G01 X56.2876 Y65.8011
G01 X56.4169 Y65.7548
G01 X56.5411 Y65.6961
G01 X56.6590 Y65.6254
G01 X56.7693 Y65.5436
G01 X56.8711 Y65.4513
G01 X56.9634 Y65.3495
G01 X57.0452 Y65.2392
G01 X57.1159 Y65.1213
G01 X57.1746 Y64.9971
G01 X57.2209 Y64.8678
G01 X57.2543 Y64.7345
G01 X57.2744 Y64.5986
G01 X57.2812 Y64.4614
G01 X57.2812 Y3.5838
G01 X57.2744 Y3.4466
G01 X57.2543 Y3.3107
G01 X57.2209 Y3.1774
G01 X57.1746 Y3.0481
G01 X57.1159 Y2.9239
G01 X57.0452 Y2.8060
G01 X56.9634 Y2.6957
G01 X56.8711 Y2.5939
G01 X56.7693 Y2.5016
G01 X56.6590 Y2.4198
G01 X56.5411 Y2.3491
G01 X56.4169 Y2.2904
G01 X56.2876 Y2.2441
G01 X56.1543 Y2.2107
G01 X56.0184 Y2.1906
G01 X55.8812 Y2.1838
G00 X55.8812 Y2.1838
G01 F60.00
G01 Z-1.2000
G01 F120.00
G01 X56.0184 Y2.1906
G01 X56.1543 Y2.2107
G01 X56.2876 Y2.2441
G01 X56.4169 Y2.2904
G01 X56.5411 Y2.3491
G01 X56.6590 Y2.4198
G01 X56.7693 Y2.5016
G01 X56.8711 Y2.5939
G01 X56.9634 Y2.6957
G01 X57.0452 Y2.8060
G01 X57.1159 Y2.9239
G01 X57.1746 Y3.0481
G01 X57.2209 Y3.1774
G01 X57.2543 Y3.3107
G01 X57.2744 Y3.4466
G01 X57.2812 Y3.5838
G01 X57.2812 Y64.4614
G01 X57.2744 Y64.5986
G01 X57.2543 Y64.7345
G01 X57.2209 Y64.8678
G01 X57.1746 Y64.9971
G01 X57.1159 Y65.1213
G01 X57.0452 Y65.2392
G01 X56.9634 Y65.3495
G01 X56.8711 Y65.4513
G01 X56.7693 Y65.5436
G01 X56.6590 Y65.6254
G01 X56.5411 Y65.6961
G01 X56.4169 Y65.7548
G01 X56.2876 Y65.8011
G01 X56.1543 Y65.8345
G01 X56.0184 Y65.8546
G01 X55.8812 Y65.8614
G01 X1.8551 Y65.8614
G01 X1.7179 Y65.8546
G01 X1.5820 Y65.8345
G01 X1.4487 Y65.8011
G01 X1.3193 Y65.7548
G01 X1.1951 Y65.6961
G01 X1.0773 Y65.6254
G01 X0.9669 Y65.5436
G01 X0.8651 Y65.4513
G01 X0.7729 Y65.3495
G01 X0.6910 Y65.2392
G01 X0.6204 Y65.1213
G01 X0.5617 Y64.9971
G01 X0.5154 Y64.8678
G01 X0.4820 Y64.7345
G01 X0.4618 Y64.5986
G01 X0.4551 Y64.4614
G01 X0.4551 Y3.5838
G01 X0.4618 Y3.4466
G01 X0.4820 Y3.3107
G01 X0.5154 Y3.1774
G01 X0.5617 Y3.0481
G01 X0.6204 Y2.9239
G01 X0.6910 Y2.8060
G01 X0.7729 Y2.6957
G01 X0.8651 Y2.5939
G01 X0.9669 Y2.5016
G01 X1.0773 Y2.4198
G01 X1.1951 Y2.3491
G01 X1.3193 Y2.2904
G01 X1.4487 Y2.2441
G01 X1.5820 Y2.2107
G01 X1.7179 Y2.1906
G01 X1.8551 Y2.1838
G01 X55.8812 Y2.1838
G00 X55.8812 Y2.1838
G01 F60.00
G01 Z-1.8000
G01 F120.00
G01 X1.8551 Y2.1838
G01 X1.7179 Y2.1906
G01 X1.5820 Y2.2107
G01 X1.4487 Y2.2441
G01 X1.3193 Y2.2904
G01 X1.1951 Y2.3491
G01 X1.0773 Y2.4198
G01 X0.9669 Y2.5016
G01 X0.8651 Y2.5939
G01 X0.7729 Y2.6957
G01 X0.6910 Y2.8060
G01 X0.6204 Y2.9239
G01 X0.5617 Y3.0481
G01 X0.5154 Y3.1774
G01 X0.4820 Y3.3107
G01 X0.4618 Y3.4466
G01 X0.4551 Y3.5838
G01 X0.4551 Y64.4614
G01 X0.4618 Y64.5986
G01 X0.4820 Y64.7345
G01 X0.5154 Y64.8678
G01 X0.5617 Y64.9971
G01 X0.6204 Y65.1213
G01 X0.6910 Y65.2392
G01 X0.7729 Y65.3495
G01 X0.8651 Y65.4513
G01 X0.9669 Y65.5436
G01 X1.0773 Y65.6254
G01 X1.1951 Y65.6961
G01 X1.3193 Y65.7548
G01 X1.4487 Y65.8011
G01 X1.5820 Y65.8345
G01 X1.7179 Y65.8546
G01 X1.8551 Y65.8614
G01 X55.8812 Y65.8614
G01 X56.0184 Y65.8546
G01 X56.1543 Y65.8345
G01 X56.2876 Y65.8011
G01 X56.4169 Y65.7548
G01 X56.5411 Y65.6961
G01 X56.6590 Y65.6254
G01 X56.7693 Y65.5436
G01 X56.8711 Y65.4513
G01 X56.9634 Y65.3495
G01 X57.0452 Y65.2392
G01 X57.1159 Y65.1213
G01 X57.1746 Y64.9971
G01 X57.2209 Y64.8678
G01 X57.2543 Y64.7345
G01 X57.2744 Y64.5986
G01 X57.2812 Y64.4614
G01 X57.2812 Y3.5838
G01 X57.2744 Y3.4466
G01 X57.2543 Y3.3107
G01 X57.2209 Y3.1774
G01 X57.1746 Y3.0481
G01 X57.1159 Y2.9239
G01 X57.0452 Y2.8060
G01 X56.9634 Y2.6957
G01 X56.8711 Y2.5939
G01 X56.7693 Y2.5016
G01 X56.6590 Y2.4198
G01 X56.5411 Y2.3491
G01 X56.4169 Y2.2904
G01 X56.2876 Y2.2441
G01 X56.1543 Y2.2107
G01 X56.0184 Y2.1906
G01 X55.8812 Y2.1838
G00 Z1.0000
M05
G00 Z1.0000
G00 Z15.00


