(G-CODE GENERATED BY FLATCAM v8.994 - www.flatcam.org - Version Date: 2020/11/7)

(Name: acceso_stem_PCB - CADCAM Bottom Copper.GBR_iso_combined_cnc)
(Type: G-code from Geometry)
(Units: MM)

(Created on Thursday, 25 April 2024 at 10:15)

(This preprocessor is the default preprocessor used by FlatCAM.)
(It is made to work with MACH3 compatible motion controllers.)

(TOOL DIAMETER: 0.17 mm)
(Feedrate_XY: 120.0 mm/min)
(Feedrate_Z: 60.0 mm/min)
(Feedrate rapids 1500.0 mm/min)

(Z_Cut: -0.2706 mm)
(Z_Move: 1.0 mm)
(Z Start: None mm)
(Z End: 15.0 mm)
(X,Y End: None mm)
(Steps per circle: 64)
(Preprocessor Geometry: default)

(X range:    1.7701 ...   55.9662  mm)
(Y range:    3.4988 ...   64.5464  mm)

(Spindle Speed: 0.0 RPM)
G21
G90
G94

G01 F120.00

M5
G00 Z15.0000
G00 X0.0000 Y0.0000
T1
M6    
(MSG, Change to Tool Dia = 0.1700)
M0
G00 Z15.0000

M03
G01 F120.00
G00 X5.0111 Y19.0259
G01 F60.00
G01 Z-0.2706
G01 F120.00
G01 X6.6901 Y17.3469
G01 X6.6901 Y13.4961
G01 X6.6354 Y13.4700
G01 X6.5463 Y13.4166
G01 X6.4562 Y13.3497
G01 X6.3778 Y13.2785
G01 X6.3079 Y13.2016
G01 X6.3026 Y13.1952
G01 X6.2420 Y13.1134
G01 X6.1873 Y13.0226
G01 X6.1834 Y13.0153
G01 X6.1391 Y12.9213
G01 X6.1040 Y12.8236
G01 X6.1016 Y12.8156
G01 X6.0764 Y12.7148
G01 X6.0611 Y12.6121
G01 X6.0603 Y12.6038
G01 X6.0554 Y12.5042
G01 X6.0554 Y12.4958
G01 X6.0606 Y12.3921
G01 X6.0757 Y12.2893
G01 X6.0773 Y12.2811
G01 X6.1027 Y12.1804
G01 X6.1376 Y12.0826
G01 X6.1408 Y12.0749
G01 X6.1853 Y11.9810
G01 X6.2408 Y11.8883
G01 X6.3052 Y11.8015
G01 X6.3749 Y11.7245
G01 X6.3808 Y11.7186
G01 X6.4546 Y11.6516
G01 X6.4611 Y11.6463
G01 X6.5446 Y11.5846
G01 X6.6373 Y11.5290
G01 X6.7311 Y11.4845
G01 X6.7388 Y11.4813
G01 X6.8367 Y11.4464
G01 X6.9394 Y11.4206
G01 X7.0442 Y11.4048
G01 X7.0525 Y11.4040
G01 X7.1563 Y11.3990
G01 X7.2621 Y11.4041
G01 X7.3731 Y11.4206
G01 X7.4739 Y11.4458
G01 X7.5310 Y11.4660
G01 X9.6481 Y9.3489
G01 X9.6805 Y9.3196
G01 X9.7139 Y9.2948
G01 X9.7208 Y9.2901
G01 X9.7565 Y9.2689
G01 X9.7941 Y9.2510
G01 X9.8018 Y9.2478
G01 X9.8390 Y9.2345
G01 X9.8813 Y9.2237
G01 X9.8894 Y9.2221
G01 X9.9306 Y9.2161
G01 X9.9763 Y9.2138
G01 X13.9413 Y9.2138
G01 X13.9870 Y9.2161
G01 X14.0322 Y9.2228
G01 X14.0726 Y9.2328
G01 X14.0806 Y9.2352
G01 X14.1197 Y9.2493
G01 X14.1610 Y9.2689
G01 X14.1968 Y9.2901
G01 X14.2037 Y9.2948
G01 X14.2370 Y9.3196
G01 X14.2679 Y9.3475
G01 X15.5409 Y10.6204
G01 X15.5689 Y10.6511
G01 X15.5742 Y10.6575
G01 X15.5989 Y10.6910
G01 X15.6224 Y10.7302
G01 X15.6420 Y10.7716
G01 X15.6561 Y10.8107
G01 X15.6585 Y10.8187
G01 X15.6676 Y10.8550
G01 X15.6692 Y10.8632
G01 X15.6752 Y10.9043
G01 X15.6775 Y10.9500
G01 X15.6775 Y20.2819
G01 X16.9094 Y21.5138
G01 X19.1881 Y21.5138
G01 X19.2272 Y21.4709
G01 X19.2764 Y21.4262
G01 X19.2828 Y21.4209
G01 X19.3363 Y21.3813
G01 X19.3932 Y21.3471
G01 X19.4006 Y21.3431
G01 X19.4607 Y21.3148
G01 X19.5233 Y21.2923
G01 X19.5313 Y21.2899
G01 X19.5958 Y21.2738
G01 X19.6616 Y21.2640
G01 X19.6699 Y21.2632
G01 X19.7363 Y21.2600
G01 X19.8027 Y21.2632
G01 X19.8110 Y21.2640
G01 X19.8747 Y21.2735
G01 X19.9453 Y21.2910
G01 X20.0118 Y21.3148
G01 X20.0757 Y21.3450
G01 X20.1363 Y21.3813
G01 X20.1930 Y21.4234
G01 X20.2454 Y21.4709
G01 X20.2928 Y21.5232
G01 X20.3349 Y21.5800
G01 X20.3713 Y21.6406
G01 X20.4015 Y21.7045
G01 X20.4253 Y21.7710
G01 X20.4424 Y21.8395
G01 X20.4528 Y21.9094
G01 X20.4563 Y21.9800
G01 X20.4528 Y22.0506
G01 X20.4424 Y22.1205
G01 X20.4253 Y22.1890
G01 X20.4030 Y22.2516
G01 X20.3998 Y22.2593
G01 X20.3731 Y22.3157
G01 X20.3692 Y22.3230
G01 X20.3349 Y22.3800
G01 X20.2928 Y22.4368
G01 X20.2454 Y22.4891
G01 X20.1962 Y22.5338
G01 X20.1897 Y22.5391
G01 X20.1397 Y22.5763
G01 X20.1328 Y22.5809
G01 X20.0757 Y22.6150
G01 X20.0118 Y22.6452
G01 X19.9453 Y22.6690
G01 X19.8808 Y22.6853
G01 X19.8726 Y22.6869
G01 X19.8048 Y22.6967
G01 X19.7404 Y22.6999
G01 X19.7321 Y22.6999
G01 X19.6657 Y22.6965
G01 X19.5999 Y22.6869
G01 X19.5917 Y22.6853
G01 X19.5273 Y22.6690
G01 X19.4607 Y22.6452
G01 X19.3969 Y22.6150
G01 X19.3398 Y22.5809
G01 X19.3329 Y22.5763
G01 X19.2828 Y22.5391
G01 X19.2764 Y22.5338
G01 X19.2272 Y22.4891
G01 X19.1881 Y22.4462
G01 X16.7163 Y22.4462
G01 X16.6747 Y22.4443
G01 X16.6664 Y22.4434
G01 X16.6253 Y22.4372
G01 X16.5850 Y22.4272
G01 X16.5770 Y22.4248
G01 X16.5379 Y22.4107
G01 X16.5002 Y22.3930
G01 X16.4929 Y22.3891
G01 X16.4573 Y22.3676
G01 X16.4238 Y22.3429
G01 X16.4174 Y22.3376
G01 X16.3881 Y22.3111
G01 X14.8816 Y20.8046
G01 X14.8536 Y20.7739
G01 X14.8483 Y20.7675
G01 X14.8237 Y20.7340
G01 X14.8011 Y20.6966
G01 X14.7806 Y20.6534
G01 X14.7665 Y20.6143
G01 X14.7640 Y20.6063
G01 X14.7540 Y20.5659
G01 X14.7478 Y20.5248
G01 X14.7470 Y20.5165
G01 X14.7451 Y20.4750
G01 X14.7451 Y11.1431
G01 X13.7482 Y10.1462
G01 X10.1694 Y10.1462
G01 X8.1903 Y12.1253
G01 X8.2104 Y12.1824
G01 X8.2365 Y12.2873
G01 X8.2520 Y12.3921
G01 X8.2572 Y12.5021
G01 X8.2520 Y12.6079
G01 X8.2361 Y12.7148
G01 X8.2099 Y12.8196
G01 X8.1735 Y12.9213
G01 X8.1273 Y13.0190
G01 X8.0717 Y13.1117
G01 X8.0074 Y13.1985
G01 X7.9363 Y13.2770
G01 X7.8547 Y13.3511
G01 X7.7697 Y13.4143
G01 X7.6771 Y13.4700
G01 X7.6225 Y13.4961
G01 X7.6225 Y17.5400
G01 X7.6202 Y17.5857
G01 X7.6135 Y17.6309
G01 X7.6024 Y17.6753
G01 X7.5870 Y17.7184
G01 X7.5674 Y17.7598
G01 X7.5439 Y17.7990
G01 X7.5166 Y17.8357
G01 X7.4874 Y17.8682
G01 X5.6704 Y19.6852
G01 X5.6916 Y19.7700
G01 X5.7051 Y19.8604
G01 X5.7059 Y19.8687
G01 X5.7103 Y19.9600
G01 X5.7059 Y20.0513
G01 X5.7051 Y20.0596
G01 X5.6916 Y20.1500
G01 X5.6694 Y20.2387
G01 X5.6670 Y20.2467
G01 X5.6361 Y20.3327
G01 X5.5971 Y20.4154
G01 X5.5932 Y20.4228
G01 X5.5461 Y20.5011
G01 X5.4918 Y20.5746
G01 X5.4865 Y20.5811
G01 X5.4250 Y20.6487
G01 X5.3573 Y20.7102
G01 X5.3509 Y20.7155
G01 X5.2774 Y20.7699
G01 X5.1990 Y20.8169
G01 X5.1917 Y20.8209
G01 X5.1090 Y20.8599
G01 X5.0230 Y20.8908
G01 X5.0150 Y20.8932
G01 X4.9263 Y20.9153
G01 X4.8359 Y20.9288
G01 X4.8276 Y20.9296
G01 X4.7363 Y20.9340
G01 X4.6450 Y20.9296
G01 X4.6367 Y20.9288
G01 X4.5463 Y20.9153
G01 X4.4535 Y20.8921
G01 X4.3635 Y20.8599
G01 X4.2771 Y20.8190
G01 X4.1951 Y20.7699
G01 X4.1184 Y20.7129
G01 X4.0476 Y20.6487
G01 X3.9834 Y20.5779
G01 X3.9264 Y20.5011
G01 X3.8773 Y20.4191
G01 X3.8364 Y20.3327
G01 X3.8042 Y20.2427
G01 X3.7810 Y20.1500
G01 X3.7670 Y20.0555
G01 X3.7623 Y19.9600
G01 X3.7670 Y19.8645
G01 X3.7810 Y19.7700
G01 X3.8042 Y19.6773
G01 X3.8364 Y19.5873
G01 X3.8773 Y19.5009
G01 X3.9264 Y19.4189
G01 X3.9834 Y19.3421
G01 X4.0476 Y19.2713
G01 X4.1184 Y19.2071
G01 X4.1951 Y19.1501
G01 X4.2771 Y19.1010
G01 X4.3635 Y19.0601
G01 X4.4535 Y19.0279
G01 X4.5463 Y19.0047
G01 X4.6408 Y18.9907
G01 X4.7363 Y18.9860
G01 X4.8317 Y18.9907
G01 X4.9263 Y19.0047
G01 X5.0111 Y19.0259
G00 Z1.0000
G00 X5.0111 Y23.4341
G01 F60.00
G01 Z-0.2706
G01 F120.00
G01 X4.9263 Y23.4553
G01 X4.8317 Y23.4693
G01 X4.7363 Y23.4740
G01 X4.6408 Y23.4693
G01 X4.5463 Y23.4553
G01 X4.4535 Y23.4321
G01 X4.3635 Y23.3999
G01 X4.2771 Y23.3590
G01 X4.1951 Y23.3099
G01 X4.1184 Y23.2529
G01 X4.0476 Y23.1887
G01 X3.9834 Y23.1179
G01 X3.9264 Y23.0411
G01 X3.8773 Y22.9591
G01 X3.8364 Y22.8727
G01 X3.8042 Y22.7827
G01 X3.7810 Y22.6900
G01 X3.7670 Y22.5955
G01 X3.7623 Y22.5000
G01 X3.7670 Y22.4045
G01 X3.7810 Y22.3100
G01 X3.8042 Y22.2173
G01 X3.8364 Y22.1273
G01 X3.8773 Y22.0409
G01 X3.9264 Y21.9589
G01 X3.9834 Y21.8821
G01 X4.0476 Y21.8113
G01 X4.1184 Y21.7471
G01 X4.1951 Y21.6901
G01 X4.2771 Y21.6410
G01 X4.3635 Y21.6001
G01 X4.4535 Y21.5679
G01 X4.5463 Y21.5447
G01 X4.6367 Y21.5312
G01 X4.6450 Y21.5304
G01 X4.7321 Y21.5261
G01 X4.7404 Y21.5261
G01 X4.8317 Y21.5307
G01 X4.9263 Y21.5447
G01 X5.0190 Y21.5679
G01 X5.1090 Y21.6001
G01 X5.1954 Y21.6410
G01 X5.2739 Y21.6879
G01 X5.2808 Y21.6926
G01 X5.3509 Y21.7445
G01 X5.3573 Y21.7498
G01 X5.4250 Y21.8113
G01 X5.4892 Y21.8821
G01 X5.5461 Y21.9589
G01 X5.5912 Y22.0338
G01 X11.3814 Y22.0338
G01 X11.4264 Y21.9589
G01 X11.4834 Y21.8821
G01 X11.5476 Y21.8113
G01 X11.6152 Y21.7498
G01 X11.6217 Y21.7445
G01 X11.6917 Y21.6926
G01 X11.6987 Y21.6879
G01 X11.7771 Y21.6410
G01 X11.8597 Y21.6018
G01 X11.8674 Y21.5986
G01 X11.9496 Y21.5692
G01 X11.9576 Y21.5668
G01 X12.0463 Y21.5447
G01 X12.1408 Y21.5307
G01 X12.2321 Y21.5261
G01 X12.2404 Y21.5261
G01 X12.3317 Y21.5307
G01 X12.4263 Y21.5447
G01 X12.5150 Y21.5668
G01 X12.5230 Y21.5692
G01 X12.6090 Y21.6001
G01 X12.6954 Y21.6410
G01 X12.7774 Y21.6901
G01 X12.8509 Y21.7445
G01 X12.8573 Y21.7498
G01 X12.9250 Y21.8113
G01 X12.9892 Y21.8821
G01 X13.0437 Y21.9555
G01 X13.0484 Y21.9624
G01 X13.0953 Y22.0409
G01 X13.1344 Y22.1235
G01 X13.1376 Y22.1312
G01 X13.1683 Y22.2173
G01 X13.1906 Y22.3059
G01 X13.1923 Y22.3141
G01 X13.2056 Y22.4045
G01 X13.2102 Y22.4958
G01 X13.2102 Y22.5042
G01 X13.2056 Y22.5955
G01 X13.1923 Y22.6859
G01 X13.1906 Y22.6941
G01 X13.1694 Y22.7787
G01 X13.1670 Y22.7867
G01 X13.1361 Y22.8727
G01 X13.0971 Y22.9554
G01 X13.0932 Y22.9628
G01 X13.0461 Y23.0411
G01 X12.9892 Y23.1179
G01 X12.9279 Y23.1857
G01 X12.9220 Y23.1916
G01 X12.8525 Y23.2542
G01 X12.7774 Y23.3099
G01 X12.6954 Y23.3590
G01 X12.6090 Y23.3999
G01 X12.5190 Y23.4321
G01 X12.4263 Y23.4553
G01 X12.3317 Y23.4693
G01 X12.2363 Y23.4740
G01 X12.1387 Y23.4691
G01 X12.0504 Y23.4560
G01 X12.0422 Y23.4544
G01 X11.9535 Y23.4321
G01 X11.8674 Y23.4014
G01 X11.8597 Y23.3982
G01 X11.7771 Y23.3590
G01 X11.6951 Y23.3099
G01 X11.6184 Y23.2529
G01 X11.5506 Y23.1916
G01 X11.5447 Y23.1857
G01 X11.4861 Y23.1211
G01 X11.4808 Y23.1146
G01 X11.4264 Y23.0411
G01 X11.3814 Y22.9662
G01 X10.5975 Y22.9662
G01 X10.5975 Y25.5969
G01 X11.5944 Y26.5938
G01 X19.1881 Y26.5938
G01 X19.2272 Y26.5509
G01 X19.2764 Y26.5062
G01 X19.2828 Y26.5009
G01 X19.3329 Y26.4637
G01 X19.3398 Y26.4591
G01 X19.3969 Y26.4250
G01 X19.4569 Y26.3965
G01 X19.4646 Y26.3933
G01 X19.5273 Y26.3710
G01 X19.5958 Y26.3538
G01 X19.6657 Y26.3435
G01 X19.7363 Y26.3400
G01 X19.8068 Y26.3435
G01 X19.8767 Y26.3538
G01 X19.9453 Y26.3710
G01 X20.0118 Y26.3948
G01 X20.0757 Y26.4250
G01 X20.1363 Y26.4613
G01 X20.1930 Y26.5034
G01 X20.2454 Y26.5509
G01 X20.2928 Y26.6032
G01 X20.3349 Y26.6600
G01 X20.3713 Y26.7206
G01 X20.3998 Y26.7807
G01 X20.4030 Y26.7884
G01 X20.4253 Y26.8510
G01 X20.4415 Y26.9155
G01 X20.4432 Y26.9236
G01 X20.4523 Y26.9853
G01 X20.4531 Y26.9936
G01 X20.4563 Y27.0600
G01 X20.4535 Y27.1180
G01 X21.8938 Y28.5584
G01 X21.9216 Y28.5893
G01 X21.9489 Y28.6260
G01 X21.9724 Y28.6652
G01 X21.9903 Y28.7028
G01 X21.9935 Y28.7105
G01 X22.0061 Y28.7457
G01 X22.0085 Y28.7537
G01 X22.0185 Y28.7941
G01 X22.0250 Y28.8372
G01 X22.0275 Y28.8850
G01 X22.0275 Y40.3045
G01 X22.5016 Y39.8304
G01 X22.5355 Y39.7996
G01 X22.5723 Y39.7724
G01 X22.6079 Y39.7509
G01 X22.6152 Y39.7470
G01 X22.6529 Y39.7293
G01 X22.6959 Y39.7139
G01 X22.7363 Y39.7037
G01 X22.7444 Y39.7021
G01 X22.7877 Y39.6959
G01 X22.8313 Y39.6938
G01 X30.2582 Y39.6938
G01 X31.3916 Y38.5604
G01 X31.4255 Y38.5296
G01 X31.4589 Y38.5048
G01 X31.4658 Y38.5001
G01 X31.5034 Y38.4779
G01 X31.5391 Y38.4610
G01 X31.5468 Y38.4578
G01 X31.5859 Y38.4439
G01 X31.6263 Y38.4337
G01 X31.6344 Y38.4321
G01 X31.6756 Y38.4261
G01 X31.7192 Y38.4238
G01 X33.0332 Y38.4238
G01 X33.2981 Y38.1589
G01 X33.3305 Y38.1296
G01 X33.3639 Y38.1048
G01 X33.3708 Y38.1001
G01 X33.4065 Y38.0789
G01 X33.4441 Y38.0610
G01 X33.4518 Y38.0578
G01 X33.4909 Y38.0439
G01 X33.5313 Y38.0337
G01 X33.5394 Y38.0321
G01 X33.5785 Y38.0263
G01 X33.6263 Y38.0238
G01 X42.0882 Y38.0238
G01 X43.9551 Y36.1569
G01 X43.9551 Y34.0031
G01 X42.5582 Y32.6062
G01 X35.5244 Y32.6062
G01 X35.4854 Y32.6491
G01 X35.4362 Y32.6938
G01 X35.4297 Y32.6991
G01 X35.3797 Y32.7363
G01 X35.3728 Y32.7409
G01 X35.3157 Y32.7750
G01 X35.2518 Y32.8052
G01 X35.1892 Y32.8277
G01 X35.1813 Y32.8301
G01 X35.1167 Y32.8462
G01 X35.0510 Y32.8560
G01 X35.0427 Y32.8568
G01 X34.9763 Y32.8600
G01 X34.9099 Y32.8568
G01 X34.9016 Y32.8560
G01 X34.8358 Y32.8462
G01 X34.7673 Y32.8290
G01 X34.7007 Y32.8052
G01 X34.6406 Y32.7769
G01 X34.6332 Y32.7729
G01 X34.5798 Y32.7409
G01 X34.5729 Y32.7363
G01 X34.5195 Y32.6966
G01 X34.4672 Y32.6491
G01 X34.4197 Y32.5968
G01 X34.3776 Y32.5400
G01 X34.3413 Y32.4794
G01 X34.3128 Y32.4193
G01 X34.3096 Y32.4116
G01 X34.2886 Y32.3530
G01 X34.2862 Y32.3450
G01 X34.2701 Y32.2805
G01 X34.2597 Y32.2106
G01 X34.2563 Y32.1400
G01 X34.2594 Y32.0736
G01 X34.2603 Y32.0653
G01 X34.2694 Y32.0036
G01 X34.2710 Y31.9955
G01 X34.2873 Y31.9310
G01 X34.3111 Y31.8645
G01 X34.3413 Y31.8006
G01 X34.3776 Y31.7400
G01 X34.4197 Y31.6832
G01 X34.4672 Y31.6309
G01 X34.5195 Y31.5834
G01 X34.5729 Y31.5437
G01 X34.5798 Y31.5391
G01 X34.6332 Y31.5071
G01 X34.6406 Y31.5031
G01 X34.7007 Y31.4748
G01 X34.7673 Y31.4510
G01 X34.8317 Y31.4347
G01 X34.8399 Y31.4331
G01 X34.9057 Y31.4235
G01 X34.9763 Y31.4200
G01 X35.0427 Y31.4232
G01 X35.0510 Y31.4240
G01 X35.1167 Y31.4338
G01 X35.1853 Y31.4510
G01 X35.2479 Y31.4733
G01 X35.2556 Y31.4765
G01 X35.3157 Y31.5050
G01 X35.3763 Y31.5413
G01 X35.4297 Y31.5809
G01 X35.4362 Y31.5862
G01 X35.4854 Y31.6309
G01 X35.5244 Y31.6738
G01 X42.7513 Y31.6738
G01 X42.7970 Y31.6761
G01 X42.8422 Y31.6828
G01 X42.8866 Y31.6939
G01 X42.9258 Y31.7078
G01 X42.9335 Y31.7110
G01 X42.9710 Y31.7289
G01 X43.0068 Y31.7501
G01 X43.0137 Y31.7548
G01 X43.0470 Y31.7796
G01 X43.0794 Y31.8089
G01 X44.7509 Y33.4804
G01 X44.7803 Y33.5127
G01 X44.8089 Y33.5510
G01 X44.8304 Y33.5866
G01 X44.8343 Y33.5940
G01 X44.8503 Y33.6278
G01 X44.8535 Y33.6355
G01 X44.8674 Y33.6747
G01 X44.8785 Y33.7191
G01 X44.8852 Y33.7643
G01 X44.8874 Y33.8079
G01 X44.8875 Y36.3500
G01 X44.8852 Y36.3957
G01 X44.8781 Y36.4430
G01 X44.8674 Y36.4853
G01 X44.8535 Y36.5245
G01 X44.8503 Y36.5322
G01 X44.8324 Y36.5698
G01 X44.8111 Y36.6055
G01 X44.8065 Y36.6124
G01 X44.7816 Y36.6457
G01 X44.7538 Y36.6766
G01 X43.8106 Y37.6200
G01 X44.7509 Y38.5604
G01 X44.7803 Y38.5927
G01 X44.8065 Y38.6276
G01 X44.8111 Y38.6345
G01 X44.8324 Y38.6702
G01 X44.8520 Y38.7116
G01 X44.8674 Y38.7547
G01 X44.8776 Y38.7950
G01 X44.8792 Y38.8032
G01 X44.8847 Y38.8402
G01 X44.8855 Y38.8485
G01 X44.8875 Y38.8900
G01 X44.8875 Y57.4200
G01 X44.8852 Y57.4657
G01 X44.8789 Y57.5089
G01 X44.8674 Y57.5553
G01 X44.8535 Y57.5945
G01 X44.8503 Y57.6022
G01 X44.8324 Y57.6398
G01 X44.8111 Y57.6755
G01 X44.8065 Y57.6824
G01 X44.7816 Y57.7157
G01 X44.7509 Y57.7496
G01 X44.7202 Y57.7776
G01 X44.7137 Y57.7829
G01 X44.6803 Y57.8076
G01 X44.6447 Y57.8291
G01 X44.6373 Y57.8330
G01 X44.6016 Y57.8499
G01 X44.5566 Y57.8661
G01 X44.5122 Y57.8772
G01 X44.4670 Y57.8839
G01 X44.4234 Y57.8862
G01 X43.5908 Y57.8862
G01 X43.5896 Y57.8938
G01 X43.5882 Y57.8999
G01 X43.5840 Y57.9116
G01 X43.5781 Y57.9227
G01 X43.5745 Y57.9278
G01 X43.5693 Y57.9343
G01 X43.2616 Y58.2421
G01 X43.2554 Y58.2477
G01 X43.2487 Y58.2527
G01 X43.2434 Y58.2560
G01 X43.2359 Y58.2597
G01 X43.2301 Y58.2620
G01 X43.2221 Y58.2645
G01 X43.2139 Y58.2661
G01 X43.2077 Y58.2668
G01 X41.2711 Y58.2670
G01 X41.2607 Y58.2664
G01 X41.2484 Y58.2639
G01 X41.2366 Y58.2597
G01 X41.2256 Y58.2538
G01 X41.2188 Y58.2490
G01 X41.2140 Y58.2450
G01 X40.9062 Y57.9373
G01 X40.9019 Y57.9327
G01 X40.8968 Y57.9261
G01 X40.8923 Y57.9191
G01 X40.8894 Y57.9135
G01 X40.8862 Y57.9058
G01 X40.8844 Y57.8999
G01 X40.8829 Y57.8938
G01 X40.8818 Y57.8862
G01 X39.8075 Y57.8862
G01 X39.8075 Y63.5505
G01 X49.3082 Y63.5505
G01 X50.3051 Y62.5536
G01 X50.3051 Y27.0181
G01 X48.7132 Y25.4262
G01 X43.5908 Y25.4262
G01 X43.5896 Y25.4338
G01 X43.5882 Y25.4399
G01 X43.5863 Y25.4458
G01 X43.5831 Y25.4535
G01 X43.5792 Y25.4609
G01 X43.5758 Y25.4661
G01 X43.5706 Y25.4727
G01 X43.5664 Y25.4773
G01 X43.2601 Y25.7836
G01 X43.2504 Y25.7915
G01 X43.2397 Y25.7979
G01 X43.2281 Y25.8027
G01 X43.2160 Y25.8057
G01 X43.2098 Y25.8066
G01 X43.2015 Y25.8070
G01 X41.2711 Y25.8070
G01 X41.2627 Y25.8066
G01 X41.2545 Y25.8054
G01 X41.2464 Y25.8033
G01 X41.2385 Y25.8005
G01 X41.2310 Y25.7970
G01 X41.2239 Y25.7927
G01 X41.2172 Y25.7877
G01 X41.2110 Y25.7821
G01 X40.9033 Y25.4743
G01 X40.8980 Y25.4678
G01 X40.8934 Y25.4609
G01 X40.8904 Y25.4554
G01 X40.8870 Y25.4478
G01 X40.8844 Y25.4399
G01 X40.8829 Y25.4338
G01 X40.8817 Y25.4255
G01 X40.8813 Y25.4193
G01 X40.8813 Y24.5028
G01 X40.8822 Y24.4903
G01 X40.8849 Y24.4781
G01 X40.8886 Y24.4684
G01 X40.8934 Y24.4591
G01 X40.8980 Y24.4522
G01 X40.9047 Y24.4442
G01 X41.2125 Y24.1364
G01 X41.2172 Y24.1323
G01 X41.2239 Y24.1273
G01 X41.2347 Y24.1212
G01 X41.2405 Y24.1187
G01 X41.2484 Y24.1161
G01 X41.2565 Y24.1143
G01 X41.2627 Y24.1134
G01 X41.2711 Y24.1130
G01 X43.2015 Y24.1130
G01 X43.2077 Y24.1132
G01 X43.2160 Y24.1143
G01 X43.2281 Y24.1173
G01 X43.2397 Y24.1221
G01 X43.2504 Y24.1285
G01 X43.2601 Y24.1364
G01 X43.5664 Y24.4427
G01 X43.5720 Y24.4489
G01 X43.5758 Y24.4539
G01 X43.5792 Y24.4591
G01 X43.5831 Y24.4665
G01 X43.5863 Y24.4742
G01 X43.5882 Y24.4801
G01 X43.5896 Y24.4862
G01 X43.5908 Y24.4938
G01 X48.9084 Y24.4938
G01 X48.9520 Y24.4961
G01 X48.9972 Y24.5028
G01 X49.0416 Y24.5139
G01 X49.0808 Y24.5278
G01 X49.0885 Y24.5310
G01 X49.1223 Y24.5470
G01 X49.1297 Y24.5509
G01 X49.1653 Y24.5724
G01 X49.2036 Y24.6010
G01 X49.2359 Y24.6304
G01 X51.1024 Y26.4968
G01 X51.1316 Y26.5293
G01 X51.1589 Y26.5660
G01 X51.1824 Y26.6052
G01 X51.2003 Y26.6428
G01 X51.2035 Y26.6505
G01 X51.2161 Y26.6857
G01 X51.2185 Y26.6937
G01 X51.2285 Y26.7341
G01 X51.2347 Y26.7752
G01 X51.2355 Y26.7835
G01 X51.2375 Y26.8250
G01 X51.2375 Y62.7467
G01 X51.2352 Y62.7924
G01 X51.2285 Y62.8376
G01 X51.2174 Y62.8820
G01 X51.2035 Y62.9212
G01 X51.2003 Y62.9289
G01 X51.1843 Y62.9627
G01 X51.1804 Y62.9701
G01 X51.1589 Y63.0057
G01 X51.1303 Y63.0440
G01 X51.1009 Y63.0763
G01 X49.8279 Y64.3492
G01 X49.7970 Y64.3771
G01 X49.7603 Y64.4043
G01 X49.7210 Y64.4278
G01 X49.6835 Y64.4457
G01 X49.6758 Y64.4489
G01 X49.6406 Y64.4615
G01 X49.6326 Y64.4639
G01 X49.5922 Y64.4739
G01 X49.5470 Y64.4806
G01 X49.5013 Y64.4829
G01 X39.3392 Y64.4829
G01 X39.2956 Y64.4806
G01 X39.2544 Y64.4746
G01 X39.2463 Y64.4730
G01 X39.2059 Y64.4628
G01 X39.1629 Y64.4474
G01 X39.1252 Y64.4297
G01 X39.1179 Y64.4258
G01 X39.0858 Y64.4066
G01 X39.0789 Y64.4019
G01 X39.0455 Y64.3771
G01 X39.0116 Y64.3463
G01 X38.9809 Y64.3124
G01 X38.9561 Y64.2791
G01 X38.9514 Y64.2722
G01 X38.9322 Y64.2401
G01 X38.9283 Y64.2327
G01 X38.9106 Y64.1951
G01 X38.8958 Y64.1540
G01 X38.8850 Y64.1117
G01 X38.8833 Y64.1035
G01 X38.8773 Y64.0624
G01 X38.8751 Y64.0167
G01 X38.8751 Y57.4200
G01 X38.8770 Y57.3785
G01 X38.8778 Y57.3702
G01 X38.8840 Y57.3291
G01 X38.8952 Y57.2847
G01 X38.9106 Y57.2416
G01 X38.9283 Y57.2040
G01 X38.9322 Y57.1966
G01 X38.9548 Y57.1593
G01 X38.9809 Y57.1243
G01 X39.0088 Y57.0934
G01 X39.0146 Y57.0875
G01 X39.0424 Y57.0624
G01 X39.0488 Y57.0571
G01 X39.0823 Y57.0324
G01 X39.1179 Y57.0109
G01 X39.1252 Y57.0070
G01 X39.1629 Y56.9893
G01 X39.2059 Y56.9739
G01 X39.2503 Y56.9628
G01 X39.2956 Y56.9561
G01 X39.3413 Y56.9538
G01 X40.8818 Y56.9538
G01 X40.8829 Y56.9462
G01 X40.8844 Y56.9401
G01 X40.8886 Y56.9284
G01 X40.8945 Y56.9173
G01 X40.8980 Y56.9122
G01 X40.9033 Y56.9057
G01 X41.2110 Y56.5979
G01 X41.2172 Y56.5923
G01 X41.2239 Y56.5873
G01 X41.2292 Y56.5840
G01 X41.2366 Y56.5803
G01 X41.2444 Y56.5773
G01 X41.2525 Y56.5751
G01 X41.2607 Y56.5736
G01 X41.2669 Y56.5731
G01 X43.2015 Y56.5730
G01 X43.2139 Y56.5739
G01 X43.2261 Y56.5767
G01 X43.2340 Y56.5795
G01 X43.2397 Y56.5821
G01 X43.2504 Y56.5885
G01 X43.2601 Y56.5964
G01 X43.5664 Y56.9027
G01 X43.5720 Y56.9089
G01 X43.5758 Y56.9139
G01 X43.5802 Y56.9209
G01 X43.5831 Y56.9265
G01 X43.5863 Y56.9342
G01 X43.5882 Y56.9401
G01 X43.5896 Y56.9462
G01 X43.5908 Y56.9538
G01 X43.9551 Y56.9538
G01 X43.9551 Y39.0831
G01 X43.1513 Y38.2793
G01 X42.6109 Y38.8196
G01 X42.5770 Y38.8504
G01 X42.5403 Y38.8776
G01 X42.5047 Y38.8991
G01 X42.4973 Y38.9030
G01 X42.4597 Y38.9207
G01 X42.4166 Y38.9361
G01 X42.3763 Y38.9463
G01 X42.3681 Y38.9479
G01 X42.3249 Y38.9541
G01 X42.2813 Y38.9562
G01 X33.8194 Y38.9562
G01 X33.5559 Y39.2196
G01 X33.5204 Y39.2517
G01 X33.4887 Y39.2752
G01 X33.4818 Y39.2799
G01 X33.4460 Y39.3011
G01 X33.4085 Y39.3190
G01 X33.4008 Y39.3222
G01 X33.3616 Y39.3361
G01 X33.3172 Y39.3472
G01 X33.2720 Y39.3539
G01 X33.2263 Y39.3562
G01 X31.9144 Y39.3562
G01 X30.7809 Y40.4896
G01 X30.7502 Y40.5176
G01 X30.7437 Y40.5229
G01 X30.7137 Y40.5452
G01 X30.7068 Y40.5499
G01 X30.6710 Y40.5711
G01 X30.6297 Y40.5907
G01 X30.5906 Y40.6048
G01 X30.5826 Y40.6072
G01 X30.5422 Y40.6172
G01 X30.4990 Y40.6237
G01 X30.4513 Y40.6262
G01 X23.0244 Y40.6262
G01 X22.8225 Y40.8281
G01 X22.8225 Y61.6451
G01 X22.8974 Y61.6901
G01 X22.9709 Y61.7445
G01 X22.9773 Y61.7498
G01 X23.0450 Y61.8113
G01 X23.1065 Y61.8789
G01 X23.1118 Y61.8854
G01 X23.1661 Y61.9589
G01 X23.2132 Y62.0372
G01 X23.2171 Y62.0446
G01 X23.2561 Y62.1273
G01 X23.2870 Y62.2133
G01 X23.2894 Y62.2213
G01 X23.3116 Y62.3100
G01 X23.3251 Y62.4004
G01 X23.3259 Y62.4087
G01 X23.3302 Y62.4958
G01 X23.3302 Y62.5042
G01 X23.3256 Y62.5955
G01 X23.3123 Y62.6859
G01 X23.3106 Y62.6941
G01 X23.2883 Y62.7827
G01 X23.2576 Y62.8688
G01 X23.2544 Y62.8765
G01 X23.2153 Y62.9591
G01 X23.1661 Y63.0411
G01 X23.1092 Y63.1179
G01 X23.0479 Y63.1857
G01 X23.0420 Y63.1916
G01 X22.9742 Y63.2529
G01 X22.9008 Y63.3074
G01 X22.8939 Y63.3121
G01 X22.8154 Y63.3590
G01 X22.7328 Y63.3982
G01 X22.7251 Y63.4014
G01 X22.6430 Y63.4308
G01 X22.6350 Y63.4332
G01 X22.5463 Y63.4553
G01 X22.4559 Y63.4688
G01 X22.4476 Y63.4696
G01 X22.3563 Y63.4740
G01 X22.2650 Y63.4696
G01 X22.2567 Y63.4688
G01 X22.1663 Y63.4553
G01 X22.0776 Y63.4332
G01 X22.0696 Y63.4308
G01 X21.9835 Y63.3999
G01 X21.8971 Y63.3590
G01 X21.8187 Y63.3121
G01 X21.8117 Y63.3074
G01 X21.7417 Y63.2555
G01 X21.7352 Y63.2502
G01 X21.6706 Y63.1916
G01 X21.6647 Y63.1857
G01 X21.6034 Y63.1179
G01 X21.5488 Y63.0445
G01 X21.5442 Y63.0376
G01 X21.4973 Y62.9591
G01 X21.4581 Y62.8765
G01 X21.4549 Y62.8688
G01 X21.4242 Y62.7827
G01 X21.4010 Y62.6900
G01 X21.3870 Y62.5955
G01 X21.3823 Y62.5000
G01 X21.3867 Y62.4087
G01 X21.3875 Y62.4004
G01 X21.4010 Y62.3100
G01 X21.4231 Y62.2213
G01 X21.4255 Y62.2133
G01 X21.4564 Y62.1273
G01 X21.4954 Y62.0446
G01 X21.4993 Y62.0372
G01 X21.5464 Y61.9589
G01 X21.6008 Y61.8854
G01 X21.6061 Y61.8789
G01 X21.6676 Y61.8113
G01 X21.7352 Y61.7498
G01 X21.7417 Y61.7445
G01 X21.8151 Y61.6901
G01 X21.8901 Y61.6451
G01 X21.8901 Y41.6231
G01 X21.2316 Y40.9646
G01 X21.2009 Y40.9307
G01 X21.1737 Y40.8940
G01 X21.1522 Y40.8584
G01 X21.1483 Y40.8510
G01 X21.1306 Y40.8134
G01 X21.1152 Y40.7703
G01 X21.1050 Y40.7300
G01 X21.1033 Y40.7218
G01 X21.0972 Y40.6786
G01 X21.0951 Y40.6350
G01 X21.0951 Y29.0781
G01 X19.7942 Y27.7773
G01 X19.7363 Y27.7800
G01 X19.6699 Y27.7768
G01 X19.6616 Y27.7760
G01 X19.5999 Y27.7669
G01 X19.5917 Y27.7653
G01 X19.5273 Y27.7490
G01 X19.4607 Y27.7252
G01 X19.3969 Y27.6950
G01 X19.3398 Y27.6609
G01 X19.3329 Y27.6563
G01 X19.2828 Y27.6191
G01 X19.2764 Y27.6138
G01 X19.2272 Y27.5691
G01 X19.1881 Y27.5262
G01 X11.4013 Y27.5262
G01 X11.3556 Y27.5239
G01 X11.3103 Y27.5172
G01 X11.2659 Y27.5061
G01 X11.2229 Y27.4907
G01 X11.1815 Y27.4711
G01 X11.1423 Y27.4476
G01 X11.1055 Y27.4204
G01 X11.0731 Y27.3911
G01 X9.8016 Y26.1196
G01 X9.7709 Y26.0857
G01 X9.7461 Y26.0524
G01 X9.7414 Y26.0455
G01 X9.7222 Y26.0134
G01 X9.7183 Y26.0060
G01 X9.7006 Y25.9684
G01 X9.6865 Y25.9293
G01 X9.6840 Y25.9213
G01 X9.6750 Y25.8850
G01 X9.6733 Y25.8768
G01 X9.6673 Y25.8357
G01 X9.6651 Y25.7900
G01 X9.6651 Y22.9662
G01 X5.8618 Y22.9662
G01 X7.6059 Y24.7104
G01 X7.6366 Y24.7443
G01 X7.6615 Y24.7776
G01 X7.6661 Y24.7845
G01 X7.6874 Y24.8202
G01 X7.7070 Y24.8616
G01 X7.7211 Y24.9007
G01 X7.7235 Y24.9087
G01 X7.7335 Y24.9491
G01 X7.7397 Y24.9902
G01 X7.7405 Y24.9985
G01 X7.7424 Y25.0379
G01 X7.7425 Y26.3990
G01 X8.2964 Y26.3991
G01 X8.3047 Y26.3999
G01 X8.3129 Y26.4015
G01 X8.3209 Y26.4040
G01 X8.3267 Y26.4063
G01 X8.3342 Y26.4100
G01 X8.3412 Y26.4145
G01 X8.3478 Y26.4196
G01 X8.3524 Y26.4239
G01 X8.3566 Y26.4285
G01 X8.3618 Y26.4351
G01 X8.3662 Y26.4421
G01 X8.3700 Y26.4496
G01 X8.3730 Y26.4573
G01 X8.3747 Y26.4633
G01 X8.3764 Y26.4715
G01 X8.3772 Y26.4798
G01 X8.3773 Y27.0338
G01 X9.4984 Y27.0338
G01 X9.5420 Y27.0361
G01 X9.5831 Y27.0421
G01 X9.5913 Y27.0437
G01 X9.6296 Y27.0533
G01 X9.6708 Y27.0678
G01 X9.6785 Y27.0710
G01 X9.7160 Y27.0889
G01 X9.7553 Y27.1124
G01 X9.7920 Y27.1396
G01 X9.8229 Y27.1675
G01 X9.8288 Y27.1734
G01 X9.8566 Y27.2043
G01 X9.8815 Y27.2376
G01 X9.8861 Y27.2445
G01 X9.9074 Y27.2802
G01 X9.9270 Y27.3216
G01 X9.9424 Y27.3647
G01 X9.9526 Y27.4050
G01 X9.9542 Y27.4132
G01 X9.9604 Y27.4564
G01 X9.9625 Y27.5000
G01 X9.9625 Y30.2400
G01 X9.9602 Y30.2857
G01 X9.9542 Y30.3268
G01 X9.9526 Y30.3350
G01 X9.9435 Y30.3713
G01 X9.9411 Y30.3793
G01 X9.9285 Y30.4145
G01 X9.9253 Y30.4222
G01 X9.9074 Y30.4598
G01 X9.8861 Y30.4955
G01 X9.8815 Y30.5024
G01 X9.8566 Y30.5357
G01 X9.8274 Y30.5682
G01 X8.3618 Y32.0338
G01 X9.4984 Y32.0338
G01 X9.5378 Y32.0357
G01 X9.5461 Y32.0366
G01 X9.5872 Y32.0428
G01 X9.6276 Y32.0528
G01 X9.6356 Y32.0552
G01 X9.6708 Y32.0678
G01 X9.6785 Y32.0710
G01 X9.7160 Y32.0889
G01 X9.7553 Y32.1124
G01 X9.7920 Y32.1396
G01 X9.8229 Y32.1675
G01 X9.8288 Y32.1734
G01 X9.8566 Y32.2043
G01 X9.8839 Y32.2410
G01 X9.9054 Y32.2766
G01 X9.9093 Y32.2840
G01 X9.9270 Y32.3216
G01 X9.9411 Y32.3607
G01 X9.9435 Y32.3687
G01 X9.9535 Y32.4091
G01 X9.9602 Y32.4543
G01 X9.9625 Y32.5000
G01 X9.9625 Y34.6850
G01 X9.9605 Y34.7265
G01 X9.9597 Y34.7348
G01 X9.9535 Y34.7759
G01 X9.9435 Y34.8163
G01 X9.9411 Y34.8243
G01 X9.9270 Y34.8634
G01 X9.9093 Y34.9010
G01 X9.9054 Y34.9084
G01 X9.8839 Y34.9440
G01 X9.8592 Y34.9775
G01 X9.8539 Y34.9839
G01 X9.8288 Y35.0116
G01 X8.9325 Y35.9081
G01 X8.9325 Y36.4851
G01 X9.0074 Y36.5301
G01 X9.0842 Y36.5871
G01 X9.1550 Y36.6513
G01 X9.2165 Y36.7189
G01 X9.2218 Y36.7254
G01 X9.2737 Y36.7955
G01 X9.2784 Y36.8024
G01 X9.3253 Y36.8809
G01 X9.3661 Y36.9673
G01 X9.3983 Y37.0573
G01 X9.4206 Y37.1459
G01 X9.4223 Y37.1541
G01 X9.4351 Y37.2404
G01 X9.4359 Y37.2487
G01 X9.4403 Y37.3400
G01 X9.4356 Y37.4355
G01 X9.4216 Y37.5300
G01 X9.4004 Y37.6148
G01 X10.4609 Y38.6754
G01 X10.4889 Y38.7061
G01 X10.4942 Y38.7125
G01 X10.5165 Y38.7426
G01 X10.5211 Y38.7495
G01 X10.5424 Y38.7852
G01 X10.5620 Y38.8266
G01 X10.5774 Y38.8697
G01 X10.5876 Y38.9100
G01 X10.5892 Y38.9182
G01 X10.5952 Y38.9593
G01 X10.5975 Y39.0050
G01 X10.5974 Y50.3221
G01 X10.5952 Y50.3657
G01 X10.5892 Y50.4068
G01 X10.5876 Y50.4150
G01 X10.5774 Y50.4553
G01 X10.5635 Y50.4945
G01 X10.5603 Y50.5022
G01 X10.5424 Y50.5398
G01 X10.5200 Y50.5773
G01 X10.4916 Y50.6157
G01 X10.4624 Y50.6482
G01 X10.2425 Y50.8681
G01 X10.2425 Y53.8990
G01 X10.7923 Y53.8990
G01 X10.8006 Y53.8994
G01 X10.8129 Y53.9015
G01 X10.8248 Y53.9055
G01 X10.8360 Y53.9111
G01 X10.8462 Y53.9183
G01 X10.8553 Y53.9269
G01 X10.8629 Y53.9368
G01 X10.8691 Y53.9477
G01 X10.8736 Y53.9593
G01 X10.8764 Y53.9715
G01 X10.8773 Y53.9840
G01 X10.8772 Y56.0202
G01 X10.8764 Y56.0285
G01 X10.8747 Y56.0367
G01 X10.8730 Y56.0427
G01 X10.8700 Y56.0504
G01 X10.8662 Y56.0579
G01 X10.8618 Y56.0649
G01 X10.8566 Y56.0715
G01 X10.8524 Y56.0761
G01 X10.8478 Y56.0804
G01 X10.8412 Y56.0855
G01 X10.8342 Y56.0900
G01 X10.8267 Y56.0937
G01 X10.8189 Y56.0967
G01 X10.8109 Y56.0989
G01 X10.8027 Y56.1004
G01 X10.7944 Y56.1010
G01 X8.7603 Y56.1010
G01 X8.7519 Y56.1006
G01 X8.7457 Y56.0997
G01 X8.7396 Y56.0985
G01 X8.7316 Y56.0960
G01 X8.7258 Y56.0937
G01 X8.7184 Y56.0900
G01 X8.7113 Y56.0855
G01 X8.7048 Y56.0804
G01 X8.6987 Y56.0746
G01 X8.6933 Y56.0683
G01 X8.6885 Y56.0615
G01 X8.6834 Y56.0523
G01 X8.6802 Y56.0446
G01 X8.6778 Y56.0367
G01 X8.6759 Y56.0264
G01 X8.6753 Y56.0181
G01 X8.6753 Y53.9840
G01 X8.6755 Y53.9777
G01 X8.6765 Y53.9695
G01 X8.6778 Y53.9633
G01 X8.6802 Y53.9554
G01 X8.6853 Y53.9439
G01 X8.6920 Y53.9334
G01 X8.6973 Y53.9269
G01 X8.7017 Y53.9224
G01 X8.7080 Y53.9170
G01 X8.7131 Y53.9133
G01 X8.7239 Y53.9072
G01 X8.7316 Y53.9040
G01 X8.7376 Y53.9021
G01 X8.7499 Y53.8996
G01 X8.7603 Y53.8990
G01 X9.3101 Y53.8990
G01 X9.3101 Y50.6750
G01 X9.3123 Y50.6293
G01 X9.3183 Y50.5882
G01 X9.3200 Y50.5800
G01 X9.3302 Y50.5397
G01 X9.3441 Y50.5005
G01 X9.3473 Y50.4928
G01 X9.3651 Y50.4552
G01 X9.3898 Y50.4143
G01 X9.4159 Y50.3793
G01 X9.4452 Y50.3468
G01 X9.6651 Y50.1269
G01 X9.6651 Y39.1981
G01 X8.7411 Y38.2741
G01 X8.6563 Y38.2953
G01 X8.5659 Y38.3088
G01 X8.5576 Y38.3096
G01 X8.4704 Y38.3139
G01 X8.4621 Y38.3139
G01 X8.3708 Y38.3093
G01 X8.2763 Y38.2953
G01 X8.1876 Y38.2732
G01 X8.1796 Y38.2708
G01 X8.0935 Y38.2399
G01 X8.0109 Y38.2009
G01 X8.0035 Y38.1969
G01 X7.9251 Y38.1499
G01 X7.8468 Y38.0916
G01 X7.7776 Y38.0287
G01 X7.7161 Y37.9611
G01 X7.7108 Y37.9546
G01 X7.6564 Y37.8811
G01 X7.6093 Y37.8028
G01 X7.6054 Y37.7954
G01 X7.5681 Y37.7165
G01 X7.5649 Y37.7088
G01 X7.5342 Y37.6227
G01 X7.5110 Y37.5300
G01 X7.4970 Y37.4355
G01 X7.4923 Y37.3379
G01 X7.4967 Y37.2487
G01 X7.4975 Y37.2404
G01 X7.5110 Y37.1500
G01 X7.5331 Y37.0613
G01 X7.5355 Y37.0533
G01 X7.5664 Y36.9673
G01 X7.6054 Y36.8846
G01 X7.6093 Y36.8772
G01 X7.6564 Y36.7989
G01 X7.7108 Y36.7254
G01 X7.7161 Y36.7189
G01 X7.7776 Y36.6513
G01 X7.8452 Y36.5898
G01 X7.8517 Y36.5845
G01 X7.9251 Y36.5301
G01 X8.0001 Y36.4851
G01 X8.0001 Y35.7150
G01 X8.0020 Y35.6735
G01 X8.0028 Y35.6652
G01 X8.0090 Y35.6241
G01 X8.0202 Y35.5797
G01 X8.0356 Y35.5366
G01 X8.0551 Y35.4952
G01 X8.0764 Y35.4595
G01 X8.0811 Y35.4526
G01 X8.1059 Y35.4193
G01 X8.1352 Y35.3868
G01 X9.0301 Y34.4919
G01 X9.0301 Y32.9662
G01 X8.3373 Y32.9662
G01 X8.3373 Y33.5160
G01 X8.3369 Y33.5243
G01 X8.3347 Y33.5367
G01 X8.3330 Y33.5427
G01 X8.3300 Y33.5504
G01 X8.3241 Y33.5615
G01 X8.3166 Y33.5715
G01 X8.3109 Y33.5776
G01 X8.3062 Y33.5817
G01 X8.2960 Y33.5889
G01 X8.2848 Y33.5945
G01 X8.2769 Y33.5973
G01 X8.2709 Y33.5989
G01 X8.2627 Y33.6004
G01 X8.2523 Y33.6010
G01 X6.2203 Y33.6010
G01 X6.2099 Y33.6004
G01 X6.1996 Y33.5985
G01 X6.1916 Y33.5960
G01 X6.1821 Y33.5919
G01 X6.1731 Y33.5867
G01 X6.1632 Y33.5790
G01 X6.1559 Y33.5715
G01 X6.1485 Y33.5615
G01 X6.1426 Y33.5504
G01 X6.1389 Y33.5407
G01 X6.1362 Y33.5285
G01 X6.1353 Y33.5181
G01 X6.1353 Y31.4840
G01 X6.1357 Y31.4757
G01 X6.1369 Y31.4674
G01 X6.1389 Y31.4593
G01 X6.1410 Y31.4534
G01 X6.1444 Y31.4458
G01 X6.1485 Y31.4385
G01 X6.1533 Y31.4317
G01 X6.1587 Y31.4254
G01 X6.1648 Y31.4196
G01 X6.1713 Y31.4145
G01 X6.1784 Y31.4100
G01 X6.1858 Y31.4063
G01 X6.1936 Y31.4033
G01 X6.2017 Y31.4011
G01 X6.2078 Y31.3999
G01 X6.2161 Y31.3991
G01 X7.6780 Y31.3990
G01 X9.0301 Y30.0469
G01 X9.0301 Y27.9662
G01 X8.3773 Y27.9662
G01 X8.3773 Y28.5160
G01 X8.3769 Y28.5243
G01 X8.3756 Y28.5326
G01 X8.3742 Y28.5387
G01 X8.3700 Y28.5504
G01 X8.3641 Y28.5615
G01 X8.3566 Y28.5715
G01 X8.3524 Y28.5761
G01 X8.3462 Y28.5817
G01 X8.3360 Y28.5889
G01 X8.3286 Y28.5928
G01 X8.3229 Y28.5953
G01 X8.3109 Y28.5989
G01 X8.3006 Y28.6006
G01 X8.2923 Y28.6010
G01 X6.2603 Y28.6010
G01 X6.2499 Y28.6004
G01 X6.2417 Y28.5989
G01 X6.2336 Y28.5967
G01 X6.2258 Y28.5937
G01 X6.2184 Y28.5900
G01 X6.2113 Y28.5855
G01 X6.2032 Y28.5790
G01 X6.1973 Y28.5731
G01 X6.1920 Y28.5666
G01 X6.1885 Y28.5615
G01 X6.1844 Y28.5542
G01 X6.1810 Y28.5466
G01 X6.1784 Y28.5387
G01 X6.1769 Y28.5326
G01 X6.1757 Y28.5243
G01 X6.1753 Y28.5160
G01 X6.1753 Y26.4840
G01 X6.1755 Y26.4777
G01 X6.1765 Y26.4695
G01 X6.1796 Y26.4573
G01 X6.1826 Y26.4496
G01 X6.1853 Y26.4439
G01 X6.1896 Y26.4368
G01 X6.1933 Y26.4317
G01 X6.2017 Y26.4224
G01 X6.2064 Y26.4183
G01 X6.2131 Y26.4133
G01 X6.2239 Y26.4072
G01 X6.2316 Y26.4040
G01 X6.2376 Y26.4021
G01 X6.2499 Y26.3996
G01 X6.2603 Y26.3990
G01 X6.8101 Y26.3990
G01 X6.8101 Y25.2331
G01 X5.0111 Y23.4341
G00 Z1.0000
G00 X11.7701 Y19.1051
G01 F60.00
G01 Z-0.2706
G01 F120.00
G01 X11.7701 Y13.4961
G01 X11.7154 Y13.4700
G01 X11.6229 Y13.4143
G01 X11.5378 Y13.3511
G01 X11.4592 Y13.2800
G01 X11.3879 Y13.2016
G01 X11.3826 Y13.1952
G01 X11.3208 Y13.1117
G01 X11.2663 Y13.0208
G01 X11.2208 Y12.9251
G01 X11.2176 Y12.9174
G01 X11.1827 Y12.8196
G01 X11.1564 Y12.7148
G01 X11.1411 Y12.6121
G01 X11.1403 Y12.6038
G01 X11.1353 Y12.5000
G01 X11.1404 Y12.3942
G01 X11.1564 Y12.2852
G01 X11.1827 Y12.1804
G01 X11.2191 Y12.0787
G01 X11.2653 Y11.9810
G01 X11.3208 Y11.8883
G01 X11.3852 Y11.8015
G01 X11.4578 Y11.7215
G01 X11.5378 Y11.6489
G01 X11.6246 Y11.5846
G01 X11.7173 Y11.5290
G01 X11.8149 Y11.4828
G01 X11.9167 Y11.4464
G01 X12.0215 Y11.4202
G01 X12.1284 Y11.4043
G01 X12.2363 Y11.3990
G01 X12.3421 Y11.4041
G01 X12.4511 Y11.4202
G01 X12.5559 Y11.4464
G01 X12.6576 Y11.4828
G01 X12.7516 Y11.5271
G01 X12.7589 Y11.5311
G01 X12.8480 Y11.5846
G01 X12.9315 Y11.6463
G01 X12.9379 Y11.6516
G01 X13.0118 Y11.7186
G01 X13.0177 Y11.7245
G01 X13.0874 Y11.8015
G01 X13.1517 Y11.8883
G01 X13.2073 Y11.9810
G01 X13.2535 Y12.0787
G01 X13.2899 Y12.1804
G01 X13.3161 Y12.2852
G01 X13.3320 Y12.3921
G01 X13.3372 Y12.4958
G01 X13.3372 Y12.5042
G01 X13.3323 Y12.6038
G01 X13.3315 Y12.6121
G01 X13.3161 Y12.7148
G01 X13.2899 Y12.8196
G01 X13.2550 Y12.9174
G01 X13.2518 Y12.9251
G01 X13.2073 Y13.0190
G01 X13.1529 Y13.1099
G01 X13.0899 Y13.1952
G01 X13.0846 Y13.2016
G01 X13.0148 Y13.2785
G01 X12.9363 Y13.3497
G01 X12.8462 Y13.4166
G01 X12.7571 Y13.4700
G01 X12.7025 Y13.4961
G01 X12.7025 Y19.1051
G01 X12.7774 Y19.1501
G01 X12.8542 Y19.2071
G01 X12.9250 Y19.2713
G01 X12.9865 Y19.3389
G01 X12.9918 Y19.3454
G01 X13.0437 Y19.4155
G01 X13.0484 Y19.4224
G01 X13.0953 Y19.5009
G01 X13.1361 Y19.5873
G01 X13.1683 Y19.6773
G01 X13.1906 Y19.7659
G01 X13.1923 Y19.7741
G01 X13.2051 Y19.8604
G01 X13.2059 Y19.8687
G01 X13.2103 Y19.9600
G01 X13.2056 Y20.0555
G01 X13.1916 Y20.1500
G01 X13.1704 Y20.2348
G01 X14.2724 Y21.3368
G01 X14.3016 Y21.3693
G01 X14.3289 Y21.4060
G01 X14.3524 Y21.4452
G01 X14.3703 Y21.4828
G01 X14.3735 Y21.4905
G01 X14.3874 Y21.5297
G01 X14.3985 Y21.5741
G01 X14.4052 Y21.6193
G01 X14.4074 Y21.6629
G01 X14.4075 Y22.8219
G01 X15.6394 Y24.0538
G01 X19.1881 Y24.0538
G01 X19.2272 Y24.0109
G01 X19.2764 Y23.9662
G01 X19.2828 Y23.9609
G01 X19.3363 Y23.9213
G01 X19.3969 Y23.8850
G01 X19.4569 Y23.8565
G01 X19.4646 Y23.8533
G01 X19.5273 Y23.8310
G01 X19.5958 Y23.8138
G01 X19.6616 Y23.8040
G01 X19.6699 Y23.8032
G01 X19.7363 Y23.8000
G01 X19.8068 Y23.8035
G01 X19.8726 Y23.8131
G01 X19.8808 Y23.8147
G01 X19.9413 Y23.8299
G01 X19.9492 Y23.8323
G01 X20.0079 Y23.8533
G01 X20.0156 Y23.8565
G01 X20.0757 Y23.8850
G01 X20.1328 Y23.9191
G01 X20.1397 Y23.9237
G01 X20.1930 Y23.9634
G01 X20.2454 Y24.0109
G01 X20.2928 Y24.0632
G01 X20.3325 Y24.1166
G01 X20.3372 Y24.1235
G01 X20.3713 Y24.1806
G01 X20.3998 Y24.2407
G01 X20.4030 Y24.2484
G01 X20.4240 Y24.3070
G01 X20.4264 Y24.3150
G01 X20.4424 Y24.3795
G01 X20.4528 Y24.4494
G01 X20.4563 Y24.5200
G01 X20.4531 Y24.5864
G01 X20.4523 Y24.5947
G01 X20.4424 Y24.6605
G01 X20.4264 Y24.7250
G01 X20.4240 Y24.7330
G01 X20.4030 Y24.7916
G01 X20.3998 Y24.7993
G01 X20.3713 Y24.8594
G01 X20.3349 Y24.9200
G01 X20.2954 Y24.9735
G01 X20.2901 Y24.9799
G01 X20.2454 Y25.0291
G01 X20.1962 Y25.0738
G01 X20.1897 Y25.0791
G01 X20.1363 Y25.1187
G01 X20.0757 Y25.1550
G01 X20.0118 Y25.1852
G01 X19.9492 Y25.2077
G01 X19.9413 Y25.2101
G01 X19.8767 Y25.2262
G01 X19.8110 Y25.2360
G01 X19.8027 Y25.2368
G01 X19.7363 Y25.2400
G01 X19.6657 Y25.2365
G01 X19.5958 Y25.2262
G01 X19.5273 Y25.2090
G01 X19.4646 Y25.1867
G01 X19.4569 Y25.1835
G01 X19.3969 Y25.1550
G01 X19.3398 Y25.1209
G01 X19.3329 Y25.1163
G01 X19.2828 Y25.0791
G01 X19.2764 Y25.0738
G01 X19.2272 Y25.0291
G01 X19.1881 Y24.9862
G01 X15.4442 Y24.9862
G01 X15.4006 Y24.9839
G01 X15.3594 Y24.9779
G01 X15.3513 Y24.9763
G01 X15.3109 Y24.9661
G01 X15.2679 Y24.9507
G01 X15.2302 Y24.9330
G01 X15.2229 Y24.9291
G01 X15.1873 Y24.9076
G01 X15.1505 Y24.8804
G01 X15.1166 Y24.8496
G01 X13.6116 Y23.3446
G01 X13.5836 Y23.3139
G01 X13.5783 Y23.3075
G01 X13.5537 Y23.2740
G01 X13.5311 Y23.2366
G01 X13.5106 Y23.1934
G01 X13.4965 Y23.1543
G01 X13.4940 Y23.1463
G01 X13.4840 Y23.1059
G01 X13.4778 Y23.0648
G01 X13.4770 Y23.0565
G01 X13.4752 Y23.0192
G01 X13.4751 Y21.8581
G01 X12.5111 Y20.8941
G01 X12.4263 Y20.9153
G01 X12.3317 Y20.9293
G01 X12.2363 Y20.9340
G01 X12.1450 Y20.9296
G01 X12.1367 Y20.9288
G01 X12.0504 Y20.9160
G01 X12.0422 Y20.9144
G01 X11.9535 Y20.8921
G01 X11.8635 Y20.8599
G01 X11.7771 Y20.8190
G01 X11.6987 Y20.7721
G01 X11.6917 Y20.7674
G01 X11.6217 Y20.7155
G01 X11.6152 Y20.7102
G01 X11.5476 Y20.6487
G01 X11.4834 Y20.5779
G01 X11.4264 Y20.5011
G01 X11.3793 Y20.4228
G01 X11.3754 Y20.4154
G01 X11.3364 Y20.3327
G01 X11.3042 Y20.2427
G01 X11.2810 Y20.1500
G01 X11.2670 Y20.0555
G01 X11.2623 Y19.9600
G01 X11.2670 Y19.8645
G01 X11.2810 Y19.7700
G01 X11.3042 Y19.6773
G01 X11.3364 Y19.5873
G01 X11.3773 Y19.5009
G01 X11.4264 Y19.4189
G01 X11.4834 Y19.3421
G01 X11.5476 Y19.2713
G01 X11.6184 Y19.2071
G01 X11.6951 Y19.1501
G01 X11.7701 Y19.1051
G00 Z1.0000
G00 X19.0164 Y19.4442
G01 F60.00
G01 Z-0.2706
G01 F120.00
G01 X19.0164 Y19.4358
G01 X19.0197 Y19.3694
G01 X19.0301 Y19.2995
G01 X19.0473 Y19.2310
G01 X19.0711 Y19.1645
G01 X19.1013 Y19.1006
G01 X19.1376 Y19.0400
G01 X19.1797 Y18.9832
G01 X19.2272 Y18.9309
G01 X19.2795 Y18.8834
G01 X19.3363 Y18.8413
G01 X19.3969 Y18.8050
G01 X19.4607 Y18.7748
G01 X19.5273 Y18.7510
G01 X19.5958 Y18.7338
G01 X19.6657 Y18.7235
G01 X19.7363 Y18.7200
G01 X19.8068 Y18.7235
G01 X19.8767 Y18.7338
G01 X19.9453 Y18.7510
G01 X20.0118 Y18.7748
G01 X20.0757 Y18.8050
G01 X20.1363 Y18.8413
G01 X20.1930 Y18.8834
G01 X20.2454 Y18.9309
G01 X20.2928 Y18.9832
G01 X20.3349 Y19.0400
G01 X20.3713 Y19.1006
G01 X20.4015 Y19.1645
G01 X20.4253 Y19.2310
G01 X20.4424 Y19.2995
G01 X20.4528 Y19.3694
G01 X20.4563 Y19.4400
G01 X20.4528 Y19.5106
G01 X20.4424 Y19.5805
G01 X20.4253 Y19.6490
G01 X20.4015 Y19.7155
G01 X20.3713 Y19.7794
G01 X20.3349 Y19.8400
G01 X20.2928 Y19.8968
G01 X20.2454 Y19.9491
G01 X20.1930 Y19.9966
G01 X20.1363 Y20.0387
G01 X20.0757 Y20.0750
G01 X20.0118 Y20.1052
G01 X19.9453 Y20.1290
G01 X19.8767 Y20.1462
G01 X19.8068 Y20.1565
G01 X19.7363 Y20.1600
G01 X19.6657 Y20.1565
G01 X19.5958 Y20.1462
G01 X19.5273 Y20.1290
G01 X19.4607 Y20.1052
G01 X19.3969 Y20.0750
G01 X19.3363 Y20.0387
G01 X19.2795 Y19.9966
G01 X19.2272 Y19.9491
G01 X19.1797 Y19.8968
G01 X19.1376 Y19.8400
G01 X19.1013 Y19.7794
G01 X19.0711 Y19.7155
G01 X19.0473 Y19.6490
G01 X19.0301 Y19.5805
G01 X19.0197 Y19.5106
G01 X19.0164 Y19.4442
G00 Z1.0000
G00 X19.0164 Y16.9042
G01 F60.00
G01 Z-0.2706
G01 F120.00
G01 X19.0164 Y16.8958
G01 X19.0197 Y16.8294
G01 X19.0301 Y16.7595
G01 X19.0473 Y16.6910
G01 X19.0711 Y16.6245
G01 X19.1013 Y16.5606
G01 X19.1376 Y16.5000
G01 X19.1797 Y16.4432
G01 X19.2272 Y16.3909
G01 X19.2795 Y16.3434
G01 X19.3363 Y16.3013
G01 X19.3969 Y16.2650
G01 X19.4607 Y16.2348
G01 X19.5273 Y16.2110
G01 X19.5958 Y16.1938
G01 X19.6657 Y16.1835
G01 X19.7363 Y16.1800
G01 X19.8068 Y16.1835
G01 X19.8767 Y16.1938
G01 X19.9453 Y16.2110
G01 X20.0118 Y16.2348
G01 X20.0757 Y16.2650
G01 X20.1363 Y16.3013
G01 X20.1930 Y16.3434
G01 X20.2454 Y16.3909
G01 X20.2928 Y16.4432
G01 X20.3349 Y16.5000
G01 X20.3713 Y16.5606
G01 X20.4015 Y16.6245
G01 X20.4253 Y16.6910
G01 X20.4424 Y16.7595
G01 X20.4528 Y16.8294
G01 X20.4563 Y16.9000
G01 X20.4528 Y16.9706
G01 X20.4424 Y17.0405
G01 X20.4253 Y17.1090
G01 X20.4015 Y17.1755
G01 X20.3713 Y17.2394
G01 X20.3349 Y17.3000
G01 X20.2928 Y17.3568
G01 X20.2454 Y17.4091
G01 X20.1930 Y17.4566
G01 X20.1363 Y17.4987
G01 X20.0757 Y17.5350
G01 X20.0118 Y17.5652
G01 X19.9453 Y17.5890
G01 X19.8767 Y17.6062
G01 X19.8068 Y17.6165
G01 X19.7363 Y17.6200
G01 X19.6657 Y17.6165
G01 X19.5958 Y17.6062
G01 X19.5273 Y17.5890
G01 X19.4607 Y17.5652
G01 X19.3969 Y17.5350
G01 X19.3363 Y17.4987
G01 X19.2795 Y17.4566
G01 X19.2272 Y17.4091
G01 X19.1797 Y17.3568
G01 X19.1376 Y17.3000
G01 X19.1013 Y17.2394
G01 X19.0711 Y17.1755
G01 X19.0473 Y17.1090
G01 X19.0301 Y17.0405
G01 X19.0197 Y16.9706
G01 X19.0164 Y16.9042
G00 Z1.0000
G00 X19.0164 Y14.3642
G01 F60.00
G01 Z-0.2706
G01 F120.00
G01 X19.0164 Y14.3558
G01 X19.0197 Y14.2894
G01 X19.0301 Y14.2195
G01 X19.0473 Y14.1510
G01 X19.0711 Y14.0845
G01 X19.1013 Y14.0206
G01 X19.1376 Y13.9600
G01 X19.1797 Y13.9032
G01 X19.2272 Y13.8509
G01 X19.2795 Y13.8034
G01 X19.3363 Y13.7613
G01 X19.3969 Y13.7250
G01 X19.4607 Y13.6948
G01 X19.5273 Y13.6710
G01 X19.5958 Y13.6538
G01 X19.6657 Y13.6435
G01 X19.7363 Y13.6400
G01 X19.8068 Y13.6435
G01 X19.8767 Y13.6538
G01 X19.9453 Y13.6710
G01 X20.0118 Y13.6948
G01 X20.0757 Y13.7250
G01 X20.1363 Y13.7613
G01 X20.1930 Y13.8034
G01 X20.2454 Y13.8509
G01 X20.2928 Y13.9032
G01 X20.3349 Y13.9600
G01 X20.3713 Y14.0206
G01 X20.4015 Y14.0845
G01 X20.4253 Y14.1510
G01 X20.4424 Y14.2195
G01 X20.4528 Y14.2894
G01 X20.4563 Y14.3600
G01 X20.4528 Y14.4306
G01 X20.4424 Y14.5005
G01 X20.4253 Y14.5690
G01 X20.4015 Y14.6355
G01 X20.3713 Y14.6994
G01 X20.3349 Y14.7600
G01 X20.2928 Y14.8168
G01 X20.2454 Y14.8691
G01 X20.1930 Y14.9166
G01 X20.1363 Y14.9587
G01 X20.0757 Y14.9950
G01 X20.0118 Y15.0252
G01 X19.9453 Y15.0490
G01 X19.8767 Y15.0662
G01 X19.8068 Y15.0765
G01 X19.7363 Y15.0800
G01 X19.6657 Y15.0765
G01 X19.5958 Y15.0662
G01 X19.5273 Y15.0490
G01 X19.4607 Y15.0252
G01 X19.3969 Y14.9950
G01 X19.3363 Y14.9587
G01 X19.2795 Y14.9166
G01 X19.2272 Y14.8691
G01 X19.1797 Y14.8168
G01 X19.1376 Y14.7600
G01 X19.1013 Y14.6994
G01 X19.0711 Y14.6355
G01 X19.0473 Y14.5690
G01 X19.0301 Y14.5005
G01 X19.0197 Y14.4306
G01 X19.0164 Y14.3642
G00 Z1.0000
G00 X19.0164 Y11.8242
G01 F60.00
G01 Z-0.2706
G01 F120.00
G01 X19.0164 Y11.8158
G01 X19.0197 Y11.7494
G01 X19.0301 Y11.6795
G01 X19.0473 Y11.6110
G01 X19.0711 Y11.5445
G01 X19.1013 Y11.4806
G01 X19.1376 Y11.4200
G01 X19.1797 Y11.3632
G01 X19.2272 Y11.3109
G01 X19.2795 Y11.2634
G01 X19.3363 Y11.2213
G01 X19.3969 Y11.1850
G01 X19.4607 Y11.1548
G01 X19.5273 Y11.1310
G01 X19.5958 Y11.1138
G01 X19.6657 Y11.1035
G01 X19.7363 Y11.1000
G01 X19.8068 Y11.1035
G01 X19.8767 Y11.1138
G01 X19.9453 Y11.1310
G01 X20.0118 Y11.1548
G01 X20.0757 Y11.1850
G01 X20.1363 Y11.2213
G01 X20.1930 Y11.2634
G01 X20.2454 Y11.3109
G01 X20.2928 Y11.3632
G01 X20.3349 Y11.4200
G01 X20.3713 Y11.4806
G01 X20.4015 Y11.5445
G01 X20.4253 Y11.6110
G01 X20.4424 Y11.6795
G01 X20.4528 Y11.7494
G01 X20.4563 Y11.8200
G01 X20.4528 Y11.8906
G01 X20.4424 Y11.9605
G01 X20.4253 Y12.0290
G01 X20.4015 Y12.0955
G01 X20.3713 Y12.1594
G01 X20.3349 Y12.2200
G01 X20.2928 Y12.2768
G01 X20.2454 Y12.3291
G01 X20.1930 Y12.3766
G01 X20.1363 Y12.4187
G01 X20.0757 Y12.4550
G01 X20.0118 Y12.4852
G01 X19.9453 Y12.5090
G01 X19.8767 Y12.5262
G01 X19.8068 Y12.5365
G01 X19.7363 Y12.5400
G01 X19.6657 Y12.5365
G01 X19.5958 Y12.5262
G01 X19.5273 Y12.5090
G01 X19.4607 Y12.4852
G01 X19.3969 Y12.4550
G01 X19.3363 Y12.4187
G01 X19.2795 Y12.3766
G01 X19.2272 Y12.3291
G01 X19.1797 Y12.2768
G01 X19.1376 Y12.2200
G01 X19.1013 Y12.1594
G01 X19.0711 Y12.0955
G01 X19.0473 Y12.0290
G01 X19.0301 Y11.9605
G01 X19.0197 Y11.8906
G01 X19.0164 Y11.8242
G00 Z1.0000
G00 X20.2844 Y8.8138
G01 F60.00
G01 Z-0.2706
G01 F120.00
G01 X25.8132 Y8.8138
G01 X29.7231 Y4.9039
G01 X29.7555 Y4.8746
G01 X29.7923 Y4.8474
G01 X29.8315 Y4.8239
G01 X29.8691 Y4.8060
G01 X29.8768 Y4.8028
G01 X29.9120 Y4.7902
G01 X29.9200 Y4.7878
G01 X29.9603 Y4.7778
G01 X30.0056 Y4.7711
G01 X30.0513 Y4.7688
G01 X36.8013 Y4.7688
G01 X36.8428 Y4.7707
G01 X36.8511 Y4.7716
G01 X36.8922 Y4.7778
G01 X36.9366 Y4.7889
G01 X36.9797 Y4.8043
G01 X37.0173 Y4.8220
G01 X37.0247 Y4.8259
G01 X37.0568 Y4.8451
G01 X37.0637 Y4.8498
G01 X37.0970 Y4.8746
G01 X37.1294 Y4.9039
G01 X38.9394 Y6.7138
G01 X40.8818 Y6.7138
G01 X40.8829 Y6.7062
G01 X40.8844 Y6.7001
G01 X40.8862 Y6.6942
G01 X40.8894 Y6.6865
G01 X40.8934 Y6.6791
G01 X40.8968 Y6.6739
G01 X40.9019 Y6.6673
G01 X40.9062 Y6.6627
G01 X41.2125 Y6.3564
G01 X41.2221 Y6.3485
G01 X41.2329 Y6.3421
G01 X41.2444 Y6.3373
G01 X41.2565 Y6.3343
G01 X41.2627 Y6.3334
G01 X41.2711 Y6.3330
G01 X43.2015 Y6.3330
G01 X43.2098 Y6.3334
G01 X43.2181 Y6.3346
G01 X43.2261 Y6.3367
G01 X43.2340 Y6.3395
G01 X43.2415 Y6.3430
G01 X43.2487 Y6.3473
G01 X43.2554 Y6.3523
G01 X43.2616 Y6.3579
G01 X43.5693 Y6.6657
G01 X43.5745 Y6.6722
G01 X43.5781 Y6.6773
G01 X43.5840 Y6.6884
G01 X43.5870 Y6.6961
G01 X43.5887 Y6.7021
G01 X43.5909 Y6.7145
G01 X43.5913 Y6.7228
G01 X43.5913 Y7.6372
G01 X43.5904 Y7.6497
G01 X43.5882 Y7.6599
G01 X43.5848 Y7.6697
G01 X43.5802 Y7.6791
G01 X43.5745 Y7.6878
G01 X43.5678 Y7.6958
G01 X43.2616 Y8.0021
G01 X43.2521 Y8.0103
G01 X43.2434 Y8.0160
G01 X43.2340 Y8.0205
G01 X43.2221 Y8.0245
G01 X43.2119 Y8.0264
G01 X43.2015 Y8.0270
G01 X41.2648 Y8.0268
G01 X41.2586 Y8.0261
G01 X41.2504 Y8.0245
G01 X41.2424 Y8.0220
G01 X41.2347 Y8.0188
G01 X41.2274 Y8.0149
G01 X41.2221 Y8.0115
G01 X41.2156 Y8.0064
G01 X41.2110 Y8.0021
G01 X40.9033 Y7.6943
G01 X40.8993 Y7.6895
G01 X40.8945 Y7.6827
G01 X40.8886 Y7.6716
G01 X40.8844 Y7.6599
G01 X40.8829 Y7.6538
G01 X40.8818 Y7.6462
G01 X38.7442 Y7.6462
G01 X38.7047 Y7.6443
G01 X38.6964 Y7.6434
G01 X38.6553 Y7.6372
G01 X38.6150 Y7.6272
G01 X38.6070 Y7.6248
G01 X38.5679 Y7.6107
G01 X38.5284 Y7.5921
G01 X38.4908 Y7.5699
G01 X38.4839 Y7.5652
G01 X38.4505 Y7.5404
G01 X38.4166 Y7.5096
G01 X36.6082 Y5.7012
G01 X30.2444 Y5.7012
G01 X26.3359 Y9.6096
G01 X26.3020 Y9.6404
G01 X26.2687 Y9.6652
G01 X26.2618 Y9.6699
G01 X26.2260 Y9.6911
G01 X26.1885 Y9.7090
G01 X26.1808 Y9.7122
G01 X26.1416 Y9.7261
G01 X26.0972 Y9.7372
G01 X26.0561 Y9.7434
G01 X26.0478 Y9.7443
G01 X26.0063 Y9.7462
G01 X20.2844 Y9.7462
G01 X20.2454 Y9.7891
G01 X20.1962 Y9.8338
G01 X20.1897 Y9.8391
G01 X20.1397 Y9.8763
G01 X20.1328 Y9.8809
G01 X20.0757 Y9.9150
G01 X20.0156 Y9.9435
G01 X20.0079 Y9.9467
G01 X19.9453 Y9.9690
G01 X19.8767 Y9.9862
G01 X19.8068 Y9.9965
G01 X19.7363 Y10.0000
G01 X19.6657 Y9.9965
G01 X19.5958 Y9.9862
G01 X19.5273 Y9.9690
G01 X19.4646 Y9.9467
G01 X19.4569 Y9.9435
G01 X19.4006 Y9.9169
G01 X19.3932 Y9.9129
G01 X19.3363 Y9.8787
G01 X19.2828 Y9.8391
G01 X19.2764 Y9.8338
G01 X19.2272 Y9.7891
G01 X19.1797 Y9.7368
G01 X19.1376 Y9.6800
G01 X19.1013 Y9.6194
G01 X19.0711 Y9.5555
G01 X19.0473 Y9.4890
G01 X19.0301 Y9.4205
G01 X19.0197 Y9.3506
G01 X19.0163 Y9.2800
G01 X19.0197 Y9.2094
G01 X19.0301 Y9.1395
G01 X19.0473 Y9.0710
G01 X19.0711 Y9.0045
G01 X19.1013 Y8.9406
G01 X19.1376 Y8.8800
G01 X19.1797 Y8.8232
G01 X19.2272 Y8.7709
G01 X19.2795 Y8.7234
G01 X19.3363 Y8.6813
G01 X19.3969 Y8.6450
G01 X19.4607 Y8.6148
G01 X19.5273 Y8.5910
G01 X19.5958 Y8.5738
G01 X19.6657 Y8.5635
G01 X19.7363 Y8.5600
G01 X19.8068 Y8.5635
G01 X19.8767 Y8.5738
G01 X19.9453 Y8.5910
G01 X20.0118 Y8.6148
G01 X20.0757 Y8.6450
G01 X20.1363 Y8.6813
G01 X20.1930 Y8.7234
G01 X20.2454 Y8.7709
G01 X20.2844 Y8.8138
G00 Z1.0000
G00 X19.7942 Y6.0227
G01 F60.00
G01 Z-0.2706
G01 F120.00
G01 X22.1831 Y3.6339
G01 X22.2155 Y3.6046
G01 X22.2523 Y3.5774
G01 X22.2915 Y3.5539
G01 X22.3291 Y3.5360
G01 X22.3368 Y3.5328
G01 X22.3720 Y3.5202
G01 X22.3800 Y3.5178
G01 X22.4203 Y3.5078
G01 X22.4677 Y3.5009
G01 X22.5113 Y3.4988
G01 X38.7084 Y3.4988
G01 X38.7520 Y3.5011
G01 X38.7931 Y3.5071
G01 X38.8013 Y3.5087
G01 X38.8376 Y3.5178
G01 X38.8456 Y3.5202
G01 X38.8847 Y3.5343
G01 X38.9260 Y3.5539
G01 X38.9653 Y3.5774
G01 X39.0004 Y3.6033
G01 X39.0359 Y3.6354
G01 X39.5744 Y4.1738
G01 X40.8818 Y4.1738
G01 X40.8829 Y4.1662
G01 X40.8844 Y4.1601
G01 X40.8886 Y4.1484
G01 X40.8913 Y4.1427
G01 X40.8956 Y4.1356
G01 X40.9033 Y4.1257
G01 X41.2110 Y3.8179
G01 X41.2172 Y3.8123
G01 X41.2221 Y3.8085
G01 X41.2292 Y3.8040
G01 X41.2347 Y3.8012
G01 X41.2405 Y3.7987
G01 X41.2484 Y3.7961
G01 X41.2565 Y3.7943
G01 X41.2627 Y3.7934
G01 X41.2711 Y3.7930
G01 X43.2015 Y3.7930
G01 X43.2098 Y3.7934
G01 X43.2181 Y3.7946
G01 X43.2261 Y3.7967
G01 X43.2340 Y3.7995
G01 X43.2415 Y3.8030
G01 X43.2487 Y3.8073
G01 X43.2554 Y3.8123
G01 X43.2616 Y3.8179
G01 X43.5693 Y4.1257
G01 X43.5745 Y4.1322
G01 X43.5781 Y4.1373
G01 X43.5840 Y4.1484
G01 X43.5870 Y4.1561
G01 X43.5887 Y4.1621
G01 X43.5904 Y4.1703
G01 X43.5910 Y4.1765
G01 X43.5913 Y5.0972
G01 X43.5904 Y5.1097
G01 X43.5876 Y5.1219
G01 X43.5840 Y5.1316
G01 X43.5792 Y5.1409
G01 X43.5733 Y5.1495
G01 X43.5678 Y5.1558
G01 X43.2601 Y5.4636
G01 X43.2538 Y5.4690
G01 X43.2469 Y5.4738
G01 X43.2397 Y5.4779
G01 X43.2321 Y5.4813
G01 X43.2241 Y5.4839
G01 X43.2181 Y5.4854
G01 X43.2098 Y5.4866
G01 X43.2015 Y5.4870
G01 X41.2711 Y5.4870
G01 X41.2627 Y5.4866
G01 X41.2545 Y5.4854
G01 X41.2484 Y5.4839
G01 X41.2424 Y5.4820
G01 X41.2347 Y5.4788
G01 X41.2292 Y5.4760
G01 X41.2221 Y5.4715
G01 X41.2156 Y5.4664
G01 X41.2110 Y5.4621
G01 X40.9033 Y5.1543
G01 X40.8993 Y5.1495
G01 X40.8945 Y5.1427
G01 X40.8886 Y5.1316
G01 X40.8844 Y5.1199
G01 X40.8829 Y5.1138
G01 X40.8818 Y5.1062
G01 X39.3813 Y5.1062
G01 X39.3356 Y5.1039
G01 X39.2883 Y5.0968
G01 X39.2500 Y5.0872
G01 X39.2420 Y5.0848
G01 X39.2029 Y5.0707
G01 X39.1652 Y5.0530
G01 X39.1579 Y5.0491
G01 X39.1223 Y5.0276
G01 X39.0839 Y4.9990
G01 X39.0516 Y4.9696
G01 X38.5132 Y4.4312
G01 X22.7044 Y4.4312
G01 X20.4535 Y6.6820
G01 X20.4563 Y6.7400
G01 X20.4531 Y6.8064
G01 X20.4523 Y6.8147
G01 X20.4432 Y6.8764
G01 X20.4415 Y6.8845
G01 X20.4253 Y6.9490
G01 X20.4030 Y7.0116
G01 X20.3998 Y7.0193
G01 X20.3713 Y7.0794
G01 X20.3349 Y7.1400
G01 X20.2928 Y7.1968
G01 X20.2454 Y7.2491
G01 X20.1930 Y7.2966
G01 X20.1363 Y7.3387
G01 X20.0757 Y7.3750
G01 X20.0156 Y7.4035
G01 X20.0079 Y7.4067
G01 X19.9492 Y7.4277
G01 X19.9413 Y7.4301
G01 X19.8767 Y7.4462
G01 X19.8110 Y7.4560
G01 X19.8027 Y7.4568
G01 X19.7363 Y7.4600
G01 X19.6657 Y7.4565
G01 X19.5958 Y7.4462
G01 X19.5273 Y7.4290
G01 X19.4607 Y7.4052
G01 X19.3969 Y7.3750
G01 X19.3363 Y7.3387
G01 X19.2795 Y7.2966
G01 X19.2272 Y7.2491
G01 X19.1797 Y7.1968
G01 X19.1376 Y7.1400
G01 X19.1013 Y7.0794
G01 X19.0711 Y7.0155
G01 X19.0473 Y6.9490
G01 X19.0301 Y6.8805
G01 X19.0197 Y6.8106
G01 X19.0163 Y6.7400
G01 X19.0197 Y6.6694
G01 X19.0301 Y6.5995
G01 X19.0473 Y6.5310
G01 X19.0711 Y6.4645
G01 X19.1013 Y6.4006
G01 X19.1376 Y6.3400
G01 X19.1797 Y6.2832
G01 X19.2272 Y6.2309
G01 X19.2795 Y6.1834
G01 X19.3363 Y6.1413
G01 X19.3969 Y6.1050
G01 X19.4607 Y6.0748
G01 X19.5273 Y6.0510
G01 X19.5958 Y6.0338
G01 X19.6657 Y6.0235
G01 X19.7363 Y6.0200
G01 X19.7942 Y6.0227
G00 Z1.0000
G00 X34.4281 Y8.8138
G01 F60.00
G01 Z-0.2706
G01 F120.00
G01 X34.4672 Y8.7709
G01 X34.5195 Y8.7234
G01 X34.5763 Y8.6813
G01 X34.6369 Y8.6450
G01 X34.7007 Y8.6148
G01 X34.7673 Y8.5910
G01 X34.8358 Y8.5738
G01 X34.9016 Y8.5640
G01 X34.9099 Y8.5632
G01 X34.9763 Y8.5600
G01 X35.0427 Y8.5632
G01 X35.0510 Y8.5640
G01 X35.1126 Y8.5731
G01 X35.1208 Y8.5747
G01 X35.1853 Y8.5910
G01 X35.2518 Y8.6148
G01 X35.3157 Y8.6450
G01 X35.3728 Y8.6791
G01 X35.3797 Y8.6837
G01 X35.4297 Y8.7209
G01 X35.4362 Y8.7262
G01 X35.4854 Y8.7709
G01 X35.5301 Y8.8201
G01 X35.5354 Y8.8265
G01 X35.5749 Y8.8800
G01 X35.6113 Y8.9406
G01 X35.6415 Y9.0045
G01 X35.6653 Y9.0710
G01 X35.6824 Y9.1395
G01 X35.6923 Y9.2053
G01 X35.6931 Y9.2136
G01 X35.6962 Y9.2758
G01 X35.6962 Y9.2842
G01 X35.6928 Y9.3506
G01 X35.6824 Y9.4205
G01 X35.6653 Y9.4890
G01 X35.6415 Y9.5555
G01 X35.6131 Y9.6157
G01 X35.6092 Y9.6230
G01 X35.5749 Y9.6800
G01 X35.5354 Y9.7335
G01 X35.5301 Y9.7399
G01 X35.4854 Y9.7891
G01 X35.4362 Y9.8338
G01 X35.4297 Y9.8391
G01 X35.3763 Y9.8787
G01 X35.3193 Y9.9129
G01 X35.3120 Y9.9169
G01 X35.2518 Y9.9452
G01 X35.1892 Y9.9677
G01 X35.1813 Y9.9701
G01 X35.1167 Y9.9862
G01 X35.0468 Y9.9965
G01 X34.9804 Y9.9999
G01 X34.9721 Y9.9999
G01 X34.9057 Y9.9965
G01 X34.8399 Y9.9869
G01 X34.8317 Y9.9853
G01 X34.7673 Y9.9690
G01 X34.7007 Y9.9452
G01 X34.6369 Y9.9150
G01 X34.5798 Y9.8809
G01 X34.5729 Y9.8763
G01 X34.5228 Y9.8391
G01 X34.5164 Y9.8338
G01 X34.4672 Y9.7891
G01 X34.4281 Y9.7462
G01 X33.8194 Y9.7462
G01 X32.8225 Y10.7431
G01 X32.8225 Y12.6238
G01 X35.9732 Y12.6238
G01 X36.6666 Y11.9304
G01 X36.6989 Y11.9010
G01 X36.7339 Y11.8748
G01 X36.7408 Y11.8701
G01 X36.7765 Y11.8489
G01 X36.8141 Y11.8310
G01 X36.8218 Y11.8278
G01 X36.8609 Y11.8139
G01 X36.9074 Y11.8024
G01 X36.9506 Y11.7961
G01 X36.9963 Y11.7938
G01 X40.8818 Y11.7938
G01 X40.8829 Y11.7862
G01 X40.8844 Y11.7801
G01 X40.8862 Y11.7742
G01 X40.8894 Y11.7665
G01 X40.8934 Y11.7591
G01 X40.8968 Y11.7539
G01 X40.9019 Y11.7473
G01 X40.9062 Y11.7427
G01 X41.2125 Y11.4364
G01 X41.2221 Y11.4285
G01 X41.2329 Y11.4221
G01 X41.2444 Y11.4173
G01 X41.2565 Y11.4143
G01 X41.2648 Y11.4132
G01 X41.2711 Y11.4130
G01 X43.2015 Y11.4130
G01 X43.2098 Y11.4134
G01 X43.2181 Y11.4146
G01 X43.2261 Y11.4167
G01 X43.2340 Y11.4195
G01 X43.2415 Y11.4230
G01 X43.2487 Y11.4273
G01 X43.2538 Y11.4310
G01 X43.2601 Y11.4364
G01 X43.5678 Y11.7442
G01 X43.5745 Y11.7522
G01 X43.5802 Y11.7609
G01 X43.5848 Y11.7703
G01 X43.5882 Y11.7801
G01 X43.5904 Y11.7903
G01 X43.5913 Y11.8028
G01 X43.5913 Y12.7172
G01 X43.5909 Y12.7255
G01 X43.5892 Y12.7358
G01 X43.5870 Y12.7439
G01 X43.5840 Y12.7516
G01 X43.5812 Y12.7573
G01 X43.5769 Y12.7644
G01 X43.5720 Y12.7711
G01 X43.5664 Y12.7773
G01 X43.2601 Y13.0836
G01 X43.2504 Y13.0915
G01 X43.2452 Y13.0949
G01 X43.2378 Y13.0988
G01 X43.2261 Y13.1033
G01 X43.2139 Y13.1061
G01 X43.2015 Y13.1070
G01 X41.2711 Y13.1070
G01 X41.2627 Y13.1066
G01 X41.2545 Y13.1054
G01 X41.2464 Y13.1033
G01 X41.2385 Y13.1005
G01 X41.2310 Y13.0970
G01 X41.2239 Y13.0927
G01 X41.2172 Y13.0877
G01 X41.2110 Y13.0821
G01 X40.9033 Y12.7743
G01 X40.8993 Y12.7695
G01 X40.8945 Y12.7627
G01 X40.8886 Y12.7516
G01 X40.8844 Y12.7399
G01 X40.8829 Y12.7338
G01 X40.8818 Y12.7262
G01 X37.1894 Y12.7262
G01 X36.4959 Y13.4196
G01 X36.4636 Y13.4490
G01 X36.4287 Y13.4752
G01 X36.4218 Y13.4799
G01 X36.3860 Y13.5011
G01 X36.3485 Y13.5190
G01 X36.3408 Y13.5222
G01 X36.3016 Y13.5361
G01 X36.2613 Y13.5463
G01 X36.2531 Y13.5479
G01 X36.2120 Y13.5539
G01 X36.1663 Y13.5562
G01 X32.3563 Y13.5562
G01 X32.3106 Y13.5539
G01 X32.2694 Y13.5479
G01 X32.2613 Y13.5463
G01 X32.2209 Y13.5361
G01 X32.1818 Y13.5222
G01 X32.1741 Y13.5190
G01 X32.1384 Y13.5021
G01 X32.0973 Y13.4776
G01 X32.0638 Y13.4529
G01 X32.0574 Y13.4476
G01 X32.0266 Y13.4196
G01 X31.9986 Y13.3889
G01 X31.9933 Y13.3825
G01 X31.9687 Y13.3490
G01 X31.9472 Y13.3134
G01 X31.9433 Y13.3060
G01 X31.9256 Y13.2684
G01 X31.9115 Y13.2293
G01 X31.9090 Y13.2213
G01 X31.8990 Y13.1809
G01 X31.8928 Y13.1398
G01 X31.8920 Y13.1315
G01 X31.8901 Y13.0900
G01 X31.8901 Y10.5479
G01 X31.8923 Y10.5043
G01 X31.8983 Y10.4632
G01 X31.9000 Y10.4550
G01 X31.9102 Y10.4147
G01 X31.9241 Y10.3755
G01 X31.9273 Y10.3678
G01 X31.9442 Y10.3321
G01 X31.9664 Y10.2945
G01 X31.9711 Y10.2876
G01 X31.9959 Y10.2543
G01 X32.0266 Y10.2204
G01 X33.2966 Y8.9504
G01 X33.3305 Y8.9196
G01 X33.3639 Y8.8948
G01 X33.3708 Y8.8901
G01 X33.4065 Y8.8689
G01 X33.4441 Y8.8510
G01 X33.4518 Y8.8478
G01 X33.4870 Y8.8352
G01 X33.4950 Y8.8328
G01 X33.5353 Y8.8228
G01 X33.5827 Y8.8159
G01 X33.6263 Y8.8138
G01 X34.4281 Y8.8138
G00 Z1.0000
G00 X35.0342 Y7.4573
G01 F60.00
G01 Z-0.2706
G01 F120.00
G01 X34.9763 Y7.4600
G01 X34.9057 Y7.4565
G01 X34.8358 Y7.4462
G01 X34.7673 Y7.4290
G01 X34.7007 Y7.4052
G01 X34.6369 Y7.3750
G01 X34.5763 Y7.3387
G01 X34.5195 Y7.2966
G01 X34.4672 Y7.2491
G01 X34.4197 Y7.1968
G01 X34.3776 Y7.1400
G01 X34.3413 Y7.0794
G01 X34.3111 Y7.0155
G01 X34.2873 Y6.9490
G01 X34.2701 Y6.8805
G01 X34.2597 Y6.8106
G01 X34.2563 Y6.7400
G01 X34.2597 Y6.6694
G01 X34.2701 Y6.5995
G01 X34.2873 Y6.5310
G01 X34.3111 Y6.4645
G01 X34.3413 Y6.4006
G01 X34.3776 Y6.3400
G01 X34.4197 Y6.2832
G01 X34.4672 Y6.2309
G01 X34.5195 Y6.1834
G01 X34.5763 Y6.1413
G01 X34.6369 Y6.1050
G01 X34.7007 Y6.0748
G01 X34.7673 Y6.0510
G01 X34.8358 Y6.0338
G01 X34.9057 Y6.0235
G01 X34.9763 Y6.0200
G01 X35.0468 Y6.0235
G01 X35.1167 Y6.0338
G01 X35.1813 Y6.0499
G01 X35.1892 Y6.0523
G01 X35.2479 Y6.0733
G01 X35.2556 Y6.0765
G01 X35.3157 Y6.1050
G01 X35.3728 Y6.1391
G01 X35.3797 Y6.1437
G01 X35.4330 Y6.1834
G01 X35.4854 Y6.2309
G01 X35.5328 Y6.2832
G01 X35.5749 Y6.3400
G01 X35.6113 Y6.4006
G01 X35.6398 Y6.4607
G01 X35.6430 Y6.4684
G01 X35.6653 Y6.5310
G01 X35.6815 Y6.5955
G01 X35.6832 Y6.6036
G01 X35.6923 Y6.6653
G01 X35.6931 Y6.6736
G01 X35.6963 Y6.7400
G01 X35.6935 Y6.7980
G01 X38.1494 Y9.2538
G01 X40.8818 Y9.2538
G01 X40.8829 Y9.2462
G01 X40.8844 Y9.2401
G01 X40.8862 Y9.2342
G01 X40.8894 Y9.2265
G01 X40.8934 Y9.2191
G01 X40.8968 Y9.2139
G01 X40.9019 Y9.2073
G01 X40.9062 Y9.2027
G01 X41.2125 Y8.8964
G01 X41.2221 Y8.8885
G01 X41.2329 Y8.8821
G01 X41.2444 Y8.8773
G01 X41.2565 Y8.8743
G01 X41.2648 Y8.8732
G01 X41.2711 Y8.8730
G01 X43.2015 Y8.8730
G01 X43.2077 Y8.8732
G01 X43.2160 Y8.8743
G01 X43.2281 Y8.8773
G01 X43.2397 Y8.8821
G01 X43.2504 Y8.8885
G01 X43.2570 Y8.8936
G01 X43.2616 Y8.8979
G01 X43.5678 Y9.2042
G01 X43.5745 Y9.2122
G01 X43.5802 Y9.2209
G01 X43.5848 Y9.2303
G01 X43.5882 Y9.2401
G01 X43.5904 Y9.2503
G01 X43.5913 Y9.2628
G01 X43.5913 Y10.1772
G01 X43.5904 Y10.1897
G01 X43.5887 Y10.1979
G01 X43.5870 Y10.2039
G01 X43.5840 Y10.2116
G01 X43.5792 Y10.2209
G01 X43.5733 Y10.2295
G01 X43.5678 Y10.2358
G01 X43.2601 Y10.5436
G01 X43.2504 Y10.5515
G01 X43.2452 Y10.5549
G01 X43.2378 Y10.5588
G01 X43.2261 Y10.5633
G01 X43.2139 Y10.5661
G01 X43.2015 Y10.5670
G01 X41.2711 Y10.5670
G01 X41.2627 Y10.5666
G01 X41.2545 Y10.5654
G01 X41.2464 Y10.5633
G01 X41.2385 Y10.5605
G01 X41.2310 Y10.5570
G01 X41.2239 Y10.5527
G01 X41.2172 Y10.5477
G01 X41.2110 Y10.5421
G01 X40.9033 Y10.2343
G01 X40.8993 Y10.2295
G01 X40.8945 Y10.2227
G01 X40.8886 Y10.2116
G01 X40.8844 Y10.1999
G01 X40.8829 Y10.1938
G01 X40.8818 Y10.1862
G01 X37.9563 Y10.1862
G01 X37.9106 Y10.1839
G01 X37.8694 Y10.1779
G01 X37.8613 Y10.1763
G01 X37.8190 Y10.1655
G01 X37.7818 Y10.1522
G01 X37.7741 Y10.1490
G01 X37.7365 Y10.1311
G01 X37.7008 Y10.1099
G01 X37.6939 Y10.1052
G01 X37.6605 Y10.0804
G01 X37.6281 Y10.0511
G01 X35.0342 Y7.4573
G00 Z1.0000
G00 X34.2564 Y11.8242
G01 F60.00
G01 Z-0.2706
G01 F120.00
G01 X34.2564 Y11.8158
G01 X34.2597 Y11.7494
G01 X34.2701 Y11.6795
G01 X34.2873 Y11.6110
G01 X34.3111 Y11.5445
G01 X34.3413 Y11.4806
G01 X34.3776 Y11.4200
G01 X34.4197 Y11.3632
G01 X34.4672 Y11.3109
G01 X34.5195 Y11.2634
G01 X34.5763 Y11.2213
G01 X34.6369 Y11.1850
G01 X34.7007 Y11.1548
G01 X34.7673 Y11.1310
G01 X34.8358 Y11.1138
G01 X34.9057 Y11.1035
G01 X34.9763 Y11.1000
G01 X35.0468 Y11.1035
G01 X35.1167 Y11.1138
G01 X35.1853 Y11.1310
G01 X35.2518 Y11.1548
G01 X35.3157 Y11.1850
G01 X35.3763 Y11.2213
G01 X35.4330 Y11.2634
G01 X35.4854 Y11.3109
G01 X35.5328 Y11.3632
G01 X35.5749 Y11.4200
G01 X35.6113 Y11.4806
G01 X35.6415 Y11.5445
G01 X35.6653 Y11.6110
G01 X35.6824 Y11.6795
G01 X35.6928 Y11.7494
G01 X35.6963 Y11.8200
G01 X35.6928 Y11.8906
G01 X35.6824 Y11.9605
G01 X35.6653 Y12.0290
G01 X35.6415 Y12.0955
G01 X35.6113 Y12.1594
G01 X35.5749 Y12.2200
G01 X35.5328 Y12.2768
G01 X35.4854 Y12.3291
G01 X35.4330 Y12.3766
G01 X35.3763 Y12.4187
G01 X35.3157 Y12.4550
G01 X35.2518 Y12.4852
G01 X35.1853 Y12.5090
G01 X35.1167 Y12.5262
G01 X35.0468 Y12.5365
G01 X34.9763 Y12.5400
G01 X34.9057 Y12.5365
G01 X34.8358 Y12.5262
G01 X34.7673 Y12.5090
G01 X34.7007 Y12.4852
G01 X34.6369 Y12.4550
G01 X34.5763 Y12.4187
G01 X34.5195 Y12.3766
G01 X34.4672 Y12.3291
G01 X34.4197 Y12.2768
G01 X34.3776 Y12.2200
G01 X34.3413 Y12.1594
G01 X34.3111 Y12.0955
G01 X34.2873 Y12.0290
G01 X34.2701 Y11.9605
G01 X34.2597 Y11.8906
G01 X34.2564 Y11.8242
G00 Z1.0000
G00 X34.2564 Y14.3642
G01 F60.00
G01 Z-0.2706
G01 F120.00
G01 X34.2564 Y14.3558
G01 X34.2597 Y14.2894
G01 X34.2701 Y14.2195
G01 X34.2873 Y14.1510
G01 X34.3111 Y14.0845
G01 X34.3413 Y14.0206
G01 X34.3776 Y13.9600
G01 X34.4197 Y13.9032
G01 X34.4672 Y13.8509
G01 X34.5195 Y13.8034
G01 X34.5763 Y13.7613
G01 X34.6369 Y13.7250
G01 X34.7007 Y13.6948
G01 X34.7673 Y13.6710
G01 X34.8358 Y13.6538
G01 X34.9057 Y13.6435
G01 X34.9763 Y13.6400
G01 X35.0468 Y13.6435
G01 X35.1167 Y13.6538
G01 X35.1853 Y13.6710
G01 X35.2518 Y13.6948
G01 X35.3157 Y13.7250
G01 X35.3763 Y13.7613
G01 X35.4330 Y13.8034
G01 X35.4854 Y13.8509
G01 X35.5328 Y13.9032
G01 X35.5749 Y13.9600
G01 X35.6113 Y14.0206
G01 X35.6415 Y14.0845
G01 X35.6653 Y14.1510
G01 X35.6824 Y14.2195
G01 X35.6928 Y14.2894
G01 X35.6963 Y14.3600
G01 X35.6928 Y14.4306
G01 X35.6824 Y14.5005
G01 X35.6653 Y14.5690
G01 X35.6415 Y14.6355
G01 X35.6113 Y14.6994
G01 X35.5749 Y14.7600
G01 X35.5328 Y14.8168
G01 X35.4854 Y14.8691
G01 X35.4330 Y14.9166
G01 X35.3763 Y14.9587
G01 X35.3157 Y14.9950
G01 X35.2518 Y15.0252
G01 X35.1853 Y15.0490
G01 X35.1167 Y15.0662
G01 X35.0468 Y15.0765
G01 X34.9763 Y15.0800
G01 X34.9057 Y15.0765
G01 X34.8358 Y15.0662
G01 X34.7673 Y15.0490
G01 X34.7007 Y15.0252
G01 X34.6369 Y14.9950
G01 X34.5763 Y14.9587
G01 X34.5195 Y14.9166
G01 X34.4672 Y14.8691
G01 X34.4197 Y14.8168
G01 X34.3776 Y14.7600
G01 X34.3413 Y14.6994
G01 X34.3111 Y14.6355
G01 X34.2873 Y14.5690
G01 X34.2701 Y14.5005
G01 X34.2597 Y14.4306
G01 X34.2564 Y14.3642
G00 Z1.0000
G00 X34.2564 Y16.9042
G01 F60.00
G01 Z-0.2706
G01 F120.00
G01 X34.2564 Y16.8958
G01 X34.2597 Y16.8294
G01 X34.2701 Y16.7595
G01 X34.2873 Y16.6910
G01 X34.3111 Y16.6245
G01 X34.3413 Y16.5606
G01 X34.3776 Y16.5000
G01 X34.4197 Y16.4432
G01 X34.4672 Y16.3909
G01 X34.5195 Y16.3434
G01 X34.5763 Y16.3013
G01 X34.6369 Y16.2650
G01 X34.7007 Y16.2348
G01 X34.7673 Y16.2110
G01 X34.8358 Y16.1938
G01 X34.9057 Y16.1835
G01 X34.9763 Y16.1800
G01 X35.0468 Y16.1835
G01 X35.1167 Y16.1938
G01 X35.1853 Y16.2110
G01 X35.2518 Y16.2348
G01 X35.3157 Y16.2650
G01 X35.3763 Y16.3013
G01 X35.4330 Y16.3434
G01 X35.4854 Y16.3909
G01 X35.5328 Y16.4432
G01 X35.5749 Y16.5000
G01 X35.6113 Y16.5606
G01 X35.6415 Y16.6245
G01 X35.6653 Y16.6910
G01 X35.6824 Y16.7595
G01 X35.6928 Y16.8294
G01 X35.6963 Y16.9000
G01 X35.6928 Y16.9706
G01 X35.6824 Y17.0405
G01 X35.6653 Y17.1090
G01 X35.6415 Y17.1755
G01 X35.6113 Y17.2394
G01 X35.5749 Y17.3000
G01 X35.5328 Y17.3568
G01 X35.4854 Y17.4091
G01 X35.4330 Y17.4566
G01 X35.3763 Y17.4987
G01 X35.3157 Y17.5350
G01 X35.2518 Y17.5652
G01 X35.1853 Y17.5890
G01 X35.1167 Y17.6062
G01 X35.0468 Y17.6165
G01 X34.9763 Y17.6200
G01 X34.9057 Y17.6165
G01 X34.8358 Y17.6062
G01 X34.7673 Y17.5890
G01 X34.7007 Y17.5652
G01 X34.6369 Y17.5350
G01 X34.5763 Y17.4987
G01 X34.5195 Y17.4566
G01 X34.4672 Y17.4091
G01 X34.4197 Y17.3568
G01 X34.3776 Y17.3000
G01 X34.3413 Y17.2394
G01 X34.3111 Y17.1755
G01 X34.2873 Y17.1090
G01 X34.2701 Y17.0405
G01 X34.2597 Y16.9706
G01 X34.2564 Y16.9042
G00 Z1.0000
G00 X34.2564 Y19.4442
G01 F60.00
G01 Z-0.2706
G01 F120.00
G01 X34.2564 Y19.4358
G01 X34.2597 Y19.3694
G01 X34.2701 Y19.2995
G01 X34.2873 Y19.2310
G01 X34.3111 Y19.1645
G01 X34.3413 Y19.1006
G01 X34.3776 Y19.0400
G01 X34.4197 Y18.9832
G01 X34.4672 Y18.9309
G01 X34.5195 Y18.8834
G01 X34.5763 Y18.8413
G01 X34.6369 Y18.8050
G01 X34.7007 Y18.7748
G01 X34.7673 Y18.7510
G01 X34.8358 Y18.7338
G01 X34.9057 Y18.7235
G01 X34.9763 Y18.7200
G01 X35.0468 Y18.7235
G01 X35.1167 Y18.7338
G01 X35.1853 Y18.7510
G01 X35.2518 Y18.7748
G01 X35.3157 Y18.8050
G01 X35.3763 Y18.8413
G01 X35.4330 Y18.8834
G01 X35.4854 Y18.9309
G01 X35.5328 Y18.9832
G01 X35.5749 Y19.0400
G01 X35.6113 Y19.1006
G01 X35.6415 Y19.1645
G01 X35.6653 Y19.2310
G01 X35.6824 Y19.2995
G01 X35.6928 Y19.3694
G01 X35.6963 Y19.4400
G01 X35.6928 Y19.5106
G01 X35.6824 Y19.5805
G01 X35.6653 Y19.6490
G01 X35.6415 Y19.7155
G01 X35.6113 Y19.7794
G01 X35.5749 Y19.8400
G01 X35.5328 Y19.8968
G01 X35.4854 Y19.9491
G01 X35.4330 Y19.9966
G01 X35.3763 Y20.0387
G01 X35.3157 Y20.0750
G01 X35.2518 Y20.1052
G01 X35.1853 Y20.1290
G01 X35.1167 Y20.1462
G01 X35.0468 Y20.1565
G01 X34.9763 Y20.1600
G01 X34.9057 Y20.1565
G01 X34.8358 Y20.1462
G01 X34.7673 Y20.1290
G01 X34.7007 Y20.1052
G01 X34.6369 Y20.0750
G01 X34.5763 Y20.0387
G01 X34.5195 Y19.9966
G01 X34.4672 Y19.9491
G01 X34.4197 Y19.8968
G01 X34.3776 Y19.8400
G01 X34.3413 Y19.7794
G01 X34.3111 Y19.7155
G01 X34.2873 Y19.6490
G01 X34.2701 Y19.5805
G01 X34.2597 Y19.5106
G01 X34.2564 Y19.4442
G00 Z1.0000
G00 X35.5244 Y21.5138
G01 F60.00
G01 Z-0.2706
G01 F120.00
G01 X36.4013 Y21.5138
G01 X36.4449 Y21.5159
G01 X36.4922 Y21.5228
G01 X36.5326 Y21.5328
G01 X36.5406 Y21.5352
G01 X36.5797 Y21.5493
G01 X36.6173 Y21.5670
G01 X36.6247 Y21.5709
G01 X36.6603 Y21.5924
G01 X36.6970 Y21.6196
G01 X36.7309 Y21.6504
G01 X38.4009 Y23.3204
G01 X38.4316 Y23.3543
G01 X38.4589 Y23.3910
G01 X38.4824 Y23.4302
G01 X38.5020 Y23.4716
G01 X38.5174 Y23.5147
G01 X38.5285 Y23.5591
G01 X38.5352 Y23.6043
G01 X38.5375 Y23.6500
G01 X38.5375 Y28.3300
G01 X38.5352 Y28.3757
G01 X38.5285 Y28.4209
G01 X38.5174 Y28.4653
G01 X38.5012 Y28.5103
G01 X38.4824 Y28.5498
G01 X38.4611 Y28.5855
G01 X38.4565 Y28.5924
G01 X38.4316 Y28.6257
G01 X38.4038 Y28.6566
G01 X38.3979 Y28.6625
G01 X38.3670 Y28.6904
G01 X38.3303 Y28.7176
G01 X38.2910 Y28.7411
G01 X38.2535 Y28.7590
G01 X38.2458 Y28.7622
G01 X38.2066 Y28.7761
G01 X38.1663 Y28.7863
G01 X38.1581 Y28.7879
G01 X38.1170 Y28.7939
G01 X38.0754 Y28.7961
G01 X32.5913 Y28.7962
G01 X32.5456 Y28.7939
G01 X32.5003 Y28.7872
G01 X32.4559 Y28.7761
G01 X32.4110 Y28.7599
G01 X32.3715 Y28.7411
G01 X32.3323 Y28.7176
G01 X32.2955 Y28.6904
G01 X32.2631 Y28.6611
G01 X30.7552 Y27.1532
G01 X30.7259 Y27.1207
G01 X30.7011 Y27.0874
G01 X30.6964 Y27.0805
G01 X30.6772 Y27.0484
G01 X30.6733 Y27.0410
G01 X30.6556 Y27.0034
G01 X30.6402 Y26.9603
G01 X30.6290 Y26.9159
G01 X30.6228 Y26.8748
G01 X30.6220 Y26.8665
G01 X30.6201 Y26.8250
G01 X30.6201 Y16.9000
G01 X30.6223 Y16.8543
G01 X30.6283 Y16.8132
G01 X30.6300 Y16.8050
G01 X30.6390 Y16.7687
G01 X30.6415 Y16.7607
G01 X30.6556 Y16.7216
G01 X30.6751 Y16.6802
G01 X30.6987 Y16.6410
G01 X30.7246 Y16.6059
G01 X30.7566 Y16.5704
G01 X32.0281 Y15.2989
G01 X32.0605 Y15.2696
G01 X32.0939 Y15.2448
G01 X32.1008 Y15.2401
G01 X32.1365 Y15.2189
G01 X32.1779 Y15.1993
G01 X32.2170 Y15.1852
G01 X32.2250 Y15.1828
G01 X32.2674 Y15.1724
G01 X32.3106 Y15.1661
G01 X32.3563 Y15.1638
G01 X37.6832 Y15.1638
G01 X38.3796 Y14.4675
G01 X38.4074 Y14.4424
G01 X38.4138 Y14.4371
G01 X38.4473 Y14.4124
G01 X38.4829 Y14.3909
G01 X38.4902 Y14.3870
G01 X38.5279 Y14.3693
G01 X38.5690 Y14.3545
G01 X38.6113 Y14.3437
G01 X38.6194 Y14.3421
G01 X38.6606 Y14.3361
G01 X38.7063 Y14.3338
G01 X40.8818 Y14.3338
G01 X40.8829 Y14.3262
G01 X40.8844 Y14.3201
G01 X40.8886 Y14.3084
G01 X40.8945 Y14.2973
G01 X40.8980 Y14.2922
G01 X40.9033 Y14.2857
G01 X41.2110 Y13.9779
G01 X41.2172 Y13.9723
G01 X41.2221 Y13.9685
G01 X41.2292 Y13.9640
G01 X41.2366 Y13.9603
G01 X41.2444 Y13.9573
G01 X41.2504 Y13.9555
G01 X41.2565 Y13.9543
G01 X41.2648 Y13.9532
G01 X43.2015 Y13.9530
G01 X43.2139 Y13.9539
G01 X43.2261 Y13.9567
G01 X43.2321 Y13.9587
G01 X43.2397 Y13.9621
G01 X43.2504 Y13.9685
G01 X43.2601 Y13.9764
G01 X43.5693 Y14.2857
G01 X43.5733 Y14.2905
G01 X43.5781 Y14.2973
G01 X43.5822 Y14.3046
G01 X43.5856 Y14.3122
G01 X43.5876 Y14.3181
G01 X43.5896 Y14.3262
G01 X43.5909 Y14.3345
G01 X43.5912 Y14.3407
G01 X43.5913 Y15.2572
G01 X43.5906 Y15.2676
G01 X43.5887 Y15.2779
G01 X43.5856 Y15.2878
G01 X43.5812 Y15.2973
G01 X43.5758 Y15.3061
G01 X43.5678 Y15.3158
G01 X43.2616 Y15.6221
G01 X43.2521 Y15.6303
G01 X43.2415 Y15.6370
G01 X43.2301 Y15.6420
G01 X43.2201 Y15.6449
G01 X43.2119 Y15.6464
G01 X43.2015 Y15.6470
G01 X41.2711 Y15.6470
G01 X41.2648 Y15.6468
G01 X41.2565 Y15.6457
G01 X41.2444 Y15.6427
G01 X41.2329 Y15.6379
G01 X41.2221 Y15.6315
G01 X41.2125 Y15.6236
G01 X40.9062 Y15.3173
G01 X40.9006 Y15.3111
G01 X40.8968 Y15.3061
G01 X40.8934 Y15.3009
G01 X40.8894 Y15.2935
G01 X40.8870 Y15.2878
G01 X40.8844 Y15.2799
G01 X40.8829 Y15.2738
G01 X40.8818 Y15.2662
G01 X38.8994 Y15.2662
G01 X38.2059 Y15.9596
G01 X38.1736 Y15.9890
G01 X38.1387 Y16.0152
G01 X38.1318 Y16.0199
G01 X38.0960 Y16.0411
G01 X38.0547 Y16.0607
G01 X38.0156 Y16.0748
G01 X38.0076 Y16.0772
G01 X37.9672 Y16.0872
G01 X37.9240 Y16.0937
G01 X37.8763 Y16.0962
G01 X32.5494 Y16.0962
G01 X31.5525 Y17.0931
G01 X31.5525 Y26.6319
G01 X32.7844 Y27.8638
G01 X37.6051 Y27.8638
G01 X37.6051 Y23.8431
G01 X36.2082 Y22.4462
G01 X35.5244 Y22.4462
G01 X35.4854 Y22.4891
G01 X35.4362 Y22.5338
G01 X35.4297 Y22.5391
G01 X35.3797 Y22.5763
G01 X35.3728 Y22.5809
G01 X35.3157 Y22.6150
G01 X35.2518 Y22.6452
G01 X35.1892 Y22.6677
G01 X35.1813 Y22.6701
G01 X35.1167 Y22.6862
G01 X35.0510 Y22.6960
G01 X35.0427 Y22.6968
G01 X34.9763 Y22.7000
G01 X34.9036 Y22.6963
G01 X34.8358 Y22.6862
G01 X34.7713 Y22.6701
G01 X34.7633 Y22.6677
G01 X34.7007 Y22.6452
G01 X34.6369 Y22.6150
G01 X34.5798 Y22.5809
G01 X34.5729 Y22.5763
G01 X34.5195 Y22.5366
G01 X34.4672 Y22.4891
G01 X34.4224 Y22.4399
G01 X34.4171 Y22.4335
G01 X34.3776 Y22.3800
G01 X34.3433 Y22.3230
G01 X34.3394 Y22.3157
G01 X34.3111 Y22.2555
G01 X34.2879 Y22.1910
G01 X34.2701 Y22.1205
G01 X34.2603 Y22.0547
G01 X34.2594 Y22.0464
G01 X34.2564 Y21.9842
G01 X34.2564 Y21.9758
G01 X34.2597 Y21.9094
G01 X34.2701 Y21.8395
G01 X34.2873 Y21.7710
G01 X34.3111 Y21.7045
G01 X34.3413 Y21.6406
G01 X34.3776 Y21.5800
G01 X34.4197 Y21.5232
G01 X34.4643 Y21.4739
G01 X34.4702 Y21.4680
G01 X34.5164 Y21.4262
G01 X34.5228 Y21.4209
G01 X34.5763 Y21.3813
G01 X34.6369 Y21.3450
G01 X34.7007 Y21.3148
G01 X34.7673 Y21.2910
G01 X34.8358 Y21.2738
G01 X34.9016 Y21.2640
G01 X34.9099 Y21.2632
G01 X34.9721 Y21.2601
G01 X34.9804 Y21.2601
G01 X35.0468 Y21.2635
G01 X35.1167 Y21.2738
G01 X35.1853 Y21.2910
G01 X35.2479 Y21.3133
G01 X35.2556 Y21.3165
G01 X35.3120 Y21.3431
G01 X35.3193 Y21.3471
G01 X35.3763 Y21.3813
G01 X35.4330 Y21.4234
G01 X35.4854 Y21.4709
G01 X35.5244 Y21.5138
G00 Z1.0000
G00 X34.4281 Y24.0538
G01 F60.00
G01 Z-0.2706
G01 F120.00
G01 X34.4672 Y24.0109
G01 X34.5195 Y23.9634
G01 X34.5763 Y23.9213
G01 X34.6369 Y23.8850
G01 X34.7007 Y23.8548
G01 X34.7673 Y23.8310
G01 X34.8358 Y23.8138
G01 X34.9057 Y23.8035
G01 X34.9763 Y23.8000
G01 X35.0468 Y23.8035
G01 X35.1167 Y23.8138
G01 X35.1853 Y23.8310
G01 X35.2518 Y23.8548
G01 X35.3157 Y23.8850
G01 X35.3763 Y23.9213
G01 X35.4330 Y23.9634
G01 X35.4854 Y24.0109
G01 X35.5328 Y24.0632
G01 X35.5749 Y24.1200
G01 X35.6113 Y24.1806
G01 X35.6415 Y24.2445
G01 X35.6653 Y24.3110
G01 X35.6824 Y24.3795
G01 X35.6928 Y24.4494
G01 X35.6963 Y24.5200
G01 X35.6928 Y24.5906
G01 X35.6824 Y24.6605
G01 X35.6653 Y24.7290
G01 X35.6415 Y24.7955
G01 X35.6113 Y24.8594
G01 X35.5749 Y24.9200
G01 X35.5328 Y24.9768
G01 X35.4854 Y25.0291
G01 X35.4330 Y25.0766
G01 X35.3763 Y25.1187
G01 X35.3193 Y25.1529
G01 X35.3120 Y25.1569
G01 X35.2556 Y25.1835
G01 X35.2479 Y25.1867
G01 X35.1853 Y25.2090
G01 X35.1208 Y25.2253
G01 X35.1126 Y25.2269
G01 X35.0468 Y25.2365
G01 X34.9763 Y25.2400
G01 X34.9057 Y25.2365
G01 X34.8358 Y25.2262
G01 X34.7673 Y25.2090
G01 X34.7046 Y25.1867
G01 X34.6969 Y25.1835
G01 X34.6369 Y25.1550
G01 X34.5798 Y25.1209
G01 X34.5729 Y25.1163
G01 X34.5228 Y25.0791
G01 X34.5164 Y25.0738
G01 X34.4672 Y25.0291
G01 X34.4281 Y24.9862
G01 X32.3563 Y24.9862
G01 X32.3106 Y24.9839
G01 X32.2653 Y24.9772
G01 X32.2250 Y24.9672
G01 X32.2170 Y24.9648
G01 X32.1779 Y24.9507
G01 X32.1365 Y24.9311
G01 X32.1008 Y24.9099
G01 X32.0939 Y24.9052
G01 X32.0638 Y24.8829
G01 X32.0574 Y24.8776
G01 X32.0266 Y24.8496
G01 X31.9959 Y24.8157
G01 X31.9687 Y24.7790
G01 X31.9472 Y24.7434
G01 X31.9433 Y24.7360
G01 X31.9273 Y24.7022
G01 X31.9241 Y24.6945
G01 X31.9102 Y24.6553
G01 X31.8995 Y24.6130
G01 X31.8923 Y24.5657
G01 X31.8901 Y24.5200
G01 X31.8901 Y19.4400
G01 X31.8923 Y19.3943
G01 X31.8990 Y19.3491
G01 X31.9090 Y19.3087
G01 X31.9115 Y19.3007
G01 X31.9256 Y19.2616
G01 X31.9451 Y19.2202
G01 X31.9664 Y19.1845
G01 X31.9711 Y19.1776
G01 X31.9959 Y19.1443
G01 X32.0252 Y19.1118
G01 X33.2966 Y17.8404
G01 X33.3322 Y17.8083
G01 X33.3673 Y17.7824
G01 X33.4065 Y17.7589
G01 X33.4479 Y17.7393
G01 X33.4870 Y17.7252
G01 X33.4950 Y17.7228
G01 X33.5313 Y17.7137
G01 X33.5394 Y17.7121
G01 X33.5806 Y17.7061
G01 X33.6242 Y17.7038
G01 X38.9532 Y17.7038
G01 X39.6481 Y17.0089
G01 X39.6805 Y16.9796
G01 X39.7139 Y16.9548
G01 X39.7208 Y16.9501
G01 X39.7565 Y16.9289
G01 X39.7979 Y16.9093
G01 X39.8370 Y16.8952
G01 X39.8450 Y16.8928
G01 X39.8853 Y16.8828
G01 X39.9264 Y16.8766
G01 X39.9347 Y16.8757
G01 X39.9721 Y16.8739
G01 X40.8818 Y16.8738
G01 X40.8829 Y16.8662
G01 X40.8844 Y16.8601
G01 X40.8886 Y16.8484
G01 X40.8945 Y16.8373
G01 X40.8980 Y16.8322
G01 X40.9033 Y16.8257
G01 X41.2110 Y16.5179
G01 X41.2156 Y16.5136
G01 X41.2221 Y16.5085
G01 X41.2274 Y16.5051
G01 X41.2347 Y16.5012
G01 X41.2424 Y16.4980
G01 X41.2484 Y16.4961
G01 X41.2565 Y16.4943
G01 X41.2627 Y16.4934
G01 X41.2711 Y16.4930
G01 X43.2015 Y16.4930
G01 X43.2139 Y16.4939
G01 X43.2261 Y16.4967
G01 X43.2378 Y16.5012
G01 X43.2487 Y16.5073
G01 X43.2538 Y16.5110
G01 X43.2601 Y16.5164
G01 X43.5664 Y16.8227
G01 X43.5733 Y16.8305
G01 X43.5781 Y16.8373
G01 X43.5812 Y16.8427
G01 X43.5863 Y16.8542
G01 X43.5896 Y16.8662
G01 X43.5909 Y16.8745
G01 X43.5912 Y16.8807
G01 X43.5913 Y17.7972
G01 X43.5904 Y17.8097
G01 X43.5882 Y17.8199
G01 X43.5848 Y17.8297
G01 X43.5802 Y17.8391
G01 X43.5745 Y17.8478
G01 X43.5678 Y17.8558
G01 X43.2616 Y18.1621
G01 X43.2521 Y18.1703
G01 X43.2452 Y18.1749
G01 X43.2397 Y18.1779
G01 X43.2281 Y18.1827
G01 X43.2160 Y18.1857
G01 X43.2098 Y18.1866
G01 X43.2015 Y18.1870
G01 X41.2711 Y18.1870
G01 X41.2607 Y18.1864
G01 X41.2545 Y18.1854
G01 X41.2464 Y18.1833
G01 X41.2347 Y18.1788
G01 X41.2239 Y18.1727
G01 X41.2140 Y18.1650
G01 X40.9062 Y17.8573
G01 X40.9006 Y17.8511
G01 X40.8968 Y17.8461
G01 X40.8934 Y17.8409
G01 X40.8894 Y17.8335
G01 X40.8862 Y17.8258
G01 X40.8844 Y17.8199
G01 X40.8829 Y17.8138
G01 X40.8818 Y17.8062
G01 X40.1694 Y17.8062
G01 X39.4759 Y18.4996
G01 X39.4436 Y18.5290
G01 X39.4087 Y18.5552
G01 X39.4018 Y18.5599
G01 X39.3660 Y18.5811
G01 X39.3247 Y18.6007
G01 X39.2856 Y18.6148
G01 X39.2776 Y18.6172
G01 X39.2372 Y18.6272
G01 X39.1940 Y18.6337
G01 X39.1463 Y18.6362
G01 X33.8194 Y18.6362
G01 X32.8225 Y19.6331
G01 X32.8225 Y24.0538
G01 X34.4281 Y24.0538
G00 Z1.0000
G00 X35.5244 Y26.5938
G01 F60.00
G01 Z-0.2706
G01 F120.00
G01 X36.3351 Y26.5938
G01 X36.3351 Y24.7131
G01 X35.3382 Y23.7162
G01 X33.6263 Y23.7162
G01 X33.5806 Y23.7139
G01 X33.5353 Y23.7072
G01 X33.4909 Y23.6961
G01 X33.4479 Y23.6807
G01 X33.4102 Y23.6630
G01 X33.4029 Y23.6591
G01 X33.3708 Y23.6399
G01 X33.3639 Y23.6352
G01 X33.3305 Y23.6104
G01 X33.2996 Y23.5825
G01 X33.2938 Y23.5766
G01 X33.2659 Y23.5457
G01 X33.2398 Y23.5107
G01 X33.2172 Y23.4734
G01 X33.2133 Y23.4660
G01 X33.1956 Y23.4284
G01 X33.1802 Y23.3853
G01 X33.1700 Y23.3450
G01 X33.1683 Y23.3368
G01 X33.1623 Y23.2957
G01 X33.1601 Y23.2521
G01 X33.1601 Y20.7079
G01 X33.1623 Y20.6643
G01 X33.1690 Y20.6191
G01 X33.1802 Y20.5747
G01 X33.1941 Y20.5355
G01 X33.1973 Y20.5278
G01 X33.2151 Y20.4902
G01 X33.2364 Y20.4545
G01 X33.2411 Y20.4476
G01 X33.2659 Y20.4143
G01 X33.2938 Y20.3834
G01 X33.2996 Y20.3775
G01 X33.3274 Y20.3524
G01 X33.3338 Y20.3471
G01 X33.3673 Y20.3224
G01 X33.4029 Y20.3009
G01 X33.4102 Y20.2970
G01 X33.4441 Y20.2810
G01 X33.4518 Y20.2778
G01 X33.4909 Y20.2639
G01 X33.5353 Y20.2528
G01 X33.5806 Y20.2461
G01 X33.6242 Y20.2438
G01 X38.3182 Y20.2438
G01 X39.0131 Y19.5489
G01 X39.0455 Y19.5196
G01 X39.0823 Y19.4924
G01 X39.1215 Y19.4689
G01 X39.1629 Y19.4493
G01 X39.2059 Y19.4339
G01 X39.2503 Y19.4228
G01 X39.2956 Y19.4161
G01 X39.3392 Y19.4138
G01 X40.8818 Y19.4138
G01 X40.8829 Y19.4062
G01 X40.8844 Y19.4001
G01 X40.8886 Y19.3884
G01 X40.8945 Y19.3773
G01 X40.8980 Y19.3722
G01 X40.9033 Y19.3657
G01 X41.2110 Y19.0579
G01 X41.2172 Y19.0523
G01 X41.2221 Y19.0485
G01 X41.2274 Y19.0451
G01 X41.2347 Y19.0412
G01 X41.2424 Y19.0380
G01 X41.2484 Y19.0361
G01 X41.2565 Y19.0343
G01 X41.2627 Y19.0334
G01 X41.2711 Y19.0330
G01 X43.2015 Y19.0330
G01 X43.2139 Y19.0339
G01 X43.2261 Y19.0367
G01 X43.2378 Y19.0412
G01 X43.2434 Y19.0440
G01 X43.2504 Y19.0485
G01 X43.2601 Y19.0564
G01 X43.5693 Y19.3657
G01 X43.5733 Y19.3705
G01 X43.5781 Y19.3773
G01 X43.5822 Y19.3846
G01 X43.5856 Y19.3922
G01 X43.5876 Y19.3981
G01 X43.5896 Y19.4062
G01 X43.5909 Y19.4145
G01 X43.5912 Y19.4207
G01 X43.5913 Y20.3372
G01 X43.5906 Y20.3476
G01 X43.5887 Y20.3579
G01 X43.5856 Y20.3678
G01 X43.5812 Y20.3773
G01 X43.5745 Y20.3878
G01 X43.5678 Y20.3958
G01 X43.2616 Y20.7021
G01 X43.2521 Y20.7103
G01 X43.2415 Y20.7170
G01 X43.2301 Y20.7220
G01 X43.2181 Y20.7254
G01 X43.2098 Y20.7266
G01 X43.2015 Y20.7270
G01 X41.2711 Y20.7270
G01 X41.2627 Y20.7266
G01 X41.2545 Y20.7254
G01 X41.2484 Y20.7239
G01 X41.2424 Y20.7220
G01 X41.2347 Y20.7188
G01 X41.2292 Y20.7160
G01 X41.2221 Y20.7115
G01 X41.2156 Y20.7064
G01 X41.2110 Y20.7021
G01 X40.9033 Y20.3943
G01 X40.8956 Y20.3844
G01 X40.8913 Y20.3773
G01 X40.8886 Y20.3716
G01 X40.8844 Y20.3599
G01 X40.8829 Y20.3538
G01 X40.8818 Y20.3462
G01 X39.5344 Y20.3462
G01 X38.8409 Y21.0396
G01 X38.8086 Y21.0690
G01 X38.7737 Y21.0952
G01 X38.7668 Y21.0999
G01 X38.7310 Y21.1211
G01 X38.6935 Y21.1390
G01 X38.6858 Y21.1422
G01 X38.6466 Y21.1561
G01 X38.6063 Y21.1663
G01 X38.5981 Y21.1679
G01 X38.5570 Y21.1739
G01 X38.5113 Y21.1762
G01 X34.0925 Y21.1762
G01 X34.0925 Y22.7838
G01 X35.5334 Y22.7838
G01 X35.5728 Y22.7857
G01 X35.5811 Y22.7866
G01 X35.6222 Y22.7928
G01 X35.6626 Y22.8028
G01 X35.6706 Y22.8052
G01 X35.7097 Y22.8193
G01 X35.7492 Y22.8379
G01 X35.7868 Y22.8601
G01 X35.7937 Y22.8648
G01 X35.8270 Y22.8896
G01 X35.8609 Y22.9204
G01 X37.1324 Y24.1918
G01 X37.1589 Y24.2211
G01 X37.1642 Y24.2275
G01 X37.1889 Y24.2610
G01 X37.2104 Y24.2966
G01 X37.2143 Y24.3040
G01 X37.2320 Y24.3416
G01 X37.2480 Y24.3867
G01 X37.2585 Y24.4291
G01 X37.2647 Y24.4702
G01 X37.2655 Y24.4785
G01 X37.2675 Y24.5200
G01 X37.2674 Y27.0621
G01 X37.2652 Y27.1057
G01 X37.2592 Y27.1468
G01 X37.2576 Y27.1550
G01 X37.2485 Y27.1913
G01 X37.2461 Y27.1993
G01 X37.2320 Y27.2384
G01 X37.2124 Y27.2798
G01 X37.1889 Y27.3190
G01 X37.1629 Y27.3541
G01 X37.1309 Y27.3896
G01 X37.0970 Y27.4204
G01 X37.0603 Y27.4476
G01 X37.0210 Y27.4711
G01 X36.9797 Y27.4907
G01 X36.9366 Y27.5061
G01 X36.8922 Y27.5172
G01 X36.8470 Y27.5239
G01 X36.8013 Y27.5262
G01 X35.5244 Y27.5262
G01 X35.4854 Y27.5691
G01 X35.4330 Y27.6166
G01 X35.3763 Y27.6587
G01 X35.3157 Y27.6950
G01 X35.2518 Y27.7252
G01 X35.1853 Y27.7490
G01 X35.1167 Y27.7662
G01 X35.0510 Y27.7760
G01 X35.0427 Y27.7768
G01 X34.9763 Y27.7800
G01 X34.9099 Y27.7768
G01 X34.9016 Y27.7760
G01 X34.8399 Y27.7669
G01 X34.8317 Y27.7653
G01 X34.7673 Y27.7490
G01 X34.7007 Y27.7252
G01 X34.6369 Y27.6950
G01 X34.5798 Y27.6609
G01 X34.5729 Y27.6563
G01 X34.5195 Y27.6166
G01 X34.4702 Y27.5720
G01 X34.4643 Y27.5661
G01 X34.4197 Y27.5168
G01 X34.3776 Y27.4600
G01 X34.3413 Y27.3994
G01 X34.3111 Y27.3355
G01 X34.2873 Y27.2690
G01 X34.2701 Y27.2005
G01 X34.2597 Y27.1306
G01 X34.2563 Y27.0600
G01 X34.2597 Y26.9894
G01 X34.2701 Y26.9195
G01 X34.2873 Y26.8510
G01 X34.3111 Y26.7845
G01 X34.3413 Y26.7206
G01 X34.3776 Y26.6600
G01 X34.4197 Y26.6032
G01 X34.4672 Y26.5509
G01 X34.5195 Y26.5034
G01 X34.5763 Y26.4613
G01 X34.6369 Y26.4250
G01 X34.7007 Y26.3948
G01 X34.7673 Y26.3710
G01 X34.8358 Y26.3538
G01 X34.9057 Y26.3435
G01 X34.9763 Y26.3400
G01 X35.0468 Y26.3435
G01 X35.1167 Y26.3538
G01 X35.1853 Y26.3710
G01 X35.2518 Y26.3948
G01 X35.3157 Y26.4250
G01 X35.3763 Y26.4613
G01 X35.4330 Y26.5034
G01 X35.4854 Y26.5509
G01 X35.5244 Y26.5938
G00 Z1.0000
G00 X35.5244 Y29.1338
G01 F60.00
G01 Z-0.2706
G01 F120.00
G01 X38.8751 Y29.1338
G01 X38.8751 Y22.4179
G01 X38.8773 Y22.3743
G01 X38.8840 Y22.3291
G01 X38.8952 Y22.2847
G01 X38.9091 Y22.2455
G01 X38.9123 Y22.2378
G01 X38.9301 Y22.2002
G01 X38.9514 Y22.1645
G01 X38.9561 Y22.1576
G01 X38.9783 Y22.1275
G01 X38.9836 Y22.1211
G01 X39.0116 Y22.0904
G01 X39.0424 Y22.0624
G01 X39.0488 Y22.0571
G01 X39.0789 Y22.0348
G01 X39.0858 Y22.0301
G01 X39.1215 Y22.0089
G01 X39.1629 Y21.9893
G01 X39.2059 Y21.9739
G01 X39.2463 Y21.9637
G01 X39.2544 Y21.9621
G01 X39.2914 Y21.9566
G01 X39.2997 Y21.9557
G01 X39.3413 Y21.9538
G01 X40.8818 Y21.9538
G01 X40.8829 Y21.9462
G01 X40.8844 Y21.9401
G01 X40.8886 Y21.9284
G01 X40.8945 Y21.9173
G01 X40.8980 Y21.9122
G01 X40.9033 Y21.9057
G01 X41.2110 Y21.5979
G01 X41.2172 Y21.5923
G01 X41.2239 Y21.5873
G01 X41.2310 Y21.5830
G01 X41.2385 Y21.5795
G01 X41.2444 Y21.5773
G01 X41.2525 Y21.5751
G01 X41.2607 Y21.5736
G01 X41.2690 Y21.5730
G01 X43.2015 Y21.5730
G01 X43.2139 Y21.5739
G01 X43.2261 Y21.5767
G01 X43.2378 Y21.5812
G01 X43.2434 Y21.5840
G01 X43.2504 Y21.5885
G01 X43.2601 Y21.5964
G01 X43.5693 Y21.9057
G01 X43.5733 Y21.9105
G01 X43.5781 Y21.9173
G01 X43.5822 Y21.9246
G01 X43.5856 Y21.9322
G01 X43.5876 Y21.9381
G01 X43.5896 Y21.9462
G01 X43.5909 Y21.9545
G01 X43.5912 Y21.9607
G01 X43.5913 Y22.8772
G01 X43.5906 Y22.8876
G01 X43.5887 Y22.8979
G01 X43.5848 Y22.9097
G01 X43.5802 Y22.9191
G01 X43.5733 Y22.9295
G01 X43.5664 Y22.9373
G01 X43.2601 Y23.2436
G01 X43.2521 Y23.2503
G01 X43.2415 Y23.2570
G01 X43.2321 Y23.2613
G01 X43.2221 Y23.2645
G01 X43.2119 Y23.2664
G01 X43.2015 Y23.2670
G01 X41.2711 Y23.2670
G01 X41.2627 Y23.2666
G01 X41.2545 Y23.2654
G01 X41.2484 Y23.2639
G01 X41.2424 Y23.2620
G01 X41.2347 Y23.2588
G01 X41.2292 Y23.2560
G01 X41.2221 Y23.2515
G01 X41.2156 Y23.2464
G01 X41.2110 Y23.2421
G01 X40.9033 Y22.9343
G01 X40.8956 Y22.9244
G01 X40.8913 Y22.9173
G01 X40.8886 Y22.9116
G01 X40.8844 Y22.8999
G01 X40.8829 Y22.8938
G01 X40.8818 Y22.8862
G01 X39.8075 Y22.8862
G01 X39.8074 Y29.6021
G01 X39.8052 Y29.6457
G01 X39.7985 Y29.6909
G01 X39.7874 Y29.7353
G01 X39.7735 Y29.7745
G01 X39.7703 Y29.7822
G01 X39.7524 Y29.8198
G01 X39.7311 Y29.8555
G01 X39.7265 Y29.8624
G01 X39.7016 Y29.8957
G01 X39.6738 Y29.9266
G01 X39.6679 Y29.9325
G01 X39.6402 Y29.9576
G01 X39.6337 Y29.9629
G01 X39.6003 Y29.9876
G01 X39.5647 Y30.0091
G01 X39.5573 Y30.0130
G01 X39.5235 Y30.0290
G01 X39.5158 Y30.0322
G01 X39.4766 Y30.0461
G01 X39.4322 Y30.0572
G01 X39.3870 Y30.0639
G01 X39.3434 Y30.0662
G01 X35.5244 Y30.0662
G01 X35.4854 Y30.1091
G01 X35.4362 Y30.1538
G01 X35.4297 Y30.1591
G01 X35.3797 Y30.1963
G01 X35.3728 Y30.2009
G01 X35.3157 Y30.2350
G01 X35.2556 Y30.2635
G01 X35.2479 Y30.2667
G01 X35.1853 Y30.2890
G01 X35.1167 Y30.3062
G01 X35.0468 Y30.3165
G01 X34.9784 Y30.3200
G01 X34.9057 Y30.3165
G01 X34.8358 Y30.3062
G01 X34.7673 Y30.2890
G01 X34.7046 Y30.2667
G01 X34.6969 Y30.2635
G01 X34.6406 Y30.2369
G01 X34.6332 Y30.2329
G01 X34.5763 Y30.1987
G01 X34.5228 Y30.1591
G01 X34.5164 Y30.1538
G01 X34.4672 Y30.1091
G01 X34.4197 Y30.0568
G01 X34.3776 Y30.0000
G01 X34.3413 Y29.9394
G01 X34.3111 Y29.8755
G01 X34.2873 Y29.8090
G01 X34.2701 Y29.7405
G01 X34.2597 Y29.6706
G01 X34.2563 Y29.6000
G01 X34.2597 Y29.5294
G01 X34.2701 Y29.4595
G01 X34.2873 Y29.3910
G01 X34.3111 Y29.3245
G01 X34.3413 Y29.2606
G01 X34.3776 Y29.2000
G01 X34.4197 Y29.1432
G01 X34.4672 Y29.0909
G01 X34.5195 Y29.0434
G01 X34.5763 Y29.0013
G01 X34.6369 Y28.9650
G01 X34.7007 Y28.9348
G01 X34.7673 Y28.9110
G01 X34.8358 Y28.8938
G01 X34.9057 Y28.8835
G01 X34.9763 Y28.8800
G01 X35.0468 Y28.8835
G01 X35.1167 Y28.8938
G01 X35.1853 Y28.9110
G01 X35.2518 Y28.9348
G01 X35.3157 Y28.9650
G01 X35.3763 Y29.0013
G01 X35.4330 Y29.0434
G01 X35.4854 Y29.0909
G01 X35.5244 Y29.1338
G00 Z1.0000
G00 X35.5244 Y36.7538
G01 F60.00
G01 Z-0.2706
G01 F120.00
G01 X36.7701 Y36.7538
G01 X36.7701 Y35.8549
G01 X36.6951 Y35.8099
G01 X36.6217 Y35.7555
G01 X36.6152 Y35.7502
G01 X36.5506 Y35.6916
G01 X36.5447 Y35.6857
G01 X36.4834 Y35.6179
G01 X36.4264 Y35.5411
G01 X36.3773 Y35.4591
G01 X36.3381 Y35.3765
G01 X36.3349 Y35.3688
G01 X36.3042 Y35.2827
G01 X36.2819 Y35.1941
G01 X36.2803 Y35.1859
G01 X36.2670 Y35.0955
G01 X36.2623 Y35.0000
G01 X36.2670 Y34.9045
G01 X36.2810 Y34.8100
G01 X36.3031 Y34.7213
G01 X36.3055 Y34.7133
G01 X36.3349 Y34.6312
G01 X36.3381 Y34.6235
G01 X36.3773 Y34.5409
G01 X36.4242 Y34.4624
G01 X36.4288 Y34.4555
G01 X36.4834 Y34.3821
G01 X36.5476 Y34.3113
G01 X36.6184 Y34.2471
G01 X36.6951 Y34.1901
G01 X36.7771 Y34.1410
G01 X36.8635 Y34.1001
G01 X36.9535 Y34.0679
G01 X37.0463 Y34.0447
G01 X37.1408 Y34.0307
G01 X37.2363 Y34.0260
G01 X37.3317 Y34.0307
G01 X37.4263 Y34.0447
G01 X37.5190 Y34.0679
G01 X37.6090 Y34.1001
G01 X37.6954 Y34.1410
G01 X37.7774 Y34.1901
G01 X37.8542 Y34.2471
G01 X37.9250 Y34.3113
G01 X37.9892 Y34.3821
G01 X38.0437 Y34.4555
G01 X38.0484 Y34.4624
G01 X38.0932 Y34.5372
G01 X38.0971 Y34.5446
G01 X38.1361 Y34.6273
G01 X38.1670 Y34.7133
G01 X38.1694 Y34.7213
G01 X38.1916 Y34.8100
G01 X38.2056 Y34.9045
G01 X38.2103 Y35.0000
G01 X38.2056 Y35.0955
G01 X38.1923 Y35.1859
G01 X38.1906 Y35.1941
G01 X38.1683 Y35.2827
G01 X38.1376 Y35.3688
G01 X38.1344 Y35.3765
G01 X38.0953 Y35.4591
G01 X38.0461 Y35.5411
G01 X37.9892 Y35.6179
G01 X37.9279 Y35.6857
G01 X37.9220 Y35.6916
G01 X37.8573 Y35.7502
G01 X37.8509 Y35.7555
G01 X37.7774 Y35.8099
G01 X37.7025 Y35.8549
G01 X37.7025 Y37.2200
G01 X37.7004 Y37.2636
G01 X37.6935 Y37.3109
G01 X37.6835 Y37.3513
G01 X37.6811 Y37.3593
G01 X37.6685 Y37.3945
G01 X37.6653 Y37.4022
G01 X37.6474 Y37.4398
G01 X37.6239 Y37.4790
G01 X37.5966 Y37.5157
G01 X37.5659 Y37.5496
G01 X37.5320 Y37.5804
G01 X37.4953 Y37.6076
G01 X37.4560 Y37.6311
G01 X37.4185 Y37.6490
G01 X37.4108 Y37.6522
G01 X37.3756 Y37.6648
G01 X37.3676 Y37.6672
G01 X37.3272 Y37.6772
G01 X37.2799 Y37.6841
G01 X37.2363 Y37.6862
G01 X35.5244 Y37.6862
G01 X35.4854 Y37.7291
G01 X35.4362 Y37.7738
G01 X35.4297 Y37.7791
G01 X35.3797 Y37.8163
G01 X35.3728 Y37.8209
G01 X35.3157 Y37.8550
G01 X35.2556 Y37.8835
G01 X35.2479 Y37.8867
G01 X35.1853 Y37.9090
G01 X35.1167 Y37.9262
G01 X35.0468 Y37.9365
G01 X34.9804 Y37.9399
G01 X34.9721 Y37.9399
G01 X34.9057 Y37.9365
G01 X34.8358 Y37.9262
G01 X34.7673 Y37.9090
G01 X34.7046 Y37.8867
G01 X34.6969 Y37.8835
G01 X34.6369 Y37.8550
G01 X34.5798 Y37.8209
G01 X34.5729 Y37.8163
G01 X34.5228 Y37.7791
G01 X34.5164 Y37.7738
G01 X34.4672 Y37.7291
G01 X34.4197 Y37.6768
G01 X34.3776 Y37.6200
G01 X34.3413 Y37.5594
G01 X34.3111 Y37.4955
G01 X34.2873 Y37.4290
G01 X34.2701 Y37.3605
G01 X34.2597 Y37.2906
G01 X34.2563 Y37.2200
G01 X34.2597 Y37.1494
G01 X34.2701 Y37.0795
G01 X34.2873 Y37.0110
G01 X34.3111 Y36.9445
G01 X34.3413 Y36.8806
G01 X34.3776 Y36.8200
G01 X34.4197 Y36.7632
G01 X34.4672 Y36.7109
G01 X34.5195 Y36.6634
G01 X34.5763 Y36.6213
G01 X34.6369 Y36.5850
G01 X34.7007 Y36.5548
G01 X34.7673 Y36.5310
G01 X34.8358 Y36.5138
G01 X34.9057 Y36.5035
G01 X34.9763 Y36.5000
G01 X35.0468 Y36.5035
G01 X35.1167 Y36.5138
G01 X35.1853 Y36.5310
G01 X35.2518 Y36.5548
G01 X35.3157 Y36.5850
G01 X35.3763 Y36.6213
G01 X35.4330 Y36.6634
G01 X35.4854 Y36.7109
G01 X35.5244 Y36.7538
G00 Z1.0000
G00 X35.0342 Y40.4773
G01 F60.00
G01 Z-0.2706
G01 F120.00
G01 X34.9763 Y40.4800
G01 X34.9057 Y40.4765
G01 X34.8358 Y40.4662
G01 X34.7673 Y40.4490
G01 X34.7007 Y40.4252
G01 X34.6369 Y40.3950
G01 X34.5763 Y40.3587
G01 X34.5195 Y40.3166
G01 X34.4672 Y40.2691
G01 X34.4197 Y40.2168
G01 X34.3776 Y40.1600
G01 X34.3413 Y40.0994
G01 X34.3111 Y40.0355
G01 X34.2873 Y39.9690
G01 X34.2701 Y39.9005
G01 X34.2597 Y39.8306
G01 X34.2563 Y39.7600
G01 X34.2597 Y39.6894
G01 X34.2701 Y39.6195
G01 X34.2873 Y39.5510
G01 X34.3111 Y39.4845
G01 X34.3413 Y39.4206
G01 X34.3776 Y39.3600
G01 X34.4197 Y39.3032
G01 X34.4672 Y39.2509
G01 X34.5195 Y39.2034
G01 X34.5763 Y39.1613
G01 X34.6369 Y39.1250
G01 X34.7007 Y39.0948
G01 X34.7673 Y39.0710
G01 X34.8358 Y39.0538
G01 X34.9057 Y39.0435
G01 X34.9763 Y39.0400
G01 X35.0468 Y39.0435
G01 X35.1167 Y39.0538
G01 X35.1813 Y39.0699
G01 X35.1892 Y39.0723
G01 X35.2518 Y39.0948
G01 X35.3120 Y39.1231
G01 X35.3193 Y39.1271
G01 X35.3728 Y39.1591
G01 X35.3797 Y39.1637
G01 X35.4330 Y39.2034
G01 X35.4854 Y39.2509
G01 X35.5328 Y39.3032
G01 X35.5749 Y39.3600
G01 X35.6113 Y39.4206
G01 X35.6398 Y39.4807
G01 X35.6430 Y39.4884
G01 X35.6653 Y39.5510
G01 X35.6815 Y39.6155
G01 X35.6832 Y39.6236
G01 X35.6923 Y39.6853
G01 X35.6931 Y39.6936
G01 X35.6963 Y39.7600
G01 X35.6935 Y39.8180
G01 X37.5659 Y41.6904
G01 X37.5966 Y41.7243
G01 X37.6215 Y41.7576
G01 X37.6261 Y41.7645
G01 X37.6484 Y41.8021
G01 X37.6653 Y41.8378
G01 X37.6685 Y41.8455
G01 X37.6824 Y41.8847
G01 X37.6926 Y41.9250
G01 X37.6942 Y41.9332
G01 X37.7002 Y41.9743
G01 X37.7024 Y42.0179
G01 X37.7025 Y44.1451
G01 X37.7774 Y44.1901
G01 X37.8509 Y44.2445
G01 X37.8573 Y44.2498
G01 X37.9250 Y44.3113
G01 X37.9865 Y44.3789
G01 X37.9918 Y44.3854
G01 X38.0461 Y44.4589
G01 X38.0932 Y44.5372
G01 X38.0971 Y44.5446
G01 X38.1361 Y44.6273
G01 X38.1670 Y44.7133
G01 X38.1694 Y44.7213
G01 X38.1916 Y44.8100
G01 X38.2051 Y44.9004
G01 X38.2059 Y44.9087
G01 X38.2103 Y45.0000
G01 X38.2059 Y45.0913
G01 X38.2051 Y45.0996
G01 X38.1916 Y45.1900
G01 X38.1683 Y45.2827
G01 X38.1376 Y45.3688
G01 X38.1344 Y45.3765
G01 X38.0953 Y45.4591
G01 X38.0484 Y45.5376
G01 X38.0437 Y45.5445
G01 X37.9892 Y45.6179
G01 X37.9279 Y45.6857
G01 X37.9220 Y45.6916
G01 X37.8542 Y45.7529
G01 X37.7808 Y45.8074
G01 X37.7739 Y45.8121
G01 X37.6936 Y45.8600
G01 X37.6090 Y45.8999
G01 X37.5190 Y45.9321
G01 X37.4263 Y45.9553
G01 X37.3317 Y45.9693
G01 X37.2363 Y45.9740
G01 X37.1408 Y45.9693
G01 X37.0463 Y45.9553
G01 X36.9535 Y45.9321
G01 X36.8635 Y45.8999
G01 X36.7771 Y45.8590
G01 X36.6951 Y45.8099
G01 X36.6184 Y45.7529
G01 X36.5476 Y45.6887
G01 X36.4834 Y45.6179
G01 X36.4264 Y45.5411
G01 X36.3763 Y45.4573
G01 X36.3364 Y45.3727
G01 X36.3042 Y45.2827
G01 X36.2810 Y45.1900
G01 X36.2670 Y45.0955
G01 X36.2623 Y45.0000
G01 X36.2670 Y44.9045
G01 X36.2810 Y44.8100
G01 X36.3042 Y44.7173
G01 X36.3364 Y44.6273
G01 X36.3773 Y44.5409
G01 X36.4264 Y44.4589
G01 X36.4834 Y44.3821
G01 X36.5476 Y44.3113
G01 X36.6184 Y44.2471
G01 X36.6951 Y44.1901
G01 X36.7701 Y44.1451
G01 X36.7701 Y42.2131
G01 X35.0342 Y40.4773
G00 Z1.0000
G00 X34.2564 Y42.3042
G01 F60.00
G01 Z-0.2706
G01 F120.00
G01 X34.2564 Y42.2958
G01 X34.2597 Y42.2294
G01 X34.2701 Y42.1595
G01 X34.2873 Y42.0910
G01 X34.3111 Y42.0245
G01 X34.3413 Y41.9606
G01 X34.3776 Y41.9000
G01 X34.4197 Y41.8432
G01 X34.4672 Y41.7909
G01 X34.5195 Y41.7434
G01 X34.5763 Y41.7013
G01 X34.6369 Y41.6650
G01 X34.7007 Y41.6348
G01 X34.7673 Y41.6110
G01 X34.8358 Y41.5938
G01 X34.9057 Y41.5835
G01 X34.9763 Y41.5800
G01 X35.0468 Y41.5835
G01 X35.1167 Y41.5938
G01 X35.1853 Y41.6110
G01 X35.2518 Y41.6348
G01 X35.3157 Y41.6650
G01 X35.3763 Y41.7013
G01 X35.4330 Y41.7434
G01 X35.4854 Y41.7909
G01 X35.5328 Y41.8432
G01 X35.5749 Y41.9000
G01 X35.6113 Y41.9606
G01 X35.6415 Y42.0245
G01 X35.6653 Y42.0910
G01 X35.6824 Y42.1595
G01 X35.6928 Y42.2294
G01 X35.6963 Y42.3000
G01 X35.6928 Y42.3706
G01 X35.6824 Y42.4405
G01 X35.6653 Y42.5090
G01 X35.6415 Y42.5755
G01 X35.6113 Y42.6394
G01 X35.5749 Y42.7000
G01 X35.5328 Y42.7568
G01 X35.4854 Y42.8091
G01 X35.4330 Y42.8566
G01 X35.3763 Y42.8987
G01 X35.3157 Y42.9350
G01 X35.2518 Y42.9652
G01 X35.1853 Y42.9890
G01 X35.1167 Y43.0062
G01 X35.0468 Y43.0165
G01 X34.9763 Y43.0200
G01 X34.9057 Y43.0165
G01 X34.8358 Y43.0062
G01 X34.7673 Y42.9890
G01 X34.7007 Y42.9652
G01 X34.6369 Y42.9350
G01 X34.5763 Y42.8987
G01 X34.5195 Y42.8566
G01 X34.4672 Y42.8091
G01 X34.4197 Y42.7568
G01 X34.3776 Y42.7000
G01 X34.3413 Y42.6394
G01 X34.3111 Y42.5755
G01 X34.2873 Y42.5090
G01 X34.2701 Y42.4405
G01 X34.2597 Y42.3706
G01 X34.2564 Y42.3042
G00 Z1.0000
G00 X34.2564 Y44.8442
G01 F60.00
G01 Z-0.2706
G01 F120.00
G01 X34.2564 Y44.8358
G01 X34.2597 Y44.7694
G01 X34.2701 Y44.6995
G01 X34.2873 Y44.6310
G01 X34.3111 Y44.5645
G01 X34.3413 Y44.5006
G01 X34.3776 Y44.4400
G01 X34.4197 Y44.3832
G01 X34.4672 Y44.3309
G01 X34.5195 Y44.2834
G01 X34.5763 Y44.2413
G01 X34.6369 Y44.2050
G01 X34.7007 Y44.1748
G01 X34.7673 Y44.1510
G01 X34.8358 Y44.1338
G01 X34.9057 Y44.1235
G01 X34.9763 Y44.1200
G01 X35.0468 Y44.1235
G01 X35.1167 Y44.1338
G01 X35.1853 Y44.1510
G01 X35.2518 Y44.1748
G01 X35.3157 Y44.2050
G01 X35.3763 Y44.2413
G01 X35.4330 Y44.2834
G01 X35.4854 Y44.3309
G01 X35.5328 Y44.3832
G01 X35.5749 Y44.4400
G01 X35.6113 Y44.5006
G01 X35.6415 Y44.5645
G01 X35.6653 Y44.6310
G01 X35.6824 Y44.6995
G01 X35.6928 Y44.7694
G01 X35.6963 Y44.8400
G01 X35.6928 Y44.9106
G01 X35.6824 Y44.9805
G01 X35.6653 Y45.0490
G01 X35.6415 Y45.1155
G01 X35.6113 Y45.1794
G01 X35.5749 Y45.2400
G01 X35.5328 Y45.2968
G01 X35.4854 Y45.3491
G01 X35.4330 Y45.3966
G01 X35.3763 Y45.4387
G01 X35.3157 Y45.4750
G01 X35.2518 Y45.5052
G01 X35.1853 Y45.5290
G01 X35.1167 Y45.5462
G01 X35.0468 Y45.5565
G01 X34.9763 Y45.5600
G01 X34.9057 Y45.5565
G01 X34.8358 Y45.5462
G01 X34.7673 Y45.5290
G01 X34.7007 Y45.5052
G01 X34.6369 Y45.4750
G01 X34.5763 Y45.4387
G01 X34.5195 Y45.3966
G01 X34.4672 Y45.3491
G01 X34.4197 Y45.2968
G01 X34.3776 Y45.2400
G01 X34.3413 Y45.1794
G01 X34.3111 Y45.1155
G01 X34.2873 Y45.0490
G01 X34.2701 Y44.9805
G01 X34.2597 Y44.9106
G01 X34.2564 Y44.8442
G00 Z1.0000
G00 X34.2564 Y47.3842
G01 F60.00
G01 Z-0.2706
G01 F120.00
G01 X34.2564 Y47.3758
G01 X34.2597 Y47.3094
G01 X34.2701 Y47.2395
G01 X34.2873 Y47.1710
G01 X34.3111 Y47.1045
G01 X34.3413 Y47.0406
G01 X34.3776 Y46.9800
G01 X34.4197 Y46.9232
G01 X34.4672 Y46.8709
G01 X34.5195 Y46.8234
G01 X34.5763 Y46.7813
G01 X34.6369 Y46.7450
G01 X34.7007 Y46.7148
G01 X34.7673 Y46.6910
G01 X34.8358 Y46.6738
G01 X34.9057 Y46.6635
G01 X34.9763 Y46.6600
G01 X35.0468 Y46.6635
G01 X35.1167 Y46.6738
G01 X35.1853 Y46.6910
G01 X35.2518 Y46.7148
G01 X35.3157 Y46.7450
G01 X35.3763 Y46.7813
G01 X35.4330 Y46.8234
G01 X35.4854 Y46.8709
G01 X35.5328 Y46.9232
G01 X35.5749 Y46.9800
G01 X35.6113 Y47.0406
G01 X35.6415 Y47.1045
G01 X35.6653 Y47.1710
G01 X35.6824 Y47.2395
G01 X35.6928 Y47.3094
G01 X35.6963 Y47.3800
G01 X35.6928 Y47.4506
G01 X35.6824 Y47.5205
G01 X35.6653 Y47.5890
G01 X35.6415 Y47.6555
G01 X35.6113 Y47.7194
G01 X35.5749 Y47.7800
G01 X35.5328 Y47.8368
G01 X35.4854 Y47.8891
G01 X35.4330 Y47.9366
G01 X35.3763 Y47.9787
G01 X35.3157 Y48.0150
G01 X35.2518 Y48.0452
G01 X35.1853 Y48.0690
G01 X35.1167 Y48.0862
G01 X35.0468 Y48.0965
G01 X34.9763 Y48.1000
G01 X34.9057 Y48.0965
G01 X34.8358 Y48.0862
G01 X34.7673 Y48.0690
G01 X34.7007 Y48.0452
G01 X34.6369 Y48.0150
G01 X34.5763 Y47.9787
G01 X34.5195 Y47.9366
G01 X34.4672 Y47.8891
G01 X34.4197 Y47.8368
G01 X34.3776 Y47.7800
G01 X34.3413 Y47.7194
G01 X34.3111 Y47.6555
G01 X34.2873 Y47.5890
G01 X34.2701 Y47.5205
G01 X34.2597 Y47.4506
G01 X34.2564 Y47.3842
G00 Z1.0000
G00 X34.2590 Y49.9780
G01 F60.00
G01 Z-0.2706
G01 F120.00
G01 X34.2563 Y49.9200
G01 X34.2597 Y49.8494
G01 X34.2701 Y49.7795
G01 X34.2873 Y49.7110
G01 X34.3111 Y49.6445
G01 X34.3413 Y49.5806
G01 X34.3776 Y49.5200
G01 X34.4197 Y49.4632
G01 X34.4672 Y49.4109
G01 X34.5195 Y49.3634
G01 X34.5763 Y49.3213
G01 X34.6369 Y49.2850
G01 X34.7007 Y49.2548
G01 X34.7673 Y49.2310
G01 X34.8358 Y49.2138
G01 X34.9057 Y49.2035
G01 X34.9763 Y49.2000
G01 X35.0468 Y49.2035
G01 X35.1167 Y49.2138
G01 X35.1853 Y49.2310
G01 X35.2518 Y49.2548
G01 X35.3157 Y49.2850
G01 X35.3763 Y49.3213
G01 X35.4330 Y49.3634
G01 X35.4854 Y49.4109
G01 X35.5328 Y49.4632
G01 X35.5749 Y49.5200
G01 X35.6113 Y49.5806
G01 X35.6415 Y49.6445
G01 X35.6653 Y49.7110
G01 X35.6824 Y49.7795
G01 X35.6928 Y49.8494
G01 X35.6963 Y49.9200
G01 X35.6928 Y49.9906
G01 X35.6824 Y50.0605
G01 X35.6664 Y50.1250
G01 X35.6640 Y50.1330
G01 X35.6415 Y50.1955
G01 X35.6131 Y50.2557
G01 X35.6092 Y50.2630
G01 X35.5772 Y50.3165
G01 X35.5725 Y50.3234
G01 X35.5328 Y50.3768
G01 X35.4854 Y50.4291
G01 X35.4330 Y50.4766
G01 X35.3763 Y50.5187
G01 X35.3157 Y50.5550
G01 X35.2556 Y50.5835
G01 X35.2479 Y50.5867
G01 X35.1853 Y50.6090
G01 X35.1208 Y50.6253
G01 X35.1126 Y50.6269
G01 X35.0510 Y50.6360
G01 X35.0427 Y50.6368
G01 X34.9763 Y50.6400
G01 X34.9183 Y50.6373
G01 X33.4575 Y52.0981
G01 X33.4575 Y58.0619
G01 X36.9614 Y61.5659
G01 X37.0463 Y61.5447
G01 X37.1408 Y61.5307
G01 X37.2363 Y61.5260
G01 X37.3276 Y61.5304
G01 X37.3359 Y61.5312
G01 X37.4222 Y61.5440
G01 X37.4304 Y61.5456
G01 X37.5190 Y61.5679
G01 X37.6051 Y61.5986
G01 X37.6128 Y61.6018
G01 X37.6917 Y61.6391
G01 X37.6990 Y61.6431
G01 X37.7774 Y61.6901
G01 X37.8542 Y61.7471
G01 X37.9220 Y61.8084
G01 X37.9279 Y61.8143
G01 X37.9892 Y61.8821
G01 X38.0437 Y61.9555
G01 X38.0484 Y61.9624
G01 X38.0953 Y62.0409
G01 X38.1344 Y62.1235
G01 X38.1376 Y62.1312
G01 X38.1683 Y62.2173
G01 X38.1906 Y62.3059
G01 X38.1923 Y62.3141
G01 X38.2056 Y62.4045
G01 X38.2103 Y62.5000
G01 X38.2059 Y62.5913
G01 X38.2051 Y62.5996
G01 X38.1916 Y62.6900
G01 X38.1694 Y62.7787
G01 X38.1670 Y62.7867
G01 X38.1361 Y62.8727
G01 X38.0971 Y62.9554
G01 X38.0932 Y62.9628
G01 X38.0461 Y63.0411
G01 X37.9918 Y63.1146
G01 X37.9865 Y63.1211
G01 X37.9250 Y63.1887
G01 X37.8542 Y63.2529
G01 X37.7774 Y63.3099
G01 X37.6990 Y63.3569
G01 X37.6917 Y63.3609
G01 X37.6090 Y63.3999
G01 X37.5230 Y63.4308
G01 X37.5150 Y63.4332
G01 X37.4283 Y63.4549
G01 X37.3317 Y63.4693
G01 X37.2404 Y63.4739
G01 X37.2321 Y63.4739
G01 X37.1408 Y63.4693
G01 X37.0504 Y63.4560
G01 X37.0422 Y63.4544
G01 X36.9535 Y63.4321
G01 X36.8674 Y63.4014
G01 X36.8597 Y63.3982
G01 X36.7771 Y63.3590
G01 X36.6987 Y63.3121
G01 X36.6917 Y63.3074
G01 X36.6184 Y63.2529
G01 X36.5461 Y63.1872
G01 X36.4861 Y63.1211
G01 X36.4808 Y63.1146
G01 X36.4264 Y63.0411
G01 X36.3793 Y62.9628
G01 X36.3754 Y62.9554
G01 X36.3364 Y62.8727
G01 X36.3055 Y62.7867
G01 X36.3031 Y62.7787
G01 X36.2810 Y62.6900
G01 X36.2675 Y62.5996
G01 X36.2667 Y62.5913
G01 X36.2623 Y62.5000
G01 X36.2667 Y62.4087
G01 X36.2675 Y62.4004
G01 X36.2810 Y62.3100
G01 X36.3021 Y62.2252
G01 X32.6602 Y58.5832
G01 X32.6309 Y58.5507
G01 X32.6061 Y58.5174
G01 X32.6014 Y58.5105
G01 X32.5801 Y58.4748
G01 X32.5623 Y58.4372
G01 X32.5591 Y58.4295
G01 X32.5452 Y58.3903
G01 X32.5345 Y58.3480
G01 X32.5273 Y58.3007
G01 X32.5251 Y58.2550
G01 X32.5251 Y51.9050
G01 X32.5273 Y51.8593
G01 X32.5340 Y51.8141
G01 X32.5440 Y51.7737
G01 X32.5465 Y51.7657
G01 X32.5606 Y51.7266
G01 X32.5801 Y51.6852
G01 X32.6014 Y51.6495
G01 X32.6061 Y51.6426
G01 X32.6309 Y51.6093
G01 X32.6602 Y51.5769
G01 X34.2590 Y49.9780
G00 Z1.0000
G00 X35.5244 Y52.9262
G01 F60.00
G01 Z-0.2706
G01 F120.00
G01 X35.4854 Y52.9691
G01 X35.4330 Y53.0166
G01 X35.3763 Y53.0587
G01 X35.3157 Y53.0950
G01 X35.2518 Y53.1252
G01 X35.1853 Y53.1490
G01 X35.1167 Y53.1662
G01 X35.0468 Y53.1765
G01 X34.9763 Y53.1800
G01 X34.9057 Y53.1765
G01 X34.8358 Y53.1662
G01 X34.7673 Y53.1490
G01 X34.7007 Y53.1252
G01 X34.6369 Y53.0950
G01 X34.5763 Y53.0587
G01 X34.5195 Y53.0166
G01 X34.4672 Y52.9691
G01 X34.4197 Y52.9168
G01 X34.3776 Y52.8600
G01 X34.3413 Y52.7994
G01 X34.3111 Y52.7355
G01 X34.2873 Y52.6690
G01 X34.2701 Y52.6005
G01 X34.2597 Y52.5306
G01 X34.2563 Y52.4600
G01 X34.2597 Y52.3894
G01 X34.2701 Y52.3195
G01 X34.2873 Y52.2510
G01 X34.3111 Y52.1845
G01 X34.3413 Y52.1206
G01 X34.3776 Y52.0600
G01 X34.4197 Y52.0032
G01 X34.4672 Y51.9509
G01 X34.5164 Y51.9062
G01 X34.5228 Y51.9009
G01 X34.5763 Y51.8613
G01 X34.6332 Y51.8271
G01 X34.6406 Y51.8231
G01 X34.6969 Y51.7965
G01 X34.7046 Y51.7933
G01 X34.7673 Y51.7710
G01 X34.8358 Y51.7538
G01 X34.9057 Y51.7435
G01 X34.9763 Y51.7400
G01 X35.0468 Y51.7435
G01 X35.1167 Y51.7538
G01 X35.1853 Y51.7710
G01 X35.2479 Y51.7933
G01 X35.2556 Y51.7965
G01 X35.3157 Y51.8250
G01 X35.3728 Y51.8591
G01 X35.3797 Y51.8637
G01 X35.4297 Y51.9009
G01 X35.4362 Y51.9062
G01 X35.4854 Y51.9509
G01 X35.5244 Y51.9938
G01 X39.6647 Y51.9938
G01 X39.6822 Y51.9783
G01 X39.7190 Y51.9512
G01 X39.7565 Y51.9289
G01 X39.7960 Y51.9101
G01 X39.8370 Y51.8952
G01 X39.8450 Y51.8928
G01 X39.8853 Y51.8828
G01 X39.9306 Y51.8761
G01 X39.9763 Y51.8738
G01 X40.8818 Y51.8738
G01 X40.8829 Y51.8662
G01 X40.8844 Y51.8601
G01 X40.8886 Y51.8484
G01 X40.8945 Y51.8373
G01 X40.8980 Y51.8322
G01 X40.9033 Y51.8257
G01 X41.2110 Y51.5179
G01 X41.2172 Y51.5123
G01 X41.2239 Y51.5073
G01 X41.2310 Y51.5030
G01 X41.2385 Y51.4995
G01 X41.2464 Y51.4967
G01 X41.2545 Y51.4946
G01 X41.2627 Y51.4934
G01 X41.2690 Y51.4930
G01 X43.2015 Y51.4930
G01 X43.2098 Y51.4934
G01 X43.2160 Y51.4943
G01 X43.2281 Y51.4973
G01 X43.2397 Y51.5021
G01 X43.2504 Y51.5085
G01 X43.2601 Y51.5164
G01 X43.5664 Y51.8227
G01 X43.5745 Y51.8322
G01 X43.5792 Y51.8391
G01 X43.5822 Y51.8446
G01 X43.5856 Y51.8522
G01 X43.5876 Y51.8581
G01 X43.5892 Y51.8642
G01 X43.5906 Y51.8724
G01 X43.5913 Y51.8828
G01 X43.5913 Y52.7972
G01 X43.5904 Y52.8097
G01 X43.5882 Y52.8199
G01 X43.5848 Y52.8297
G01 X43.5802 Y52.8391
G01 X43.5745 Y52.8478
G01 X43.5678 Y52.8558
G01 X43.2601 Y53.1636
G01 X43.2538 Y53.1690
G01 X43.2487 Y53.1727
G01 X43.2378 Y53.1788
G01 X43.2321 Y53.1813
G01 X43.2241 Y53.1839
G01 X43.2119 Y53.1864
G01 X43.2015 Y53.1870
G01 X41.2711 Y53.1870
G01 X41.2627 Y53.1866
G01 X41.2565 Y53.1857
G01 X41.2444 Y53.1827
G01 X41.2329 Y53.1779
G01 X41.2221 Y53.1715
G01 X41.2125 Y53.1636
G01 X40.9062 Y52.8573
G01 X40.9019 Y52.8527
G01 X40.8968 Y52.8461
G01 X40.8923 Y52.8391
G01 X40.8894 Y52.8335
G01 X40.8862 Y52.8258
G01 X40.8844 Y52.8199
G01 X40.8829 Y52.8138
G01 X40.8818 Y52.8062
G01 X40.1678 Y52.8062
G01 X40.1504 Y52.8217
G01 X40.1135 Y52.8488
G01 X40.0760 Y52.8712
G01 X40.0327 Y52.8915
G01 X39.9916 Y52.9061
G01 X39.9472 Y52.9172
G01 X39.9020 Y52.9240
G01 X39.8583 Y52.9262
G01 X35.5244 Y52.9262
G00 Z1.0000
G00 X35.5244 Y54.5338
G01 F60.00
G01 Z-0.2706
G01 F120.00
G01 X38.5147 Y54.5338
G01 X38.5322 Y54.5183
G01 X38.5690 Y54.4912
G01 X38.6065 Y54.4689
G01 X38.6460 Y54.4501
G01 X38.6909 Y54.4339
G01 X38.7313 Y54.4237
G01 X38.7394 Y54.4221
G01 X38.7764 Y54.4166
G01 X38.7847 Y54.4157
G01 X38.8263 Y54.4138
G01 X40.8818 Y54.4138
G01 X40.8829 Y54.4062
G01 X40.8844 Y54.4001
G01 X40.8862 Y54.3942
G01 X40.8894 Y54.3865
G01 X40.8934 Y54.3791
G01 X40.8968 Y54.3739
G01 X40.9006 Y54.3689
G01 X40.9062 Y54.3627
G01 X41.2125 Y54.0564
G01 X41.2221 Y54.0485
G01 X41.2329 Y54.0421
G01 X41.2444 Y54.0373
G01 X41.2565 Y54.0343
G01 X41.2648 Y54.0332
G01 X41.2711 Y54.0330
G01 X43.2015 Y54.0330
G01 X43.2098 Y54.0334
G01 X43.2160 Y54.0343
G01 X43.2241 Y54.0361
G01 X43.2301 Y54.0380
G01 X43.2378 Y54.0412
G01 X43.2487 Y54.0473
G01 X43.2554 Y54.0523
G01 X43.2601 Y54.0564
