(G-CODE GENERATED BY FLATCAM v8.994 - www.flatcam.org - Version Date: 2020/11/7)

(Name: acceso_stem_PCB - CADCAM Drill.DRL_cnc)
(Type: G-code from Geometry)
(Units: MM)

(Created on Thursday, 25 April 2024 at 10:22)


(TOOLS DIAMETER: )
(Tool: 1 -> Dia: 0.762)
(Tool: 2 -> Dia: 1.0)
(Tool: 3 -> Dia: 1.016)
(Tool: 4 -> Dia: 1.27)

(FEEDRATE Z: )
(Tool: 1 -> Feedrate: 300)
(Tool: 2 -> Feedrate: 300)
(Tool: 3 -> Feedrate: 300)
(Tool: 4 -> Feedrate: 300)

(FEEDRATE RAPIDS: )
(Tool: 1 -> Feedrate Rapids: 1500)
(Tool: 2 -> Feedrate Rapids: 1500)
(Tool: 3 -> Feedrate Rapids: 1500)
(Tool: 4 -> Feedrate Rapids: 1500)

(Z_CUT: )
(Tool: 1 -> Z_Cut: -2.0)
(Tool: 2 -> Z_Cut: -2.0)
(Tool: 3 -> Z_Cut: -2.0)
(Tool: 4 -> Z_Cut: -2.0)

(Tools Offset: )
(Tool: 2 -> Offset Z: 0.0)
(Tool: 4 -> Offset Z: 0.0)
(Tool: 3 -> Offset Z: 0.0)
(Tool: 1 -> Offset Z: 0.0)

(Z_MOVE: )
(Tool: 1 -> Z_Move: 1.0)
(Tool: 2 -> Z_Move: 1.0)
(Tool: 3 -> Z_Move: 1.0)
(Tool: 4 -> Z_Move: 1.0)

(Z Toolchange: 15 mm)
(X,Y Toolchange: 0.0000, 0.0000 mm)
(Z Start: None mm)
(Z End: 0.5 mm)
(X,Y End: None mm)
(Steps per circle: 64)
(Preprocessor Excellon: Toolchange_Manual)

(X range:    4.1890 ...   47.7780  mm)
(Y range:    4.1400 ...   63.0000  mm)

(Spindle Speed: 0 RPM)
G21
G90
G17
G94


G01 F300.00

M5
G00 Z15.0000
T1 
G00 X0.0000 Y0.0000 
(MSG, Change to Tool Dia = 0.7620 ||| Total drills for tool T1 = 90)
M0
G01 Z0
(MSG, Adjust the tool T1 to touch the material and then tighten it slightly.)
M0
G00 Z15.0000
(MSG, Now the tool can be tightened more securely.)
M0
(MSG, Drilling with Tool Dia = 0.7620 ||| Total drills for tool T1 = 90)

G01 F300.00
M03
G00 X19.7370 Y55.0000
G01 Z-2.0000
G01 Z0
G00 Z1.0000
G00 X19.7370 Y55.0000
G01 Z-2.0000
G01 Z0
G00 Z1.0000
G00 X19.7370 Y52.4600
G01 Z-2.0000
G01 Z0
G00 Z1.0000
G00 X19.7370 Y49.9200
G01 Z-2.0000
G01 Z0
G00 Z1.0000
G00 X19.7370 Y47.3800
G01 Z-2.0000
G01 Z0
G00 Z1.0000
G00 X19.7370 Y44.8400
G01 Z-2.0000
G01 Z0
G00 Z1.0000
G00 X19.7370 Y42.3000
G01 Z-2.0000
G01 Z0
G00 Z1.0000
G00 X19.7370 Y39.7600
G01 Z-2.0000
G01 Z0
G00 Z1.0000
G00 X19.7370 Y37.2200
G01 Z-2.0000
G01 Z0
G00 Z1.0000
G00 X19.7370 Y34.6800
G01 Z-2.0000
G01 Z0
G00 Z1.0000
G00 X19.7370 Y32.1400
G01 Z-2.0000
G01 Z0
G00 Z1.0000
G00 X19.7370 Y29.6000
G01 Z-2.0000
G01 Z0
G00 Z1.0000
G00 X19.7370 Y27.0600
G01 Z-2.0000
G01 Z0
G00 Z1.0000
G00 X19.7370 Y24.5200
G01 Z-2.0000
G01 Z0
G00 Z1.0000
G00 X19.7370 Y21.9800
G01 Z-2.0000
G01 Z0
G00 Z1.0000
G00 X19.7370 Y19.4400
G01 Z-2.0000
G01 Z0
G00 Z1.0000
G00 X19.7370 Y16.9000
G01 Z-2.0000
G01 Z0
G00 Z1.0000
G00 X19.7370 Y14.3600
G01 Z-2.0000
G01 Z0
G00 Z1.0000
G00 X19.7370 Y11.8200
G01 Z-2.0000
G01 Z0
G00 Z1.0000
G00 X19.7370 Y9.2800
G01 Z-2.0000
G01 Z0
G00 Z1.0000
G00 X19.7370 Y6.7400
G01 Z-2.0000
G01 Z0
G00 Z1.0000
G00 X12.2370 Y12.5000
G01 Z-2.0000
G01 Z0
G00 Z1.0000
G00 X7.1570 Y12.5000
G01 Z-2.0000
G01 Z0
G00 Z1.0000
G00 X4.7370 Y19.9600
G01 Z-2.0000
G01 Z0
G00 Z1.0000
G00 X4.7370 Y22.5000
G01 Z-2.0000
G01 Z0
G00 Z1.0000
G00 X4.7370 Y27.5000
G01 Z-2.0000
G01 Z0
G00 Z1.0000
G00 X7.2770 Y27.5000
G01 Z-2.0000
G01 Z0
G00 Z1.0000
G00 X7.2370 Y32.5000
G01 Z-2.0000
G01 Z0
G00 Z1.0000
G00 X4.6970 Y32.5000
G01 Z-2.0000
G01 Z0
G00 Z1.0000
G00 X4.7370 Y37.5000
G01 Z-2.0000
G01 Z0
G00 Z1.0000
G00 X8.4670 Y37.3400
G01 Z-2.0000
G01 Z0
G00 Z1.0000
G00 X14.7370 Y37.3000
G01 Z-2.0000
G01 Z0
G00 Z1.0000
G00 X14.7370 Y39.8400
G01 Z-2.0000
G01 Z0
G00 Z1.0000
G00 X14.7370 Y42.3800
G01 Z-2.0000
G01 Z0
G00 Z1.0000
G00 X14.7370 Y44.9200
G01 Z-2.0000
G01 Z0
G00 Z1.0000
G00 X14.7370 Y47.4600
G01 Z-2.0000
G01 Z0
G00 Z1.0000
G00 X14.7370 Y50.0000
G01 Z-2.0000
G01 Z0
G00 Z1.0000
G00 X8.4670 Y47.5000
G01 Z-2.0000
G01 Z0
G00 Z1.0000
G00 X4.7370 Y47.6600
G01 Z-2.0000
G01 Z0
G00 Z1.0000
G00 X7.2370 Y55.0000
G01 Z-2.0000
G01 Z0
G00 Z1.0000
G00 X9.7770 Y55.0000
G01 Z-2.0000
G01 Z0
G00 Z1.0000
G00 X7.2370 Y60.0000
G01 Z-2.0000
G01 Z0
G00 Z1.0000
G00 X14.7370 Y62.5000
G01 Z-2.0000
G01 Z0
G00 Z1.0000
G00 X17.3970 Y60.0000
G01 Z-2.0000
G01 Z0
G00 Z1.0000
G00 X22.3570 Y62.5000
G01 Z-2.0000
G01 Z0
G00 Z1.0000
G00 X27.0770 Y62.5000
G01 Z-2.0000
G01 Z0
G00 Z1.0000
G00 X37.2370 Y62.5000
G01 Z-2.0000
G01 Z0
G00 Z1.0000
G00 X42.2370 Y62.5000
G01 Z-2.0000
G01 Z0
G00 Z1.0000
G00 X42.2370 Y59.9600
G01 Z-2.0000
G01 Z0
G00 Z1.0000
G00 X42.2370 Y57.4200
G01 Z-2.0000
G01 Z0
G00 Z1.0000
G00 X42.2370 Y54.8800
G01 Z-2.0000
G01 Z0
G00 Z1.0000
G00 X42.2370 Y52.3400
G01 Z-2.0000
G01 Z0
G00 Z1.0000
G00 X42.2370 Y49.8000
G01 Z-2.0000
G01 Z0
G00 Z1.0000
G00 X37.2370 Y45.0000
G01 Z-2.0000
G01 Z0
G00 Z1.0000
G00 X34.9770 Y44.8400
G01 Z-2.0000
G01 Z0
G00 Z1.0000
G00 X34.9770 Y47.3800
G01 Z-2.0000
G01 Z0
G00 Z1.0000
G00 X34.9770 Y49.9200
G01 Z-2.0000
G01 Z0
G00 Z1.0000
G00 X34.9770 Y52.4600
G01 Z-2.0000
G01 Z0
G00 Z1.0000
G00 X34.9770 Y55.0000
G01 Z-2.0000
G01 Z0
G00 Z1.0000
G00 X34.9770 Y42.3000
G01 Z-2.0000
G01 Z0
G00 Z1.0000
G00 X34.9770 Y39.7600
G01 Z-2.0000
G01 Z0
G00 Z1.0000
G00 X34.9770 Y37.2200
G01 Z-2.0000
G01 Z0
G00 Z1.0000
G00 X34.9770 Y34.6800
G01 Z-2.0000
G01 Z0
G00 Z1.0000
G00 X37.2370 Y35.0000
G01 Z-2.0000
G01 Z0
G00 Z1.0000
G00 X34.9770 Y32.1400
G01 Z-2.0000
G01 Z0
G00 Z1.0000
G00 X34.9770 Y29.6000
G01 Z-2.0000
G01 Z0
G00 Z1.0000
G00 X34.9770 Y27.0600
G01 Z-2.0000
G01 Z0
G00 Z1.0000
G00 X34.9770 Y24.5200
G01 Z-2.0000
G01 Z0
G00 Z1.0000
G00 X34.9770 Y21.9800
G01 Z-2.0000
G01 Z0
G00 Z1.0000
G00 X34.9770 Y19.4400
G01 Z-2.0000
G01 Z0
G00 Z1.0000
G00 X34.9770 Y16.9000
G01 Z-2.0000
G01 Z0
G00 Z1.0000
G00 X34.9770 Y14.3600
G01 Z-2.0000
G01 Z0
G00 Z1.0000
G00 X34.9770 Y11.8200
G01 Z-2.0000
G01 Z0
G00 Z1.0000
G00 X34.9770 Y9.2800
G01 Z-2.0000
G01 Z0
G00 Z1.0000
G00 X34.9770 Y6.7400
G01 Z-2.0000
G01 Z0
G00 Z1.0000
G00 X42.2370 Y7.1800
G01 Z-2.0000
G01 Z0
G00 Z1.0000
G00 X42.2370 Y9.7200
G01 Z-2.0000
G01 Z0
G00 Z1.0000
G00 X42.2370 Y12.2600
G01 Z-2.0000
G01 Z0
G00 Z1.0000
G00 X42.2370 Y14.8000
G01 Z-2.0000
G01 Z0
G00 Z1.0000
G00 X42.2370 Y17.3400
G01 Z-2.0000
G01 Z0
G00 Z1.0000
G00 X42.2370 Y19.8800
G01 Z-2.0000
G01 Z0
G00 Z1.0000
G00 X42.2370 Y22.4200
G01 Z-2.0000
G01 Z0
G00 Z1.0000
G00 X42.2370 Y24.9600
G01 Z-2.0000
G01 Z0
G00 Z1.0000
G00 X42.2370 Y27.5000
G01 Z-2.0000
G01 Z0
G00 Z1.0000
G00 X47.3970 Y35.0000
G01 Z-2.0000
G01 Z0
G00 Z1.0000
G00 X47.2370 Y38.7700
G01 Z-2.0000
G01 Z0
G00 Z1.0000
G00 X47.2370 Y41.3100
G01 Z-2.0000
G01 Z0
G00 Z1.0000
G00 X47.3970 Y45.0000
G01 Z-2.0000
G01 Z0
G00 Z1.0000
G00 X42.2370 Y4.6400
G01 Z-2.0000
G01 Z0
G00 Z1.0000
G00 X12.2370 Y19.9600
G01 Z-2.0000
G01 Z0
G00 Z1.0000
G00 X12.2370 Y22.5000
G01 Z-2.0000
G01 Z0
G00 Z1.0000
M05
G00 Z0.50


